assets/luts/Film_Look.cube
TITLE "Generated by Resolve"
LUT_3D_SIZE 9
0.0895399 0.0880903 0.0897688
0.118074 0.0867628 0.0907454
0.201587 0.0697642 0.0760662
0.303532 0.0479286 0.0565499
0.417258 0.0257877 0.0364538
0.542153 0.00695811 0.0198825
0.686915 0 0.0069276
0.838834 0 0
0.999969 0 0
0.0865492 0.112902 0.082948
0.12047 0.114763 0.0873274
0.216632 0.107149 0.0825818
0.336553 0.0999771 0.0780957
0.466773 0.0913405 0.0722667
0.603937 0.0823072 0.0661479
0.754498 0.071107 0.0576333
0.911162 0.0593881 0.0487068
1 0.0467231 0.0386206
0.0714885 0.191775 0.0638437
0.120668 0.205676 0.0799268
0.227253 0.205325 0.0832685
0.352895 0.201114 0.0830243
0.488579 0.195727 0.0818647
0.631006 0.189303 0.0800641
0.78645 0.180087 0.0753033
0.947234 0.170077 0.06981
1 0.158648 0.0629435
0.0656596 0.302815 0.0541848
0.121935 0.319509 0.0722667
0.232914 0.321859 0.0784161
0.362417 0.320134 0.0812238
0.501213 0.316609 0.0823835
0.64622 0.311696 0.0820172
0.804425 0.303716 0.0795605
0.967742 0.294804 0.0758831
1 0.284291 0.0709239
0.0628367 0.427527 0.047715
0.124971 0.444968 0.0663005
0.239048 0.448737 0.07364
0.371023 0.448432 0.077821
0.511391 0.445899 0.0802014
0.65893 0.4421 0.0813611
0.81828 0.434653 0.0792706
0.983444 0.426429 0.0767834
1 0.416098 0.0722972
0.0614633 0.559411 0.0429236
0.130282 0.576989 0.061738
0.246571 0.581231 0.0696727
0.37995 0.581628 0.0745708
0.521233 0.579614 0.0775921
0.669841 0.575647 0.0787366
0.830961 0.568917 0.0773938
0.998642 0.561685 0.0762798
1 0.553475 0.0741741
0.055314 0.698085 0.0335546
0.129686 0.714611 0.051133
0.247822 0.719142 0.0598764
0.382956 0.720027 0.0655985
0.526238 0.719615 0.0700542
0.678264 0.717418 0.0733501
0.843427 0.713191 0.0749676
1 0.708171 0.0755474
1 0.701946 0.0755474
0.0462348 0.841276 0.0209506
0.127687 0.858198 0.039353
0.249073 0.865187 0.0499733
0.387427 0.868376 0.0577096
0.53344 0.870069 0.064332
0.688731 0.86952 0.0691234
0.854994 0.866636 0.0719921
1 0.862303 0.0735637
1 0.856352 0.0738842
0.0406195 0.994156 0.0116426
0.129396 1 0.0305791
0.25362 1 0.0426947
0.394186 1 0.0514992
0.540993 1 0.0588998
0.697963 1 0.0638743
0.865034 1 0.0670481
1 1 0.0689097
1 1 0.0703899
0.087953 0.0891432 0.109529
0.114611 0.0879988 0.112718
0.195102 0.070985 0.100542
0.296681 0.0497749 0.0851301
0.411887 0.0289006 0.0713512
0.538399 0.0122377 0.0622873
0.683131 0 0.0556191
0.835096 0 0.0478065
0.995926 0 0.0396277
0.0845808 0.114748 0.101152
0.118379 0.119051 0.108675
0.215351 0.114305 0.108812
0.335134 0.107454 0.107134
0.465507 0.0989853 0.104616
0.60209 0.0901503 0.102953
0.75198 0.0789654 0.0998093
0.908492 0.0674907 0.0963607
1 0.0546578 0.0915847
0.0731823 0.199222 0.0858473
0.119921 0.214374 0.1028
0.22565 0.214527 0.107362
0.350958 0.210849 0.109636
0.48658 0.205524 0.110872
0.628473 0.199222 0.111864
0.783276 0.189929 0.111452
0.943862 0.179995 0.111452
1 0.168109 0.109438
0.06804 0.311894 0.0771954
0.121538 0.329641 0.0960403
0.231922 0.332357 0.102525
0.360861 0.330999 0.106233
0.499153 0.327535 0.10927
0.644205 0.322683 0.111604
0.801587 0.314824 0.11194
0.964538 0.305715 0.112749
1 0.295003 0.112703
0.065156 0.437263 0.0710765
0.12459 0.455955 0.0901656
0.238148 0.46006 0.0976883
0.369482 0.459739 0.102113
0.509789 0.457618 0.10573
0.65626 0.45359 0.108858
0.815885 0.446296 0.109545
0.979965 0.437781 0.109834
1 0.427375 0.109834
0.0644388 0.569772 0.0673228
0.129595 0.58822 0.0859846
0.245441 0.593042 0.0940719
0.378668 0.593545 0.0988479
0.519753 0.591562 0.102419
0.667979 0.587732 0.105043
0.828809 0.581094 0.106126
0.995392 0.574014 0.107271
1 0.566003 0.108553
0.0581826 0.708736 0.0582895
0.129168 0.726162 0.0760357
0.246677 0.731228 0.0843214
0.381506 0.732708 0.0899519
0.525139 0.732479 0.0948806
0.677058 0.730571 0.0990616
0.841184 0.726513 0.102144
1 0.721462 0.105119
1 0.715007 0.107179
0.0492103 0.852369 0.0467994
0.12752 0.870542 0.0649729
0.248997 0.878187 0.0756847
0.386969 0.881788 0.082948
0.532647 0.883467 0.0895247
0.687556 0.883497 0.0949111
0.853651 0.88069 0.0985122
1 0.87631 0.101946
1 0.87013 0.104265
0.0436866 1 0.038117
0.129427 1 0.0572518
0.2533 1 0.0687114
0.393454 1 0.0771038
0.540017 1 0.0839246
0.69659 1 0.0893416
0.863661 1 0.092668
1 1 0.0961929
1 1 0.100175
0.0816968 0.0858625 0.183337
0.106569 0.0846265 0.19115
0.183215 0.0685435 0.182956
0.28394 0.0479286 0.17026
0.400641 0.0290532 0.159655
0.529534 0.0151064 0.154223
0.674159 0.00102235 0.148608
0.826093 0 0.142321
0.98674 0 0.134905
0.07953 0.114046 0.169085
0.112673 0.119997 0.184421
0.207874 0.117571 0.19144
0.327306 0.111192 0.194308
0.457481 0.102983 0.195483
0.593973 0.0944686 0.196048
0.743481 0.0837262 0.194324
0.900084 0.0725414 0.192172
1 0.0598917 0.188693
0.0716564 0.203403 0.151125
0.115618 0.219226 0.175479
0.21857 0.220066 0.186419
0.34316 0.216754 0.193225
0.478401 0.211292 0.19826
0.619699 0.205295 0.203006
0.77406 0.196155 0.204959
0.934203 0.186481 0.20618
1 0.174701 0.205371
0.0676738 0.317845 0.138613
0.117144 0.33637 0.164736
0.225483 0.339513 0.1776
0.353552 0.338109 0.186786
0.491432 0.334371 0.193835
0.635233 0.32958 0.199832
0.792508 0.321935 0.203601
0.954803 0.312978 0.206439
1 0.302251 0.207523
0.0657511 0.444358 0.12874
0.120485 0.46363 0.155077
0.232654 0.468025 0.169192
0.362722 0.467689 0.179049
0.502663 0.465339 0.187381
0.648112 0.461036 0.194232
0.806653 0.454047 0.198672
0.970291 0.445396 0.201709
1 0.434974 0.203326
0.0656138 0.577783 0.121035
0.125658 0.596796 0.146929
0.24036 0.601724 0.16144
0.372168 0.601816 0.171389
0.512596 0.599634 0.180133
0.659922 0.595712 0.18761
0.820401 0.589502 0.193072
0.986404 0.582605 0.197742
1 0.574044 0.201389
0.0594797 0.717281 0.107607
0.125048 0.735485 0.132815
0.241306 0.740795 0.147509
0.37554 0.742 0.158907
0.518608 0.741741 0.169375
0.669688 0.74023 0.179141
0.833494 0.736095 0.186603
1 0.731075 0.1935
1 0.724376 0.199069
0.0514687 0.861769 0.0931106
0.124788 0.881239 0.118959
0.244648 0.888762 0.135531
0.381872 0.892256 0.148867
0.52723 0.893645 0.160937
0.680751 0.893675 0.171572
0.84625 0.890623 0.180255
1 0.885908 0.187045
1 0.879606 0.193256
0.0465553 1 0.0818952
0.127275 1 0.108019
0.24947 1 0.12549
0.388647 1 0.13959
0.534997 1 0.152087
0.689876 1 0.162768
0.856535 1 0.17116
1 1 0.179049
1 1 0.186984
0.0730907 0.0806439 0.286198
0.0963455 0.079057 0.295354
0.169284 0.0645304 0.289326
0.269947 0.0456092 0.278676
0.387594 0.0284123 0.269978
0.518181 0.0166781 0.267185
0.661997 0.00314336 0.263111
0.814481 0 0.257908
0.974716 0 0.25127
0.0716411 0.111299 0.270649
0.105913 0.119936 0.291066
0.198138 0.119432 0.301778
0.31667 0.113344 0.306523
0.446845 0.105531 0.309377
0.582864 0.0975052 0.311437
0.732082 0.0873274 0.311208
0.88896 0.0763409 0.310079
1 0.0637675 0.307073
0.0674449 0.204944 0.254444
0.10959 0.221317 0.281956
0.208972 0.223575 0.295781
0.332769 0.220676 0.30457
0.467643 0.215595 0.311269
0.608423 0.209552 0.31725
0.762036 0.201083 0.320821
0.922438 0.191333 0.322423
1 0.17995 0.322759
0.0646677 0.320714 0.240833
0.110857 0.33991 0.270817
0.216434 0.344076 0.286488
0.343603 0.343038 0.297551
0.480705 0.339605 0.305989
0.624262 0.33489 0.313802
0.780346 0.327306 0.318456
0.942962 0.318654 0.32224
1 0.307607 0.323919
0.0630198 0.448035 0.229786
0.113558 0.468498 0.260395
0.223606 0.473259 0.276905
0.353079 0.473243 0.289021
0.491951 0.470832 0.298512
0.63714 0.466865 0.30724
0.795132 0.459922 0.312779
0.958144 0.451438 0.316716
1 0.440818 0.319234
0.0633555 0.581811 0.221118
0.118791 0.602228 0.251499
0.231632 0.607538 0.268193
0.362554 0.607675 0.280552
0.502678 0.605341 0.290715
0.648966 0.602029 0.299443
0.809155 0.596048 0.306462
0.975219 0.589548 0.312825
1 0.581262 0.317296
0.0572976 0.721767 0.205768
0.11783 0.741375 0.235401
0.232792 0.747204 0.252842
0.36614 0.748638 0.266316
0.50901 0.748501 0.278767
0.659327 0.747402 0.290455
0.822522 0.743755 0.29929
0.991409 0.738857 0.307912
1 0.732296 0.314595
0.0503395 0.867399 0.190433
0.118456 0.888258 0.220951
0.236942 0.896193 0.240497
0.372992 0.899672 0.255772
0.518303 0.901534 0.269703
0.67097 0.901686 0.282719
0.836164 0.89865 0.292409
1 0.89395 0.300923
1 0.887526 0.308141
0.0455634 1 0.178088
0.120928 1 0.208362
0.241947 1 0.228565
0.380011 1 0.244633
0.525902 1 0.259068
0.679896 1 0.272007
0.845747 1 0.282338
1 1 0.291798
1 1 0.301564
0.0630655 0.0741436 0.403937
0.0855879 0.0721752 0.41326
0.154162 0.0596323 0.41001
0.254795 0.0427405 0.402075
0.374563 0.0279545 0.396674
0.505531 0.0172427 0.395758
0.648417 0.00444038 0.392218
0.80116 0 0.387869
0.960616 0 0.38233
0.0631113 0.107805 0.388937
0.0989242 0.118929 0.413108
0.186847 0.120272 0.426917
0.304295 0.114855 0.432853
0.434302 0.107439 0.436835
0.570855 0.0995804 0.440085
0.71928 0.0901503 0.441077
0.876112 0.079469 0.440711
1 0.0671244 0.438544
0.0616007 0.20531 0.375067
0.102586 0.222141 0.40415
0.197879 0.226032 0.420554
0.320745 0.223545 0.430381
0.455207 0.218906 0.4383
0.595743 0.21326 0.445304
0.74873 0.205173 0.44976
0.908751 0.195514 0.451942
1 0.184283 0.453193
0.0599527 0.322347 0.361898
0.104433 0.342138 0.393576
0.205783 0.347616 0.41117
0.331716 0.346761 0.42295
0.468956 0.343389 0.432639
0.611811 0.339361 0.441291
0.767163 0.332006 0.44715
0.929458 0.323476 0.45185
1 0.312535 0.453422
0.0590372 0.450248 0.350423
0.106981 0.47155 0.383337
0.213169 0.477333 0.401511
0.34168 0.477806 0.41442
0.480034 0.475151 0.424964
0.624704 0.471687 0.43473
0.781598 0.464744 0.440757
0.944732 0.45626 0.445686
1 0.44596 0.448386
0.0594034 0.58436 0.34107
0.110689 0.60621 0.374075
0.221241 0.611856 0.392432
0.351064 0.612406 0.405692
0.490562 0.610361 0.416526
0.636835 0.607233 0.426932
0.796063 0.601755 0.434287
0.961563 0.595224 0.441428
1 0.587579 0.447471
0.0537575 0.724819 0.325048
0.109346 0.745892 0.357458
0.22266 0.752224 0.376471
0.355428 0.754162 0.391546
0.497841 0.754498 0.40502
0.647547 0.753811 0.417594
0.810346 0.75024 0.427771
0.978149 0.745449 0.436637
1 0.738979 0.444282
0.0474098 0.871229 0.308949
0.110292 0.893629 0.342947
0.227344 0.902419 0.364004
0.363165 0.906035 0.38085
0.508003 0.90808 0.396155
0.659556 0.908583 0.409857
0.823957 0.905516 0.420737
0.992859 0.901061 0.429831
1 0.894606 0.437446
0.0436866 1 0.296315
0.113405 1 0.330312
0.232258 1 0.351598
0.369635 1 0.369207
0.515236 1 0.384756
0.668238 1 0.398459
0.83386 1 0.40972
1 1 0.421241
1 1 0.430762
0.0521859 0.0667735 0.530022
0.0750744 0.0648966 0.539544
0.13843 0.0543221 0.539071
0.239002 0.0399176 0.533944
0.360815 0.027863 0.531914
0.492027 0.0173648 0.531838
0.634165 0.00534066 0.529564
0.78674 0 0.525979
0.946105 0 0.521706
0.0544137 0.104524 0.517082
0.0919661 0.117388 0.543511
0.174624 0.120714 0.559853
0.291081 0.11603 0.567102
0.420905 0.109087 0.572106
0.557336 0.101701 0.576288
0.705272 0.0926833 0.578714
0.862089 0.0818799 0.579019
1 0.0700847 0.577966
0.0552682 0.204715 0.505257
0.0962234 0.222324 0.535851
0.186435 0.228046 0.554162
0.307866 0.226184 0.56524
0.442008 0.221775 0.573449
0.582315 0.216495 0.581018
0.734417 0.20885 0.58616
0.894392 0.199313 0.589807
1 0.188357 0.591379
0.0542763 0.323018 0.492546
0.0977951 0.343603 0.52575
0.194614 0.350347 0.545403
0.319432 0.350057 0.558022
0.455665 0.347143 0.567987
0.598291 0.343008 0.577188
0.752804 0.336339 0.583597
0.914717 0.327871 0.588586
1 0.31696 0.591562
0.0541848 0.451713 0.481559
0.100053 0.473548 0.515602
0.202136 0.480781 0.535866
0.329473 0.481315 0.549416
0.467292 0.479271 0.560006
0.611536 0.475944 0.570321
0.767422 0.469215 0.577142
0.929763 0.46099 0.582284
1 0.450843 0.58616
0.0551156 0.586313 0.472068
0.103304 0.608988 0.506752
0.209934 0.615625 0.526345
0.338766 0.616236 0.539971
0.478172 0.614435 0.551629
0.623499 0.612238 0.562463
0.782483 0.607034 0.571252
0.947616 0.600824 0.578775
1 0.593332 0.585229
0.0491035 0.726772 0.455589
0.10074 0.749416 0.490288
0.211353 0.756771 0.510384
0.343084 0.759167 0.52607
0.485908 0.75996 0.540475
0.634684 0.759716 0.553872
0.796597 0.756146 0.564355
0.96463 0.751812 0.574197
1 0.745556 0.582055
0.0439612 0.874327 0.440436
0.101808 0.89839 0.476295
0.216907 0.907301 0.498222
0.351446 0.911681 0.515862
0.496056 0.913848 0.531762
0.647105 0.914504 0.546288
0.81033 0.911513 0.556909
0.97879 0.907301 0.567117
1 0.901061 0.574853
0.0403449 1 0.427008
0.104341 1 0.463081
0.222187 1 0.486229
0.358541 1 0.504448
0.503624 1 0.520272
0.655467 1 0.534981
0.820523 1 0.546273
0.992096 1 0.558404
1 1 0.568719
0.0402075 0.0583505 0.667094
0.0640269 0.0567788 0.67863
0.122683 0.049134 0.682414
0.22298 0.0366369 0.68098
0.345953 0.026627 0.68217
0.476982 0.0167086 0.683742
0.618357 0.00529488 0.683345
0.770977 0 0.680995
0.929793 0 0.677867
0.0460517 0.10161 0.657053
0.0849317 0.11519 0.68574
0.161471 0.120272 0.705379
0.276692 0.116289 0.714809
0.406027 0.109682 0.721416
0.542779 0.102831 0.72726
0.689387 0.0941482 0.731075
0.846433 0.08365 0.733104
1 0.0720378 0.733394
0.0481575 0.203555 0.645518
0.089601 0.221546 0.677516
0.173892 0.229007 0.699382
0.294331 0.227893 0.712276
0.427558 0.223758 0.721981
0.56788 0.218677 0.731304
0.718242 0.211276 0.737682
0.878218 0.201877 0.74226
1 0.191318 0.745541
0.0481727 0.323232 0.633097
0.0914931 0.34406 0.667399
0.182544 0.352361 0.68983
0.30602 0.352483 0.704173
0.442039 0.349828 0.716106
0.583688 0.345968 0.726497
0.737102 0.33962 0.734691
0.898589 0.330694 0.740078
1 0.320684 0.744411
0.0487984 0.452598 0.621897
0.0933547 0.474815 0.657298
0.190356 0.483543 0.679866
0.315694 0.48423 0.69482
0.453605 0.482414 0.707622
0.596445 0.479103 0.718776
0.751736 0.47274 0.727062
0.914076 0.464332 0.733364
1 0.454917 0.738567
0.0497444 0.587762 0.611749
0.0963912 0.610788 0.648081
0.198047 0.618692 0.669764
0.325109 0.619684 0.685054
0.464027 0.618204 0.698146
0.609415 0.615961 0.710582
0.76733 0.611429 0.72047
0.932692 0.60557 0.729885
1 0.598306 0.737606
0.0439765 0.728542 0.594125
0.0931411 0.751995 0.631113
0.199908 0.760281 0.653376
0.33077 0.763424 0.671138
0.472633 0.764492 0.686687
0.621027 0.764462 0.701656
0.781735 0.761318 0.713344
0.949416 0.757076 0.724483
1 0.750805 0.733715
0.039765 0.877028 0.579156
0.093431 0.902358 0.6177
0.205646 0.912047 0.641794
0.33959 0.916808 0.660746
0.483314 0.919234 0.677653
0.633433 0.920058 0.693599
0.79588 0.917113 0.705791
0.963928 0.912871 0.716838
1 0.906813 0.726284
0.0363928 1 0.565621
0.0949569 1 0.604273
0.2103 1 0.628199
0.34551 1 0.647608
0.490669 1 0.665248
0.641627 1 0.680919
0.806592 1 0.694697
0.97763 1 0.708354
1 1 0.71957
0.0271305 0.0488594 0.817899
0.0522927 0.0477455 0.830381
0.106386 0.0433661 0.838315
0.20708 0.0339361 0.839963
0.330083 0.0250248 0.843015
0.461189 0.0154421 0.844984
0.60174 0.00471504 0.845838
0.754208 0 0.844465
0.912627 0 0.842222
0.0368048 0.0980545 0.811734
0.076997 0.111986 0.841321
0.147417 0.119081 0.863691
0.26125 0.115862 0.874235
0.389975 0.109972 0.881605
0.526818 0.103487 0.888182
0.672663 0.0952163 0.893278
0.829602 0.0848707 0.895491
0.992294 0.0737163 0.897047
0.0405432 0.201633 0.801297
0.082475 0.219593 0.833982
0.16054 0.229236 0.858259
0.279011 0.22855 0.871992
0.41207 0.22501 0.882872
0.55201 0.220295 0.89247
0.701549 0.213291 0.899611
0.861479 0.203983 0.904494
1 0.193637 0.90811
0.0412604 0.322271 0.789044
0.085008 0.34313 0.824231
0.169543 0.353292 0.848966
0.290944 0.354101 0.864179
0.426581 0.351797 0.876875
0.56846 0.347997 0.887816
0.720394 0.342077 0.896376
0.881697 0.333318 0.902342
1 0.323491 0.907225
0.0421607 0.452354 0.777554
0.086717 0.474678 0.813886
0.177615 0.484947 0.838834
0.301503 0.486229 0.854917
0.438468 0.484703 0.868238
0.581231 0.481392 0.879881
0.734874 0.475181 0.888533
0.896956 0.467353 0.895201
1 0.458518 0.901717
0.0432136 0.588006 0.767086
0.0885023 0.611032 0.804288
0.185077 0.620203 0.828199
0.310887 0.621698 0.8448
0.449424 0.620813 0.858946
0.594095 0.619135 0.871824
0.751003 0.61474 0.882795
0.916396 0.609476 0.892485
1 0.60267 0.900984
0.0377813 0.729061 0.749157
0.085008 0.753033 0.787488
0.187121 0.763165 0.812238
0.316716 0.766888 0.831128
0.458381 0.768215 0.847761
0.605798 0.768475 0.862898
0.766186 0.765728 0.876005
0.933715 0.761639 0.887327
1 0.755566 0.896849
0.0343481 0.878264 0.734096
0.0853742 0.904295 0.774502
0.193484 0.915511 0.800671
0.325978 0.920745 0.820691
0.469581 0.92314 0.838483
0.618509 0.923827 0.854627
0.780026 0.921401 0.867903
0.947585 0.917342 0.879316
1 0.911543 0.888975
0.0317235 1 0.720684
0.0857557 1 0.761273
0.198398 1 0.786954
0.331991 1 0.807385
0.476371 1 0.82536
0.6271 1 0.842756
0.791394 1 0.85745
0.961761 1 0.871199
1 1 0.88275
0.0135348 0.0393225 0.976287
0.0402991 0.0383917 0.989685
0.0899214 0.0375372 1
0.191241 0.0309606 1
0.313329 0.0228733 1
0.444556 0.0135958 1
0.583871 0.00361639 1
0.736309 0 1
0.894575 0 1
0.0274815 0.0941482 0.973373
0.0689097 0.108095 1
0.133043 0.117388 1
0.244739 0.11487 1
0.373419 0.109667 1
0.50988 0.103334 1
0.65478 0.0956588 1
0.811337 0.0854963 1
0.973617 0.0748302 1
0.0321355 0.199115 0.963836
0.0753948 0.217227 0.997726
0.147112 0.22884 1
0.263539 0.228901 1
0.395804 0.225711 1
0.535531 0.220951 1
0.683757 0.214557 1
0.843198 0.2056 1
1 0.195377 1
0.0337377 0.320928 0.951736
0.0779278 0.341527 0.987152
0.155993 0.353765 1
0.275944 0.355093 1
0.410376 0.352956 1
0.552193 0.349523 1
0.70248 0.343511 1
0.863691 0.335332 1
1 0.325322 1
0.0349584 0.451316 0.940307
0.0799268 0.473945 0.977234
0.163989 0.48571 1
0.286656 0.487678 1
0.422644 0.486366 1
0.564782 0.483238 1
0.717067 0.47747 1
0.879499 0.469688 1
1 0.461234 1
0.0364691 0.587564 0.929808
0.0817578 0.610452 0.967407
0.171588 0.621546 0.993759
0.29572 0.623667 1
0.433783 0.623178 1
0.578561 0.621607 1
0.734142 0.61796 1
0.899733 0.61268 1
1 0.606332 1
0.0308843 0.729091 0.91162
0.0772564 0.753307 0.950545
0.174243 0.765194 0.977813
0.30222 0.769787 0.998428
0.443595 0.771481 1
0.590677 0.77174 1
0.749538 0.769741 1
0.916777 0.765713 1
1 0.75967 1
0.0281529 0.879347 0.897337
0.0773785 0.905806 0.938491
0.181094 0.918456 0.966583
0.312123 0.924147 0.987686
0.454582 0.926696 1
0.603082 0.927642 1
0.763378 0.925444 1
0.930983 0.921523 1
1 0.915846 1
0.0261845 1 0.883757
0.0777295 1 0.925444
0.185626 1 0.952651
0.317632 1 0.973907
0.461158 1 0.99234
0.611307 1 1
0.77557 1 1
0.945296 1 1
1 1 1
