assets/luts/Film_Look.cube
TITLE "Generated by Resolve"
LUT_3D_SIZE 33
0.0895399 0.0880903 0.0897688
0.0953689 0.0882124 0.0904097
0.100435 0.0884718 0.091249
0.106706 0.0881971 0.0914626
0.118074 0.0867628 0.0907454
0.136263 0.0834211 0.0878767
0.157076 0.0792554 0.0842603
0.178744 0.0747387 0.0803082
0.201587 0.0697642 0.0760662
0.225299 0.0643778 0.0712139
0.250324 0.0590066 0.0664073
0.276585 0.0534524 0.0614633
0.303532 0.0479286 0.0565499
0.330877 0.0423133 0.0513466
0.358968 0.0363928 0.0460517
0.387686 0.0308537 0.0411688
0.417258 0.0257877 0.0364538
0.447776 0.0208743 0.0322881
0.478202 0.0161746 0.0279393
0.509575 0.0115206 0.024094
0.542153 0.00695811 0.0198825
0.576944 0.00300603 0.0164645
0.612573 0 0.0132448
0.649561 0 0.0100862
0.686915 0 0.0069276
0.724529 0 0.00370794
0.762234 0 4.57771e-05
0.80032 0 0
0.838834 0 0
0.878477 0 0
0.91873 0 0
0.959533 0 0
0.999969 0 0
0.0896162 0.0943008 0.0889296
0.0953841 0.0943618 0.0894789
0.100359 0.0945449 0.0902113
0.106645 0.0942245 0.0904707
0.117769 0.0924849 0.0893263
0.13576 0.0887465 0.0859541
0.156512 0.0843214 0.0823529
0.17821 0.0799268 0.0783398
0.201221 0.0753185 0.0743572
0.225635 0.0704509 0.0700542
0.251026 0.0653697 0.0655833
0.277394 0.060029 0.0607004
0.305028 0.0551308 0.0564889
0.333684 0.0505531 0.0522774
0.362951 0.0458381 0.0483711
0.392828 0.0414282 0.0442817
0.423697 0.0371405 0.0406806
0.4551 0.0334478 0.0373083
0.487449 0.0302739 0.0346685
0.520775 0.0274357 0.0324407
0.554879 0.0243076 0.0298009
0.590219 0.0209201 0.0268711
0.626871 0.0178531 0.0243229
0.66389 0.0142672 0.0215
0.701335 0.0106813 0.0182498
0.739712 0.00714122 0.0152895
0.7776 0.00352483 0.0119478
0.815915 0.000106813 0.00935378
0.8551 0 0.00650034
0.894896 0 0.00314336
0.935256 0 1.5259e-05
0.976028 0 0
1 0 0
0.0904707 0.0998093 0.0887007
0.0959029 0.0995804 0.0891432
0.10045 0.099321 0.0894026
0.106859 0.0989395 0.089601
0.118349 0.0974441 0.088426
0.137087 0.0940414 0.0856184
0.157992 0.090135 0.0823224
0.18024 0.0858625 0.0786145
0.203677 0.081529 0.074876
0.229221 0.0774395 0.071397
0.256138 0.0735943 0.0679484
0.283726 0.0694133 0.0644999
0.312383 0.0654307 0.0608835
0.341924 0.0615091 0.0576944
0.372869 0.058381 0.0550546
0.404791 0.0557107 0.0527352
0.437415 0.0531472 0.0507057
0.470192 0.0505074 0.0485389
0.503014 0.0478218 0.0465858
0.536568 0.0453956 0.0444343
0.571099 0.0426337 0.0421302
0.607034 0.0396582 0.0396429
0.64332 0.0364385 0.0367895
0.680919 0.0332036 0.034165
0.718715 0.0297704 0.0311742
0.756909 0.0263523 0.0280003
0.795483 0.0231937 0.0255894
0.834012 0.0200351 0.0229191
0.872877 0.0166171 0.0198215
0.912871 0.0129854 0.0169528
0.953857 0.00953689 0.0141451
0.995285 0.00578317 0.0107271
1 0.00250248 0.00807202
0.0896468 0.105013 0.0868544
0.0953078 0.105058 0.0875563
0.100496 0.105348 0.0885786
0.107469 0.105303 0.0890364
0.119539 0.103685 0.0880293
0.139208 0.100786 0.0857099
0.161227 0.0978561 0.0833143
0.18471 0.0946975 0.0809033
0.209766 0.0915541 0.0783398
0.236164 0.0884718 0.0757
0.264225 0.0852674 0.0733501
0.293873 0.0828565 0.071519
0.324376 0.0805219 0.069688
0.355627 0.078172 0.0678111
0.387884 0.0760204 0.0662699
0.420356 0.0735943 0.0644846
0.453193 0.071107 0.0627451
0.48632 0.0689097 0.0608988
0.519631 0.0665141 0.0590372
0.553506 0.0639506 0.057023
0.588525 0.0614328 0.0550393
0.624689 0.058793 0.0528115
0.661509 0.0557565 0.0503853
0.699214 0.0525216 0.0476692
0.737118 0.0493477 0.0447852
0.775998 0.0465248 0.0424506
0.814771 0.0432898 0.0399786
0.8533 0.0402533 0.0373083
0.89276 0.0371405 0.0347143
0.933227 0.0339208 0.0322728
0.973999 0.0307774 0.0295109
1 0.0271305 0.0264897
1 0.0238346 0.0238041
0.0865492 0.112902 0.082948
0.0923323 0.113146 0.0836957
0.0984817 0.114229 0.08542
0.106737 0.115221 0.0871595
0.12047 0.114763 0.0873274
0.141543 0.112749 0.0859693
0.164553 0.110689 0.0844434
0.189639 0.108873 0.0834058
0.216632 0.107149 0.0825818
0.245319 0.105699 0.0818494
0.274723 0.103838 0.0806134
0.305058 0.101808 0.0791791
0.336553 0.0999771 0.0780957
0.368536 0.0979477 0.0768292
0.400916 0.0956893 0.0753643
0.433707 0.0935378 0.0738689
0.466773 0.0913405 0.0722667
0.500221 0.0890211 0.0706951
0.534127 0.0869459 0.0694591
0.56875 0.0848249 0.0681773
0.603937 0.0823072 0.0661479
0.640284 0.0795148 0.0640269
0.677485 0.0766308 0.0617685
0.715923 0.0738842 0.0597086
0.754498 0.071107 0.0576333
0.793347 0.0680705 0.0552834
0.832486 0.0650187 0.052903
0.87158 0.0624094 0.050782
0.911162 0.0593881 0.0487068
0.951965 0.0563516 0.0463722
0.993484 0.0530556 0.0435492
1 0.0497139 0.0408942
1 0.0467231 0.0386206
0.0798657 0.125841 0.075227
0.0868544 0.127428 0.0772106
0.0938888 0.12932 0.0799878
0.103334 0.130953 0.082414
0.119173 0.132082 0.0841688
0.142077 0.131685 0.0845502
0.167178 0.131167 0.0848707
0.193668 0.130419 0.0848859
0.22121 0.129183 0.0844739
0.250217 0.127687 0.0839246
0.280659 0.126223 0.0832837
0.311421 0.124468 0.0823529
0.343145 0.122637 0.0814984
0.375433 0.120623 0.0804608
0.408408 0.118654 0.0796216
0.441718 0.116503 0.078584
0.475013 0.114443 0.0773022
0.509316 0.112642 0.076463
0.543481 0.110536 0.075349
0.578317 0.108309 0.0740826
0.614023 0.105989 0.0725872
0.651148 0.103685 0.0710002
0.688884 0.100938 0.0692302
0.727794 0.0982528 0.0676432
0.766567 0.0954299 0.0655833
0.805951 0.0928206 0.0639353
0.845228 0.0899519 0.0620279
0.88452 0.0871595 0.0599222
0.92517 0.0843671 0.0582284
0.966201 0.0812238 0.0561074
1 0.0782483 0.053727
1 0.0748608 0.0512551
1 0.0716869 0.0492561
0.0741741 0.143359 0.0685283
0.0826886 0.14667 0.0721294
0.0915084 0.150408 0.076585
0.102525 0.15349 0.0802777
0.11928 0.155093 0.0826429
0.143206 0.155474 0.0836805
0.168627 0.155016 0.0839857
0.195148 0.15433 0.0842145
0.22356 0.153445 0.0842451
0.252842 0.152087 0.0838636
0.283391 0.150774 0.0835431
0.314778 0.149371 0.0831006
0.346609 0.147692 0.0823224
0.37908 0.145846 0.0814374
0.412146 0.143893 0.0805066
0.445975 0.142168 0.0799115
0.480186 0.140414 0.0793011
0.514412 0.138506 0.0785077
0.548623 0.136706 0.077409
0.58378 0.134966 0.0766155
0.620127 0.132753 0.0754559
0.657435 0.130602 0.0743267
0.695537 0.128084 0.072694
0.734264 0.125475 0.0710307
0.773678 0.122881 0.0695048
0.813153 0.120104 0.0678874
0.852857 0.117403 0.066041
0.89279 0.114885 0.0645609
0.933272 0.112139 0.0627298
0.974472 0.109255 0.0606088
1 0.105959 0.0586099
1 0.102708 0.0564279
1 0.0998856 0.0544442
0.0725872 0.166766 0.0659495
0.0814527 0.170596 0.0699779
0.0908217 0.17467 0.074876
0.102449 0.178103 0.0787518
0.120241 0.17995 0.08159
0.144152 0.180011 0.0825818
0.169924 0.17995 0.0833448
0.196674 0.179477 0.0835126
0.225208 0.178607 0.0835737
0.255253 0.177813 0.083711
0.286046 0.176608 0.0835431
0.317494 0.175128 0.0831159
0.349706 0.173587 0.0825818
0.382834 0.172213 0.0823072
0.416312 0.170581 0.0817731
0.450294 0.1691 0.0812238
0.484276 0.167452 0.0804913
0.518517 0.165789 0.0799725
0.553521 0.164324 0.0796826
0.589029 0.162463 0.0789044
0.62562 0.160571 0.0780957
0.663203 0.158389 0.0768139
0.701701 0.15613 0.0756542
0.74078 0.153643 0.0742657
0.780255 0.150988 0.0724804
0.819944 0.148287 0.0708934
0.859876 0.145907 0.0697185
0.899809 0.143481 0.0682231
0.940505 0.140841 0.0665141
0.981994 0.13785 0.064622
1 0.134676 0.062562
1 0.131777 0.0607614
1 0.128817 0.0589761
0.0714885 0.191775 0.0638437
0.0806134 0.195865 0.068452
0.0898756 0.200015 0.0728923
0.102251 0.203571 0.0770428
0.120668 0.205676 0.0799268
0.145113 0.205951 0.0811322
0.171008 0.205875 0.0820478
0.198169 0.205585 0.0827802
0.227253 0.205325 0.0832685
0.257465 0.204379 0.0832685
0.288457 0.203342 0.083238
0.320363 0.202243 0.0832227
0.352895 0.201114 0.0830243
0.386252 0.199954 0.082826
0.419837 0.198535 0.0823987
0.453819 0.197055 0.0820478
0.488579 0.195727 0.0818647
0.523278 0.194141 0.0814984
0.558297 0.192645 0.081117
0.593957 0.19118 0.0806897
0.631006 0.189303 0.0800641
0.668818 0.187243 0.0791943
0.707546 0.184833 0.0779889
0.746578 0.182406 0.0765087
0.78645 0.180087 0.0753033
0.826307 0.177646 0.0738842
0.866346 0.175341 0.0726177
0.906355 0.172793 0.0712902
0.947234 0.170077 0.06981
0.988907 0.167224 0.0681468
1 0.164416 0.0662547
1 0.161364 0.0643931
1 0.158648 0.0629435
0.0700236 0.217639 0.0613565
0.0791943 0.222324 0.0661631
0.0890822 0.226917 0.0711223
0.10164 0.230518 0.0750591
0.120668 0.232395 0.0776684
0.145464 0.232822 0.0790875
0.171878 0.233356 0.0806134
0.199695 0.233402 0.0816663
0.228672 0.23299 0.0822614
0.259007 0.232303 0.082475
0.290562 0.231678 0.0828412
0.322667 0.230686 0.0827955
0.355489 0.229831 0.0828565
0.388937 0.228595 0.0827955
0.423041 0.227405 0.0827192
0.457557 0.226108 0.0826429
0.492164 0.22472 0.0823072
0.526986 0.223346 0.0820478
0.56228 0.22211 0.082002
0.598474 0.2206 0.0817731
0.635599 0.218799 0.0813458
0.673686 0.216678 0.0805524
0.712276 0.214481 0.0793927
0.751598 0.212314 0.0783398
0.791562 0.209918 0.0771649
0.831861 0.207706 0.0761273
0.871855 0.205295 0.0748455
0.9122 0.202808 0.0736248
0.953353 0.200107 0.0723125
0.995743 0.197482 0.0707866
1 0.194537 0.0691234
1 0.191791 0.067628
1 0.189029 0.0658885
0.0685893 0.245228 0.0591897
0.0778363 0.249882 0.0639353
0.087602 0.25452 0.0686046
0.100984 0.258228 0.0730297
0.121019 0.260563 0.0758526
0.146151 0.26128 0.0775006
0.172702 0.261906 0.0791028
0.200763 0.261936 0.0801709
0.230426 0.261936 0.081239
0.260929 0.261448 0.0817121
0.292378 0.260746 0.0819715
0.324956 0.260136 0.0823987
0.357992 0.259144 0.0824903
0.391897 0.258289 0.0827649
0.425864 0.257115 0.082536
0.460426 0.255818 0.0823987
0.495354 0.254795 0.082536
0.530419 0.253483 0.082475
0.566003 0.252384 0.0825818
0.602167 0.250828 0.0823072
0.639246 0.249058 0.0818341
0.67718 0.247211 0.0810864
0.716533 0.245197 0.080354
0.756298 0.24303 0.0795453
0.796414 0.240726 0.078584
0.836469 0.238376 0.0773175
0.876677 0.235996 0.0762646
0.917449 0.233799 0.0753796
0.958907 0.231235 0.0741741
1 0.228367 0.0725414
1 0.225711 0.0713207
1 0.222782 0.0697795
1 0.220157 0.0680552
0.0670939 0.273442 0.0567025
0.0762951 0.278492 0.0615396
0.0868544 0.283497 0.0668498
0.100679 0.287373 0.0711528
0.121721 0.289677 0.0742962
0.147066 0.290578 0.0759442
0.173709 0.291279 0.0775464
0.201846 0.291707 0.0789349
0.231617 0.291554 0.0798657
0.262501 0.291249 0.0806897
0.294423 0.290852 0.0813306
0.327001 0.290288 0.0818036
0.360159 0.289509 0.0819715
0.393973 0.288487 0.0821546
0.428305 0.287404 0.0822156
0.463066 0.286488 0.082414
0.498177 0.285344 0.0824445
0.533578 0.284337 0.0826429
0.569146 0.283055 0.0826429
0.605234 0.281697 0.0822919
0.642664 0.280034 0.0817731
0.681239 0.27834 0.0814679
0.720378 0.276234 0.0808423
0.760388 0.274235 0.0802167
0.80058 0.271946 0.079057
0.840925 0.269612 0.0781109
0.881407 0.267475 0.0773022
0.92221 0.265217 0.0764019
0.963409 0.26276 0.0750896
1 0.260212 0.0739605
1 0.257389 0.0726177
1 0.254551 0.0708782
1 0.252125 0.0698253
0.0656596 0.302815 0.0541848
0.0753185 0.308263 0.059678
0.0858625 0.313191 0.0650645
0.100465 0.317388 0.069398
0.121935 0.319509 0.0722667
0.147784 0.320745 0.0743725
0.174701 0.321523 0.0759442
0.202945 0.321889 0.077348
0.232914 0.321859 0.0784161
0.26421 0.321782 0.0794537
0.2963 0.321492 0.0803388
0.329061 0.320928 0.0808576
0.362417 0.320134 0.0812238
0.396201 0.319265 0.0814984
0.430915 0.318517 0.0819409
0.465812 0.317449 0.0820783
0.501213 0.316609 0.0823835
0.536385 0.315541 0.0823529
0.571817 0.314412 0.0823377
0.608637 0.313298 0.0822919
0.64622 0.311696 0.0820172
0.684977 0.309911 0.0816968
0.724468 0.307988 0.0813001
0.764294 0.305837 0.0804303
0.804425 0.303716 0.0795605
0.844938 0.301732 0.0789502
0.885344 0.299519 0.0781415
0.926177 0.297215 0.0771954
0.967742 0.294804 0.0758831
1 0.292241 0.0746166
1 0.289662 0.0735485
1 0.286961 0.0721447
1 0.284291 0.0709239
0.0648814 0.333104 0.0523384
0.0743725 0.338628 0.0580758
0.0851911 0.343938 0.0633249
0.100511 0.348043 0.0679179
0.122698 0.35021 0.0708171
0.148348 0.351339 0.0728618
0.175677 0.352087 0.0745708
0.204471 0.352834 0.0761273
0.234577 0.353017 0.0773938
0.265949 0.353002 0.0785077
0.298085 0.35259 0.0792859
0.330861 0.352056 0.0799573
0.364477 0.351446 0.0804456
0.398795 0.350835 0.0809949
0.433463 0.350027 0.0813153
0.468482 0.349233 0.0816052
0.503655 0.348241 0.0818494
0.538949 0.347265 0.0820172
0.574929 0.346426 0.0821241
0.611566 0.34519 0.0821698
0.649393 0.343587 0.0819562
0.688151 0.341985 0.0817731
0.727672 0.340093 0.0813916
0.767742 0.338018 0.0805219
0.808377 0.336095 0.079942
0.848905 0.333898 0.0791943
0.889326 0.331762 0.0784161
0.93019 0.32958 0.0775006
0.972076 0.327398 0.076463
1 0.324788 0.0753185
1 0.322148 0.0741436
1 0.319432 0.0728618
1 0.316808 0.0716716
0.0640269 0.363958 0.0505379
0.0736248 0.369696 0.0564431
0.0847944 0.375128 0.0618296
0.100557 0.379126 0.0663615
0.1234 0.381186 0.0690929
0.149264 0.382422 0.0712444
0.176852 0.383505 0.0732738
0.2056 0.384161 0.0748913
0.236057 0.384573 0.0762341
0.267445 0.384497 0.0772869
0.299672 0.384207 0.078172
0.332677 0.383749 0.0789349
0.366491 0.383429 0.0796979
0.400671 0.382742 0.0800031
0.435676 0.382177 0.0806592
0.47071 0.381292 0.0809796
0.505974 0.380377 0.0813306
0.54168 0.379736 0.0817884
0.577569 0.378744 0.0818799
0.614466 0.377478 0.0819104
0.652552 0.37615 0.0819715
0.691585 0.374395 0.0816968
0.731411 0.372732 0.0814069
0.771389 0.370779 0.0806592
0.811841 0.368658 0.0799725
0.852277 0.366583 0.0791028
0.892866 0.364446 0.0784161
0.934142 0.362203 0.0776532
0.976272 0.360342 0.0769818
1 0.357656 0.075761
1 0.35494 0.0745403
1 0.352209 0.0732891
1 0.349584 0.0721294
0.0633249 0.395453 0.0491188
0.0729686 0.401495 0.0548867
0.0843366 0.406744 0.0602579
0.100633 0.410636 0.0648203
0.124269 0.412772 0.0675059
0.150484 0.414282 0.0699016
0.17821 0.415457 0.0720378
0.207187 0.416144 0.0737621
0.237598 0.416388 0.0750439
0.269093 0.416419 0.0759594
0.301625 0.41651 0.0770581
0.334768 0.416175 0.0778821
0.368597 0.415671 0.0786145
0.403189 0.415213 0.0794537
0.437919 0.414496 0.0798657
0.473152 0.413764 0.080354
0.508858 0.413108 0.0809033
0.544305 0.412284 0.0811627
0.58024 0.411337 0.0814679
0.617426 0.410071 0.0814984
0.655711 0.408865 0.0816663
0.694865 0.40737 0.0815747
0.734783 0.405509 0.0810864
0.774655 0.403616 0.0802014
0.815183 0.401526 0.0795758
0.855695 0.399466 0.078996
0.896178 0.397421 0.0783856
0.937728 0.39556 0.0779889
0.979782 0.393347 0.0770275
1 0.3906 0.0758068
1 0.387884 0.0746014
1 0.385199 0.0734112
1 0.382788 0.0723888
0.0628367 0.427527 0.047715
0.0723125 0.433448 0.0532692
0.084062 0.438743 0.0587472
0.100816 0.442786 0.0632792
0.124971 0.444968 0.0663005
0.151537 0.446403 0.0684825
0.17937 0.447669 0.0706493
0.208515 0.448386 0.0722667
0.239048 0.448737 0.07364
0.270954 0.449012 0.0749523
0.303548 0.448936 0.0758831
0.336828 0.448631 0.0767834
0.371023 0.448432 0.077821
0.40531 0.447883 0.0785534
0.440284 0.447196 0.0790875
0.475868 0.446693 0.0797742
0.511391 0.445899 0.0802014
0.546792 0.445182 0.0805524
0.583017 0.444221 0.0808576
0.620295 0.443183 0.081178
0.65893 0.4421 0.0813611
0.697704 0.440528 0.0810101
0.737423 0.438682 0.0806134
0.777554 0.436759 0.0799115
0.81828 0.434653 0.0792706
0.859251 0.432807 0.0788891
0.899977 0.430823 0.0784009
0.941466 0.428809 0.0778668
0.983444 0.426429 0.0767834
1 0.423713 0.0756085
1 0.420935 0.074403
1 0.418708 0.0733501
1 0.416098 0.0722972
0.06215 0.459892 0.0461738
0.0718547 0.465858 0.0518044
0.0841382 0.471458 0.0577249
0.101335 0.475441 0.0619059
0.12604 0.477562 0.0649577
0.152743 0.479118 0.0672007
0.180484 0.480262 0.0692607
0.209781 0.481147 0.0711528
0.240894 0.481682 0.0727398
0.27274 0.481804 0.073991
0.305394 0.481727 0.0749828
0.338827 0.481575 0.0759136
0.372885 0.481376 0.0769513
0.407721 0.481102 0.0779126
0.442802 0.480476 0.0785992
0.478187 0.479759 0.0790723
0.513619 0.479057 0.0796368
0.549264 0.478309 0.0799725
0.585611 0.477577 0.0803845
0.623163 0.47686 0.0807965
0.661418 0.475425 0.0807507
0.700771 0.473701 0.0804303
0.740612 0.471855 0.0800641
0.780835 0.469932 0.0794537
0.821637 0.468101 0.0789807
0.862409 0.466133 0.0785077
0.90309 0.464057 0.0779736
0.944701 0.462089 0.0775006
0.986709 0.459693 0.0763714
1 0.456977 0.0750286
1 0.45449 0.0742504
1 0.452018 0.073106
1 0.449531 0.0721447
0.0617227 0.492607 0.0448768
0.0717174 0.49897 0.0507973
0.0842756 0.504265 0.0565042
0.102022 0.508186 0.0606546
0.127382 0.510307 0.0637827
0.154177 0.511849 0.0661936
0.182193 0.51313 0.0681926
0.21178 0.514183 0.070222
0.242649 0.514626 0.0717327
0.274617 0.514794 0.0730297
0.307469 0.514855 0.0742351
0.341161 0.514824 0.075288
0.375494 0.514672 0.0762646
0.410239 0.514244 0.0770886
0.445319 0.513649 0.0778058
0.480613 0.513008 0.0784924
0.516213 0.512322 0.0788891
0.551858 0.51162 0.0792554
0.588296 0.51107 0.0797894
0.626078 0.51014 0.0801709
0.664454 0.508705 0.0801404
0.703685 0.507042 0.0798962
0.74377 0.50515 0.0794537
0.784436 0.503456 0.0791943
0.824948 0.501457 0.0785077
0.865644 0.499413 0.0779278
0.906447 0.497459 0.0775158
0.947692 0.495506 0.0768902
0.990005 0.493446 0.0760357
1 0.490852 0.0750286
1 0.488151 0.0741436
1 0.48574 0.0731975
1 0.483406 0.0722057
0.0618296 0.525902 0.0441138
0.0717479 0.532067 0.0498512
0.0846876 0.537362 0.0555428
0.103319 0.541451 0.0599069
0.128862 0.543343 0.0627756
0.155932 0.54519 0.0654765
0.184207 0.54641 0.0674144
0.213779 0.54728 0.0692912
0.2448 0.547753 0.0708171
0.276875 0.547951 0.0721447
0.30985 0.548043 0.0733959
0.343877 0.548318 0.074815
0.378119 0.547997 0.0755474
0.412711 0.54757 0.0764019
0.447715 0.547036 0.0770123
0.483131 0.54641 0.0776074
0.519066 0.545937 0.0784619
0.554788 0.545296 0.0790112
0.591363 0.544533 0.0794232
0.62887 0.543526 0.0796063
0.667521 0.542031 0.07953
0.706859 0.540383 0.0793469
0.747005 0.538811 0.0791485
0.787305 0.536873 0.0787213
0.827771 0.534951 0.0780652
0.86862 0.533013 0.0774395
0.909651 0.531289 0.0771496
0.951537 0.529427 0.0768139
0.993851 0.527276 0.076112
1 0.524773 0.0750134
1 0.522301 0.074342
1 0.520104 0.0737011
1 0.517983 0.0728618
0.0614633 0.559411 0.0429236
0.0716411 0.56553 0.0489052
0.0849928 0.570825 0.0543069
0.104402 0.574792 0.0586709
0.130282 0.576989 0.061738
0.157198 0.578637 0.0642557
0.185412 0.579904 0.0664836
0.21532 0.580758 0.0681163
0.246571 0.581231 0.0696727
0.278859 0.581491 0.0710613
0.31223 0.581857 0.0725872
0.345983 0.581842 0.0737011
0.37995 0.581628 0.0745708
0.414755 0.58117 0.075227
0.449989 0.580621 0.0759289
0.485695 0.580179 0.0767987
0.521233 0.579614 0.0775921
0.557153 0.578943 0.0782483
0.593851 0.578225 0.0787976
0.631296 0.577096 0.0787823
0.669841 0.575647 0.0787366
0.709773 0.574258 0.0787823
0.749905 0.572503 0.0785229
0.790356 0.570733 0.0779889
0.830961 0.568917 0.0773938
0.87187 0.567056 0.0770733
0.91339 0.565682 0.0771496
0.955474 0.563882 0.0769055
0.998642 0.561685 0.0762798
1 0.559503 0.0754253
1 0.557198 0.0747692
1 0.555383 0.0745708
1 0.553475 0.0741741
0.0605478 0.593408 0.0413214
0.0710155 0.599542 0.0473487
0.0849622 0.60499 0.0527199
0.105241 0.608865 0.0573281
0.130922 0.61088 0.0599069
0.158038 0.612497 0.0624094
0.186389 0.613779 0.0646525
0.216297 0.614633 0.0665446
0.247929 0.615427 0.068101
0.280171 0.615778 0.0694591
0.313344 0.616022 0.0708171
0.346914 0.6159 0.0719463
0.381247 0.615579 0.0728923
0.416205 0.615183 0.0738079
0.451682 0.614816 0.0747234
0.487053 0.614221 0.0753185
0.522805 0.613519 0.0759899
0.558816 0.612787 0.0766613
0.595728 0.612222 0.0773938
0.633921 0.611322 0.0778363
0.672572 0.610101 0.07776
0.712001 0.608621 0.0775464
0.752331 0.606958 0.0773632
0.793271 0.605249 0.0771649
0.83447 0.603601 0.0769818
0.875715 0.602289 0.0769665
0.916991 0.600641 0.0768139
0.959045 0.598932 0.0766308
1 0.596994 0.0762951
1 0.59501 0.0759289
1 0.593149 0.0753643
1 0.591424 0.0749981
1 0.589548 0.0747539
0.0591135 0.627863 0.0391089
0.0701152 0.634211 0.0452583
0.0844739 0.639765 0.050721
0.105089 0.643153 0.0548867
0.130907 0.645136 0.0576791
0.15819 0.646769 0.0598764
0.186557 0.648096 0.0620584
0.216693 0.649241 0.0641794
0.248203 0.649744 0.0657816
0.280598 0.649973 0.0670787
0.313878 0.650263 0.068452
0.347646 0.650111 0.0695506
0.382086 0.649805 0.0705577
0.417273 0.649607 0.0716411
0.452628 0.649073 0.0724651
0.488136 0.648569 0.0733349
0.524041 0.64799 0.0741588
0.560204 0.647395 0.0748608
0.597375 0.646967 0.0756847
0.635645 0.646204 0.076051
0.674693 0.64506 0.0763256
0.714473 0.643793 0.0762646
0.754925 0.642344 0.0762951
0.795789 0.640818 0.0762951
0.837339 0.639597 0.0765393
0.878676 0.638148 0.0766155
0.920287 0.636667 0.0766766
0.962524 0.63505 0.0764019
1 0.633097 0.0759899
1 0.63154 0.0757916
1 0.629572 0.0754406
1 0.627817 0.0752575
1 0.626184 0.0749523
0.0570382 0.662852 0.0362097
0.0682231 0.669184 0.0423285
0.0831922 0.674479 0.0480507
0.104402 0.677791 0.0516976
0.130343 0.679774 0.0545052
0.157595 0.681407 0.0570382
0.186389 0.682979 0.0594034
0.216419 0.683848 0.0612955
0.248066 0.68426 0.0628977
0.280705 0.684596 0.0644388
0.313939 0.684764 0.0658122
0.34818 0.684932 0.0672313
0.382742 0.684749 0.06804
0.417807 0.684413 0.0690166
0.453132 0.684031 0.0699931
0.488884 0.683604 0.0709392
0.52491 0.683314 0.0719158
0.561196 0.683238 0.0730449
0.598535 0.682628 0.0738689
0.636912 0.68191 0.0746319
0.676555 0.680949 0.0749523
0.716701 0.679759 0.0751812
0.757778 0.678737 0.0755016
0.799008 0.677455 0.075639
0.840345 0.676097 0.0756847
0.881804 0.674754 0.0758373
0.923613 0.673396 0.0760357
0.966155 0.671946 0.0759442
1 0.670451 0.0759899
1 0.668711 0.0755779
1 0.66685 0.0753643
1 0.665187 0.075349
1 0.663584 0.075288
0.055314 0.698085 0.0335546
0.0661936 0.704448 0.0395514
0.0815442 0.709484 0.0448157
0.103471 0.712566 0.0484932
0.129686 0.714611 0.051133
0.157214 0.716411 0.0539559
0.185901 0.717647 0.0563211
0.216052 0.718547 0.0582895
0.247822 0.719142 0.0598764
0.280613 0.719676 0.0614939
0.314076 0.720119 0.0631266
0.348211 0.720134 0.0644083
0.382956 0.720027 0.0655985
0.41828 0.719875 0.0667735
0.453696 0.719799 0.0677348
0.489723 0.719615 0.0686961
0.526238 0.719615 0.0700542
0.562707 0.719371 0.0711986
0.60032 0.718914 0.0721447
0.638758 0.718303 0.0728466
0.678264 0.717418 0.0733501
0.71899 0.716686 0.074052
0.760174 0.715633 0.074464
0.80177 0.714397 0.0747082
0.843427 0.713191 0.0749676
0.884871 0.712108 0.0751507
0.926635 0.710903 0.075288
0.969375 0.709911 0.075639
1 0.708171 0.0755474
1 0.706477 0.0754559
1 0.704692 0.0753185
1 0.703105 0.0753796
1 0.701946 0.0755474
0.052842 0.733471 0.0302892
0.0640574 0.739727 0.036347
0.0795605 0.74461 0.0413519
0.102159 0.747616 0.044831
0.128878 0.749783 0.0480507
0.15642 0.751492 0.0505684
0.185199 0.752895 0.0528572
0.215579 0.753857 0.054902
0.24741 0.754498 0.0566415
0.280583 0.755459 0.0587472
0.314229 0.755932 0.0602884
0.348516 0.756176 0.0615854
0.383322 0.756283 0.0628061
0.418814 0.756252 0.0640879
0.454841 0.756542 0.0656748
0.491127 0.756497 0.0669871
0.527413 0.756497 0.0681315
0.564279 0.756344 0.0693675
0.602136 0.755962 0.0704204
0.641001 0.755489 0.0714122
0.681025 0.754986 0.0723888
0.721599 0.75407 0.0728923
0.7626 0.753033 0.0733349
0.803784 0.752041 0.0734722
0.845396 0.750957 0.0737469
0.887388 0.750134 0.0744335
0.929656 0.749065 0.0747997
0.972717 0.747677 0.0749523
1 0.746014 0.0749218
1 0.744381 0.0749523
1 0.742809 0.0747387
1 0.741634 0.0750744
1 0.740169 0.0751507
0.0500038 0.768811 0.0265812
0.061799 0.775128 0.0329442
0.0780194 0.780362 0.0381628
0.101518 0.7832 0.0418097
0.127962 0.78529 0.0445563
0.15555 0.787137 0.047303
0.184512 0.788708 0.0498512
0.21529 0.78999 0.0519417
0.247471 0.791104 0.0540169
0.280354 0.79176 0.0556954
0.314229 0.79234 0.057496
0.348959 0.792767 0.059205
0.384283 0.793088 0.0606699
0.420142 0.793515 0.0623941
0.45623 0.793667 0.0638743
0.492607 0.793729 0.0652934
0.528954 0.793881 0.0667887
0.566064 0.793896 0.0680247
0.603952 0.793744 0.0691997
0.643397 0.79353 0.0703746
0.683162 0.792935 0.0710613
0.72372 0.792172 0.0716106
0.765072 0.791241 0.0720836
0.80676 0.790204 0.0725719
0.848798 0.789364 0.0731823
0.890745 0.788495 0.0738384
0.933074 0.787396 0.0742962
