assets/luts/Film_Look.cube
TITLE "Generated by Resolve"
LUT_3D_SIZE 5
0.0895399 0.0880903 0.0897688
0.201587 0.0697642 0.0760662
0.417258 0.0257877 0.0364538
0.686915 0 0.0069276
0.999969 0 0
0.0714885 0.191775 0.0638437
0.227253 0.205325 0.0832685
0.488579 0.195727 0.0818647
0.78645 0.180087 0.0753033
1 0.158648 0.0629435
0.0628367 0.427527 0.047715
0.239048 0.448737 0.07364
0.511391 0.445899 0.0802014
0.81828 0.434653 0.0792706
1 0.416098 0.0722972
0.055314 0.698085 0.0335546
0.247822 0.719142 0.0598764
0.526238 0.719615 0.0700542
0.843427 0.713191 0.0749676
1 0.701946 0.0755474
0.0406195 0.994156 0.0116426
0.25362 1 0.0426947
0.540993 1 0.0588998
0.865034 1 0.0670481
1 1 0.0703899
0.0816968 0.0858625 0.183337
0.183215 0.0685435 0.182956
0.400641 0.0290532 0.159655
0.674159 0.00102235 0.148608
0.98674 0 0.134905
0.0716564 0.203403 0.151125
0.21857 0.220066 0.186419
0.478401 0.211292 0.19826
0.77406 0.196155 0.204959
1 0.174701 0.205371
0.0657511 0.444358 0.12874
0.232654 0.468025 0.169192
0.502663 0.465339 0.187381
0.806653 0.454047 0.198672
1 0.434974 0.203326
0.0594797 0.717281 0.107607
0.241306 0.740795 0.147509
0.518608 0.741741 0.169375
0.833494 0.736095 0.186603
1 0.724376 0.199069
0.0465553 1 0.0818952
0.24947 1 0.12549
0.534997 1 0.152087
0.856535 1 0.17116
1 1 0.186984
0.0630655 0.0741436 0.403937
0.154162 0.0596323 0.41001
0.374563 0.0279545 0.396674
0.648417 0.00444038 0.392218
0.960616 0 0.38233
0.0616007 0.20531 0.375067
0.197879 0.226032 0.420554
0.455207 0.218906 0.4383
0.74873 0.205173 0.44976
1 0.184283 0.453193
0.0590372 0.450248 0.350423
0.213169 0.477333 0.401511
0.480034 0.475151 0.424964
0.781598 0.464744 0.440757
1 0.44596 0.448386
0.0537575 0.724819 0.325048
0.22266 0.752224 0.376471
0.497841 0.754498 0.40502
0.810346 0.75024 0.427771
1 0.738979 0.444282
0.0436866 1 0.296315
0.232258 1 0.351598
0.515236 1 0.384756
0.83386 1 0.40972
1 1 0.430762
0.0402075 0.0583505 0.667094
0.122683 0.049134 0.682414
0.345953 0.026627 0.68217
0.618357 0.00529488 0.683345
0.929793 0 0.677867
0.0481575 0.203555 0.645518
0.173892 0.229007 0.699382
0.427558 0.223758 0.721981
0.718242 0.211276 0.737682
1 0.191318 0.745541
0.0487984 0.452598 0.621897
0.190356 0.483543 0.679866
0.453605 0.482414 0.707622
0.751736 0.47274 0.727062
1 0.454917 0.738567
0.0439765 0.728542 0.594125
0.199908 0.760281 0.653376
0.472633 0.764492 0.686687
0.781735 0.761318 0.713344
1 0.750805 0.733715
0.0363928 1 0.565621
0.2103 1 0.628199
0.490669 1 0.665248
0.806592 1 0.694697
1 1 0.71957
0.0135348 0.0393225 0.976287
0.0899214 0.0375372 1
0.313329 0.0228733 1
0.583871 0.00361639 1
0.894575 0 1
0.0321355 0.199115 0.963836
0.147112 0.22884 1
0.395804 0.225711 1
0.683757 0.214557 1
1 0.195377 1
0.0349584 0.451316 0.940307
0.163989 0.48571 1
0.422644 0.486366 1
0.717067 0.47747 1
1 0.461234 1
0.0308843 0.729091 0.91162
0.174243 0.765194 0.977813
0.443595 0.771481 1
0.749538 0.769741 1
1 0.75967 1
0.0261845 1 0.883757
0.185626 1 0.952651
0.461158 1 0.99234
0.77557 1 1
1 1 1
