assets/luts/IWLTBAP_K99.cube
# Copyright: (C) Copyright 2010-2019 by IWLTBAP SAS
# Cannot be resold, shared or otherwise redistributed
# Website: https://luts.iwltbap.com
TITLE "IWLTBAP Kodachrome 99 Experimental (Rec.709, sRGB, DCI-P3)"
LUT_3D_SIZE 33
0.000977 0.000427 0.000458
0.019897 0.002197 0.000885
0.038269 0.004486 0.001984
0.058502 0.007935 0.003021
0.078278 0.012787 0.003662
0.097717 0.018188 0.003876
0.121552 0.024628 0.003296
0.147278 0.031097 0.001831
0.175201 0.036621 0.000305
0.204346 0.042053 0.000397
0.234192 0.046936 0.000488
0.264343 0.052612 0.000549
0.296844 0.056580 0.000671
0.328644 0.061676 0.000824
0.361755 0.066895 0.000916
0.395630 0.073364 0.000977
0.431946 0.077423 0.001068
0.469391 0.082855 0.001099
0.507904 0.088806 0.001129
0.546844 0.095520 0.001038
0.584839 0.102417 0.000977
0.621826 0.109375 0.000824
0.655579 0.119263 0.000610
0.687195 0.129974 0.000397
0.719330 0.137634 0.000122
0.751160 0.144073 0.000031
0.782684 0.149750 0.000000
0.816711 0.150146 0.000000
0.847260 0.155334 0.000000
0.876984 0.160156 0.000000
0.904602 0.165558 0.000000
0.930786 0.167114 0.000000
0.954468 0.170776 0.000031
0.014587 0.017639 0.016388
0.023163 0.021637 0.017212
0.045837 0.024750 0.009705
0.072052 0.026245 0.005310
0.095398 0.029388 0.004028
0.115814 0.033966 0.003632
0.136993 0.039307 0.002319
0.160858 0.044617 0.000793
0.186859 0.049896 0.000305
0.214142 0.054199 0.000397
0.243439 0.058533 0.000458
0.273041 0.062958 0.000549
0.303345 0.067444 0.000671
0.334656 0.072418 0.000793
0.367523 0.077118 0.000885
0.402100 0.081573 0.000946
0.437653 0.086853 0.001038
0.474487 0.093079 0.001038
0.513519 0.097504 0.001038
0.550262 0.106262 0.000977
0.587677 0.112915 0.000854
0.623688 0.120453 0.000702
0.657288 0.129089 0.000488
0.689941 0.136993 0.000244
0.722351 0.143219 0.000031
0.753448 0.150604 0.000000
0.784821 0.156403 0.000000
0.815704 0.161987 0.000000
0.845764 0.167694 0.000000
0.875458 0.172546 0.000000
0.903168 0.177856 0.000000
0.931305 0.176361 0.000000
0.954468 0.181122 0.000000
0.029297 0.035492 0.032867
0.036377 0.039917 0.035980
0.046661 0.044617 0.035553
0.068207 0.048920 0.026550
0.097473 0.050659 0.012268
0.124390 0.052673 0.004578
0.147949 0.055969 0.002563
0.171875 0.059845 0.000854
0.197144 0.063690 0.000275
0.224030 0.067108 0.000366
0.251190 0.071259 0.000427
0.280090 0.075745 0.000549
0.310699 0.079041 0.000671
0.341583 0.083923 0.000763
0.374390 0.088257 0.000824
0.408447 0.092804 0.000946
0.444244 0.097626 0.001007
0.481293 0.102631 0.001007
0.518982 0.108093 0.000977
0.556030 0.114685 0.000885
0.592651 0.121033 0.000732
0.627350 0.128632 0.000549
0.661133 0.135559 0.000305
0.693146 0.143646 0.000092
0.725067 0.150116 0.000000
0.756226 0.156769 0.000000
0.787048 0.163147 0.000000
0.817841 0.168671 0.000000
0.847626 0.174835 0.000000
0.877075 0.180054 0.000000
0.904938 0.185181 0.000000
0.930145 0.189056 0.000000
0.953369 0.193970 0.000000
0.046509 0.055115 0.051788
0.052643 0.059021 0.055664
0.059418 0.062836 0.057373
0.070343 0.067719 0.056305
0.090973 0.073639 0.045410
0.122620 0.075562 0.021820
0.153503 0.076355 0.007843
0.180725 0.077942 0.004150
0.206390 0.080444 0.002808
0.233551 0.083191 0.001068
0.261414 0.086151 0.000397
0.290100 0.089233 0.000519
0.319977 0.092834 0.000641
0.350311 0.097778 0.000732
0.382874 0.102020 0.000793
0.417236 0.105804 0.000916
0.452240 0.111206 0.000916
0.488159 0.116608 0.000946
0.525238 0.121521 0.000854
0.562103 0.126221 0.000763
0.596436 0.133484 0.000580
0.629700 0.141357 0.000397
0.661713 0.149506 0.000153
0.693604 0.156677 0.000000
0.725525 0.162354 0.000000
0.758942 0.165070 0.000000
0.789124 0.172119 0.000000
0.819427 0.178101 0.000000
0.850494 0.182129 0.000000
0.879608 0.187805 0.000000
0.907440 0.192993 0.000000
0.932556 0.197449 0.000031
0.956024 0.202087 0.000000
0.064911 0.075562 0.071594
0.070129 0.078674 0.075012
0.075317 0.082062 0.077606
0.082367 0.085724 0.079010
0.094147 0.090973 0.076660
0.115906 0.097809 0.059601
0.146362 0.101562 0.045349
0.178925 0.102570 0.025360
0.210846 0.102936 0.010834
0.239594 0.104401 0.006378
0.269501 0.105713 0.002991
0.298828 0.108124 0.000488
0.329803 0.110352 0.000580
0.360748 0.114227 0.000641
0.392944 0.118378 0.000732
0.427856 0.121338 0.000793
0.462097 0.126740 0.000793
0.498413 0.130157 0.000793
0.533081 0.136108 0.000702
0.567749 0.141479 0.000580
0.601044 0.148041 0.000397
0.633850 0.154266 0.000183
0.667328 0.158630 0.000031
0.698517 0.165466 0.000000
0.728729 0.173004 0.000000
0.760132 0.178223 0.000000
0.790161 0.185120 0.000000
0.820404 0.191010 0.000000
0.850739 0.195862 0.000000
0.881409 0.198883 0.000000
0.909027 0.204376 0.000000
0.933838 0.209412 0.000000
0.959351 0.211090 0.000000
0.083313 0.096375 0.091522
0.086975 0.098602 0.093933
0.091553 0.101593 0.096680
0.097260 0.104858 0.098846
0.105377 0.108582 0.098877
0.120056 0.114044 0.092377
0.145691 0.121857 0.062439
0.168732 0.128113 0.072021
0.204071 0.129913 0.049652
0.238953 0.130310 0.024994
0.272400 0.130585 0.011505
0.305145 0.131226 0.006500
0.336426 0.133820 0.003937
0.369019 0.136292 0.000793
0.403961 0.137939 0.000671
0.437836 0.141785 0.000671
0.471924 0.145844 0.000702
0.507294 0.148987 0.000641
0.540710 0.154358 0.000549
0.574860 0.158020 0.000397
0.606506 0.164673 0.000214
0.640137 0.167908 0.000031
0.670776 0.174683 0.000000
0.701050 0.181671 0.000000
0.732239 0.186859 0.000000
0.763397 0.191772 0.000000
0.794220 0.196716 0.000000
0.823944 0.202606 0.000000
0.854431 0.207123 0.000000
0.883209 0.212891 0.000000
0.910828 0.218262 0.000000
0.935638 0.223083 0.000000
0.960907 0.225220 0.000000
0.101532 0.117828 0.111664
0.105042 0.119904 0.113892
0.108917 0.122192 0.116180
0.113892 0.124908 0.117859
0.120819 0.128113 0.118866
0.129730 0.131744 0.117493
0.147430 0.137665 0.106079
0.174408 0.146637 0.070343
0.192749 0.155060 0.095428
0.230499 0.158264 0.075317
0.268768 0.159332 0.047363
0.305298 0.159790 0.024200
0.340881 0.160645 0.014282
0.376251 0.161896 0.006989
0.411896 0.163208 0.001251
0.446808 0.165558 0.000519
0.481232 0.168152 0.000549
0.514709 0.171967 0.000427
0.549103 0.174805 0.000336
0.581543 0.179108 0.000183
0.612823 0.184296 0.000061
0.644714 0.188416 0.000000
0.676300 0.192413 0.000000
0.705994 0.198700 0.000000
0.738708 0.200714 0.000000
0.767914 0.207275 0.000000
0.797119 0.213623 0.000000
0.827698 0.217712 0.000000
0.856781 0.223450 0.000000
0.886719 0.227203 0.000000
0.913940 0.232788 0.000000
0.938019 0.238373 0.000000
0.964417 0.239166 0.000000
0.122009 0.141418 0.133698
0.125153 0.143219 0.135651
0.128815 0.145294 0.137848
0.133423 0.147583 0.139160
0.139313 0.150269 0.139893
0.146515 0.153442 0.140411
0.156738 0.157043 0.136475
0.176880 0.163147 0.121216
0.204407 0.173431 0.088562
0.225616 0.182953 0.105896
0.260132 0.188568 0.097992
0.301361 0.190735 0.068420
0.340973 0.191528 0.041626
0.379669 0.191956 0.021484
0.417572 0.192261 0.009460
0.454529 0.192566 0.001495
0.489288 0.194183 0.000336
0.522461 0.197296 0.000244
0.555481 0.200317 0.000153
0.588562 0.202698 0.000031
0.618591 0.207855 0.000000
0.651123 0.210052 0.000000
0.681549 0.214081 0.000000
0.712311 0.217743 0.000000
0.742798 0.221497 0.000000
0.773041 0.225677 0.000000
0.801575 0.231995 0.000000
0.833344 0.233917 0.000000
0.861603 0.239838 0.000000
0.889221 0.246124 0.000000
0.918915 0.247864 0.000000
0.943054 0.252960 0.000000
0.966919 0.257355 0.000000
0.147186 0.169952 0.160583
0.150330 0.171906 0.162659
0.153717 0.173767 0.164703
0.158295 0.175964 0.165680
0.163727 0.178406 0.166382
0.170074 0.180969 0.166626
0.177765 0.183624 0.165405
0.189636 0.186462 0.157898
0.210541 0.192596 0.139191
0.238281 0.203156 0.109985
0.264008 0.213226 0.112518
0.293427 0.221039 0.121704
0.337128 0.223816 0.092072
0.379547 0.224609 0.058411
0.419434 0.224579 0.030670
0.457520 0.224487 0.014252
0.495209 0.223877 0.002716
0.529480 0.224884 0.000122
0.562683 0.226807 0.000031
0.594757 0.229065 0.000000
0.625244 0.232452 0.000000
0.656830 0.234650 0.000000
0.688049 0.236877 0.000000
0.716949 0.241486 0.000000
0.747559 0.244354 0.000000
0.777771 0.247711 0.000000
0.806946 0.252350 0.000000
0.838409 0.254089 0.000000
0.865906 0.260193 0.000000
0.895477 0.263184 0.000000
0.922882 0.267548 0.000000
0.946655 0.272919 0.000000
0.969727 0.278137 0.000031
0.180054 0.206757 0.195435
0.183411 0.209045 0.197815
0.187042 0.211304 0.199982
0.191559 0.213501 0.201416
0.196350 0.215179 0.201599
0.201599 0.216614 0.200897
0.207031 0.217621 0.199310
0.213928 0.218597 0.195282
0.226868 0.220123 0.182312
0.247772 0.225464 0.160217
0.275879 0.235931 0.132172
0.302032 0.246429 0.128357
0.331146 0.254425 0.142670
0.373749 0.257843 0.116974
0.416840 0.258911 0.083710
0.457245 0.258453 0.048157
0.495270 0.257965 0.024841
0.531921 0.257111 0.008118
0.567047 0.256500 0.001007
0.599945 0.257263 0.000000
0.630280 0.259827 0.000000
0.662018 0.261047 0.000000
0.692474 0.263367 0.000000
0.721344 0.267334 0.000000
0.752106 0.269501 0.000000
0.782135 0.272614 0.000000
0.811890 0.275970 0.000000
0.840515 0.280457 0.000000
0.871155 0.282410 0.000000
0.899170 0.286682 0.000000
0.927460 0.289490 0.000000
0.951263 0.294495 0.000000
0.975677 0.297852 0.000000
0.222504 0.254120 0.240631
0.225464 0.255981 0.242676
0.228577 0.257507 0.244080
0.232239 0.258881 0.244781
0.236237 0.259827 0.244354
0.240051 0.259674 0.242462
0.243683 0.258606 0.239014
0.247772 0.257690 0.235229
0.254456 0.256927 0.227783
0.268066 0.257263 0.209900
0.288910 0.261963 0.184204
0.316895 0.271240 0.151093
0.341736 0.281311 0.145905
0.368805 0.289276 0.165619
0.408722 0.292877 0.145386
0.451111 0.293640 0.111755
0.491882 0.292877 0.073761
0.529877 0.291748 0.043976
0.566010 0.290527 0.023041
0.601074 0.289215 0.009399
0.634369 0.288940 0.000885
0.666138 0.289490 0.000000
0.696838 0.291016 0.000000
0.726379 0.293732 0.000000
0.756653 0.295959 0.000000
0.786713 0.298584 0.000000
0.817017 0.301147 0.000000
0.845551 0.305206 0.000000
0.875244 0.307922 0.000000
0.903839 0.311310 0.000000
0.932129 0.313782 0.000000
0.956177 0.318176 0.000000
0.981049 0.320953 0.000000
0.268951 0.305450 0.289825
0.271454 0.306793 0.291290
0.273926 0.307648 0.292389
0.277130 0.308350 0.292206
0.280426 0.308258 0.290863
0.283630 0.307434 0.288300
0.286285 0.305389 0.284088
0.288788 0.302734 0.278961
0.292023 0.300171 0.272583
0.299103 0.297577 0.259796
0.312408 0.296753 0.238373
0.332153 0.300201 0.209625
0.360199 0.307831 0.163300
0.382019 0.316895 0.165802
0.401520 0.325256 0.199554
0.441437 0.327881 0.175751
0.483551 0.328339 0.142426
0.523956 0.327637 0.106995
0.562897 0.325897 0.069031
0.598724 0.324432 0.043640
0.633209 0.323029 0.024109
0.667450 0.321594 0.006927
0.700867 0.320557 0.000183
0.731018 0.322021 0.000000
0.761139 0.323822 0.000000
0.791870 0.325409 0.000000
0.821533 0.327942 0.000000
0.849396 0.332275 0.000000
0.879364 0.334503 0.000000
0.909485 0.336273 0.000000
0.935730 0.340729 0.000000
0.962311 0.342133 0.000000
0.984741 0.347473 0.000000
0.316772 0.357819 0.340088
0.318970 0.358643 0.341095
0.321320 0.359131 0.341431
0.323730 0.358917 0.340454
0.326447 0.358246 0.338593
0.328949 0.356537 0.335236
0.330841 0.353668 0.330353
0.332306 0.350037 0.324402
0.333557 0.346069 0.317719
0.336426 0.341736 0.307709
0.344269 0.338043 0.290497
0.356903 0.336456 0.266998
0.375336 0.338745 0.236145
0.400909 0.345184 0.186707
0.422333 0.352051 0.184906
0.438110 0.359680 0.220551
0.472687 0.362854 0.207733
0.514282 0.363159 0.174591
0.554535 0.362305 0.139801
0.593292 0.360596 0.103729
0.630463 0.358429 0.066437
0.664795 0.356934 0.045776
0.698608 0.355499 0.024933
0.732239 0.354187 0.005066
0.765320 0.353180 0.000092
0.795197 0.354858 0.000000
0.824310 0.357300 0.000000
0.853607 0.359894 0.000000
0.883392 0.361908 0.000000
0.912689 0.364227 0.000000
0.941437 0.366150 0.000000
0.966003 0.369659 0.000000
0.990479 0.372650 0.000000
0.362183 0.406799 0.387238
0.364166 0.407410 0.388000
0.365906 0.407104 0.387512
0.368103 0.406494 0.385925
0.370239 0.405212 0.383362
0.372070 0.402924 0.379517
0.373230 0.399353 0.374084
0.374207 0.395386 0.367920
0.374878 0.390930 0.361115
0.375305 0.386139 0.353546
0.379211 0.381134 0.340179
0.387787 0.377167 0.320251
0.399780 0.375153 0.295471
0.416718 0.376190 0.263214
0.439697 0.381073 0.215668
0.461670 0.386200 0.199036
0.476562 0.392883 0.232391
0.501953 0.397461 0.240753
0.543121 0.397491 0.207367
0.583221 0.396606 0.173157
0.622101 0.394958 0.137939
0.659698 0.392731 0.101227
0.695251 0.390839 0.070404
0.729034 0.389465 0.048706
0.762451 0.388275 0.027588
0.795654 0.387115 0.008240
0.827667 0.386871 0.000336
0.858246 0.387787 0.000000
0.887451 0.389771 0.000000
0.916199 0.392090 0.000000
0.944672 0.394043 0.000000
0.971008 0.395996 0.000000
0.993469 0.400818 0.000000
0.400574 0.447876 0.426941
0.402161 0.447998 0.427246
0.403870 0.447388 0.425964
0.405762 0.446503 0.424042
0.407501 0.444885 0.421204
0.409607 0.443085 0.417969
0.411163 0.440155 0.413239
0.412598 0.436798 0.407806
0.413605 0.432800 0.401581
0.414246 0.428467 0.394745
0.415375 0.423859 0.386139
0.420807 0.418945 0.370178
0.429260 0.414856 0.349701
0.440399 0.412292 0.324097
0.455811 0.412201 0.291016
0.476715 0.415527 0.245117
0.500000 0.419586 0.207886
0.514160 0.425385 0.241638
0.532501 0.430847 0.267181
0.570465 0.431488 0.240936
0.610718 0.430603 0.207031
0.649841 0.429199 0.172394
0.687775 0.427246 0.136475
0.724243 0.425262 0.101807
0.759033 0.423615 0.072998
0.792175 0.422516 0.053589
0.825012 0.421448 0.032043
0.857605 0.420380 0.013092
0.889557 0.419769 0.000305
0.920074 0.420197 0.000000
0.948425 0.421967 0.000000
0.974823 0.423950 0.000000
0.998016 0.428101 0.000000
0.432800 0.481995 0.459991
0.434845 0.482452 0.460297
0.436890 0.482147 0.459320
0.439178 0.481720 0.457825
0.441528 0.480896 0.455688
0.443970 0.479614 0.453003
0.446350 0.477814 0.449493
0.448456 0.475372 0.445099
0.450226 0.472412 0.440033
0.451630 0.469025 0.434296
0.452423 0.465149 0.427887
0.455078 0.460632 0.417114
0.461304 0.455841 0.399414
0.469452 0.451782 0.378754
0.479919 0.448975 0.353271
0.494141 0.448059 0.319702
0.513641 0.450073 0.274963
0.538422 0.453186 0.214142
0.551849 0.458069 0.249329
0.566620 0.463623 0.284180
0.597748 0.465668 0.275024
0.637939 0.464935 0.241333
0.677185 0.463715 0.207092
0.715240 0.461975 0.172302
0.752258 0.460022 0.136597
0.787903 0.458130 0.101562
0.821350 0.456818 0.078613
0.853821 0.455750 0.059326
0.886047 0.454590 0.036804
0.918152 0.453552 0.012604
0.949371 0.452881 0.002045
0.978333 0.452881 0.000153
1.000000 0.457428 0.000092
0.463379 0.514038 0.490997
0.465851 0.514832 0.491425
0.468292 0.515106 0.490967
0.470917 0.515076 0.489899
0.473724 0.514740 0.488342
0.476532 0.514069 0.486206
0.479431 0.513062 0.483551
0.482391 0.511810 0.480499
0.484985 0.509949 0.476654
0.487152 0.507568 0.472015
0.488647 0.504608 0.466675
0.489746 0.501129 0.460541
0.494263 0.496765 0.447052
0.500793 0.492218 0.429077
0.508606 0.488220 0.408173
0.518402 0.485016 0.382599
0.531830 0.483490 0.348541
0.550201 0.484497 0.304199
0.574371 0.487366 0.230255
0.589569 0.491028 0.256531
0.602234 0.496307 0.297394
0.625671 0.499878 0.307007
0.664703 0.499390 0.276001
0.703888 0.498230 0.242188
0.741821 0.496796 0.208313
0.778778 0.494934 0.173828
0.814880 0.492981 0.137634
0.849304 0.491241 0.106750
0.881989 0.489929 0.084534
0.913971 0.488831 0.065094
0.945343 0.487793 0.042816
0.975037 0.487061 0.020477
1.000000 0.487946 0.009949
0.493042 0.544983 0.521057
0.495697 0.545868 0.521515
0.498413 0.546417 0.521149
0.501282 0.546753 0.520477
0.504517 0.547119 0.519653
0.507751 0.546997 0.518097
0.511108 0.546600 0.516113
0.514496 0.546112 0.513855
0.517761 0.545288 0.511108
0.520508 0.543762 0.507507
0.522614 0.541534 0.502991
0.524170 0.538757 0.497772
0.526306 0.535492 0.490448
0.531616 0.531311 0.475830
0.538147 0.526947 0.457550
0.545807 0.523102 0.436829
0.555237 0.519714 0.411163
0.568085 0.517731 0.376831
0.585632 0.518188 0.333618
0.607239 0.520844 0.270477
0.626984 0.523651 0.261841
0.638458 0.528687 0.306915
0.657623 0.532837 0.327576
0.690674 0.533752 0.311401
0.729584 0.532776 0.278015
0.767365 0.531372 0.244415
0.804047 0.529755 0.210968
0.840149 0.527863 0.176941
0.875366 0.525818 0.140991
0.909210 0.523987 0.109467
0.940643 0.522766 0.091095
0.970398 0.521820 0.073120
0.999084 0.521118 0.052734
0.521759 0.574799 0.550110
0.524536 0.575775 0.550446
0.527374 0.576538 0.550323
0.530518 0.577209 0.549927
0.533936 0.577850 0.549469
0.537506 0.578339 0.548615
0.541168 0.578583 0.547302
0.544830 0.578583 0.545654
0.548370 0.578278 0.543457
0.551666 0.577515 0.540741
0.554321 0.576111 0.537201
0.556458 0.574097 0.532867
0.558411 0.571655 0.527649
0.561127 0.568573 0.519684
0.567413 0.564697 0.503876
0.574188 0.560822 0.485931
0.581848 0.557159 0.465302
0.591034 0.553802 0.439728
0.603394 0.551514 0.405334
0.620392 0.551544 0.362976
0.640991 0.553833 0.304962
0.664185 0.556244 0.265015
0.675415 0.560822 0.312866
0.688751 0.566040 0.349182
0.715820 0.568207 0.347229
0.754242 0.567200 0.314636
0.791718 0.565796 0.281250
0.828186 0.564117 0.248169
0.864227 0.562256 0.214874
0.899567 0.560150 0.180695
0.933624 0.558014 0.145569
0.965118 0.556305 0.116425
0.995178 0.555359 0.099609
0.549377 0.603485 0.578369
0.552338 0.604614 0.578644
0.555328 0.605560 0.578705
0.558655 0.606506 0.578552
0.562195 0.607422 0.578339
0.565887 0.608246 0.577911
0.569855 0.609070 0.577271
0.573700 0.609436 0.576050
0.577667 0.609772 0.574646
0.581421 0.609802 0.572784
0.584564 0.609100 0.570038
0.587646 0.608276 0.567047
0.590271 0.606964 0.563385
0.593292 0.605042 0.557587
0.597168 0.602570 0.549011
0.603821 0.599335 0.533875
0.611023 0.596039 0.516479
0.618866 0.592712 0.496185
0.627960 0.589417 0.470581
0.639984 0.586823 0.436279
0.656464 0.586334 0.393890
0.676300 0.588074 0.339233
0.702240 0.590179 0.264771
0.713562 0.593964 0.315674
0.724091 0.598938 0.359955
0.744995 0.601898 0.372192
0.777893 0.601776 0.352142
0.815125 0.600098 0.318665
0.851471 0.598206 0.285187
0.887207 0.596130 0.252106
0.921967 0.594116 0.219452
0.955322 0.592102 0.186859
0.988525 0.590118 0.152008
0.576508 0.631653 0.606049
0.579498 0.632812 0.606415
0.582703 0.634094 0.606812
0.586121 0.635162 0.606842
0.589813 0.636383 0.606934
0.593689 0.637543 0.606873
0.597839 0.638733 0.606628
0.601990 0.639709 0.606110
0.606140 0.640442 0.605225
0.610352 0.641174 0.604095
0.614349 0.641571 0.602539
0.618011 0.641571 0.600433
0.621399 0.641235 0.597900
0.624390 0.640472 0.594727
0.628052 0.639160 0.589203
0.633270 0.637299 0.579773
0.640381 0.634644 0.565094
0.648071 0.631927 0.548065
0.656281 0.628998 0.527802
0.665405 0.625702 0.502197
0.677216 0.622986 0.467926
0.693115 0.621918 0.425781
0.712280 0.622925 0.374054
0.735870 0.625244 0.294647
0.752014 0.627319 0.314636
0.761292 0.631470 0.363831
0.774902 0.635223 0.393921
0.801025 0.636078 0.389221
0.837769 0.634125 0.356232
0.873871 0.631897 0.322327
0.908752 0.629791 0.289886
0.943146 0.627808 0.258026
0.977539 0.625916 0.225677
0.603058 0.659302 0.633392
0.606049 0.660522 0.633850
0.609314 0.661896 0.634338
0.612854 0.663269 0.634705
0.616699 0.664734 0.635071
0.620667 0.666046 0.635193
0.624847 0.667450 0.635254
0.629303 0.668976 0.635315
0.633636 0.670197 0.634979
0.637909 0.671173 0.634247
0.641968 0.671906 0.633087
0.645966 0.672485 0.631592
0.649841 0.672852 0.629791
0.653351 0.672821 0.627380
0.656555 0.672333 0.624359
0.661163 0.671478 0.618225
0.667023 0.670044 0.608704
0.674744 0.668060 0.594513
0.683044 0.665955 0.577728
0.691650 0.663513 0.557922
0.701111 0.660614 0.532501
0.712860 0.657898 0.498688
0.728363 0.656586 0.457153
0.746979 0.657074 0.407593
0.768066 0.659210 0.340027
0.790070 0.660278 0.307465
0.798035 0.663574 0.365234
0.807037 0.667450 0.407440
0.826569 0.669159 0.417999
0.859436 0.667725 0.393890
0.894714 0.665375 0.360474
0.929596 0.663208 0.327789
0.965118 0.661133 0.295074
0.628387 0.685883 0.659729
0.631439 0.687195 0.660309
0.634644 0.688568 0.660919
0.638123 0.689941 0.661316
0.641937 0.691498 0.661804
0.645752 0.692871 0.662048
0.649902 0.694427 0.662292
0.654114 0.695892 0.662323
0.658447 0.697296 0.662201
0.662689 0.698547 0.661774
0.666779 0.699493 0.660858
0.670746 0.700256 0.659637
0.674744 0.700897 0.658112
0.678680 0.701447 0.656311
0.682159 0.701477 0.653900
0.685852 0.701630 0.651306
0.691071 0.701111 0.644958
0.697754 0.700256 0.635437
0.706116 0.698944 0.621613
0.715088 0.697540 0.605377
0.724365 0.695831 0.586243
0.734314 0.693420 0.561188
0.746368 0.691010 0.528259
0.761780 0.689758 0.487762
0.780151 0.690063 0.440125
0.800171 0.691833 0.379547
0.825623 0.692780 0.299744
0.834045 0.694977 0.362488
0.841980 0.698181 0.409821
0.853088 0.701233 0.441864
0.879791 0.700775 0.431061
0.914703 0.698486 0.398834
0.951080 0.696228 0.364716
0.651520 0.710327 0.683777
0.654388 0.711670 0.684631
0.657501 0.713013 0.685272
0.660797 0.714355 0.685669
0.664246 0.715668 0.686005
0.667786 0.716827 0.686005
0.671539 0.718201 0.686127
0.675537 0.719635 0.686188
0.679535 0.720886 0.685913
0.683777 0.722321 0.685699
0.687988 0.723572 0.685181
0.692322 0.724884 0.684570
0.696564 0.726013 0.683624
0.700714 0.726898 0.682281
0.704987 0.727875 0.680817
0.708862 0.728363 0.678680
0.713074 0.729034 0.676483
0.718628 0.729095 0.670868
0.726440 0.728882 0.661011
0.735596 0.728302 0.647644
0.745331 0.727722 0.632202
0.755310 0.726746 0.613678
0.765991 0.725037 0.589203
0.778534 0.723145 0.557098
0.794189 0.722107 0.517517
0.812286 0.722290 0.472015
0.831787 0.723541 0.416199
0.854767 0.725098 0.331665
0.869446 0.725708 0.355743
0.876526 0.728394 0.409851
0.884338 0.731567 0.450226
0.903320 0.732697 0.458496
0.935181 0.731476 0.436584
0.671600 0.732086 0.704987
0.674286 0.733398 0.706146
0.677246 0.734711 0.706848
0.680450 0.735992 0.707306
0.683807 0.737305 0.707611
0.687378 0.738770 0.708008
0.690979 0.740021 0.708008
0.694855 0.741455 0.708069
0.698975 0.743042 0.708221
0.703094 0.744507 0.708099
0.707458 0.746094 0.708008
0.711823 0.747559 0.707611
0.716400 0.749207 0.707184
0.720978 0.750702 0.706543
0.725647 0.752197 0.705658
0.730347 0.753662 0.704559
0.734924 0.754883 0.703094
0.739563 0.756012 0.701233
0.745728 0.756714 0.696075
0.754425 0.757233 0.686737
0.764404 0.757507 0.673981
0.774963 0.757782 0.659393
0.785736 0.757568 0.641479
0.797211 0.756531 0.617401
0.810455 0.755280 0.586182
0.826080 0.754272 0.547516
0.843811 0.754211 0.503357
0.862885 0.754944 0.451263
0.883118 0.756531 0.380524
0.904877 0.756409 0.342773
0.910889 0.758545 0.406281
0.917908 0.761322 0.449524
0.929993 0.764130 0.478363
0.690765 0.753357 0.725555
0.693329 0.754608 0.726898
0.696136 0.755890 0.727814
0.699219 0.757263 0.728546
0.702545 0.758514 0.728821
0.706085 0.760071 0.729309
0.709808 0.761536 0.729584
0.713623 0.763031 0.729767
0.717682 0.764679 0.730011
0.721954 0.766418 0.730225
0.726318 0.768158 0.730347
0.730865 0.769928 0.730316
0.735596 0.771851 0.730255
0.740570 0.773926 0.730225
0.745544 0.775848 0.729889
0.750702 0.777863 0.729401
0.755737 0.779694 0.728546
0.760834 0.781464 0.727448
0.765961 0.783081 0.725861
0.772522 0.784454 0.721619
0.782104 0.785583 0.712402
0.792847 0.786621 0.700317
0.804169 0.787628 0.686401
0.815643 0.788055 0.668884
0.828033 0.787720 0.645111
0.841614 0.786743 0.614685
0.857208 0.785767 0.576935
0.874603 0.785431 0.533752
0.893372 0.785858 0.483856
0.912842 0.787292 0.420166
0.940552 0.787170 0.308685
0.944855 0.788422 0.396423
0.951721 0.791199 0.446808
0.709534 0.774506 0.745911
0.711975 0.775665 0.747223
0.714691 0.776947 0.748413
0.717590 0.778259 0.749390
0.720886 0.779633 0.749878
0.724335 0.781097 0.750366
0.728088 0.782715 0.750763
0.731964 0.784363 0.751190
0.736053 0.786102 0.751556
0.740295 0.787903 0.751923
0.744720 0.789795 0.752228
0.749420 0.791870 0.752533
0.754242 0.793976 0.752716
0.759338 0.796295 0.752960
0.764404 0.798462 0.752930
0.769745 0.800812 0.752869
0.775208 0.803162 0.752625
0.780731 0.805450 0.752106
0.786224 0.807587 0.751190
0.791687 0.809570 0.749847
0.798309 0.811615 0.746918
0.808929 0.813232 0.737122
