assets/luts/IWLTBAP_K64.cube
# Copyright: (C) Copyright 2010-2019 by IWLTBAP SAS
# Cannot be resold, shared or otherwise redistributed
# Website: https://luts.iwltbap.com
TITLE "IWLTBAP Kodachrome 64 (Rec.709, sRGB, DCI-P3)"
LUT_3D_SIZE 9
0.000000 0.000000 0.000000
0.073578 0.000000 0.000763
0.183197 0.000000 0.002136
0.294769 0.000000 0.001312
0.409302 0.000000 0.000580
0.528381 0.000000 0.000549
0.651947 0.000000 0.000488
0.777100 0.000000 0.000916
0.903076 0.000397 0.002655
0.000000 0.041901 0.009155
0.102478 0.059937 0.010712
0.222931 0.087067 0.004730
0.333771 0.096588 0.003601
0.446411 0.102997 0.002472
0.562592 0.107330 0.001465
0.681854 0.111633 0.000458
0.801727 0.114838 0.000397
0.923401 0.117188 0.000732
0.000000 0.135620 0.015564
0.122925 0.159607 0.016357
0.242554 0.190948 0.011780
0.363251 0.219635 0.003998
0.475830 0.227814 0.002594
0.590485 0.233734 0.001892
0.705017 0.237793 0.001282
0.821777 0.240936 0.001160
0.940643 0.243286 0.001007
0.013519 0.240021 0.020691
0.156311 0.269806 0.022186
0.278564 0.301666 0.024536
0.388611 0.326630 0.014282
0.494446 0.349609 0.003601
0.607971 0.356537 0.001099
0.721497 0.359894 0.000763
0.837463 0.362823 0.000702
0.955048 0.365387 0.000916
0.086243 0.356964 0.030762
0.215118 0.386322 0.029968
0.328644 0.417603 0.033508
0.432587 0.437256 0.029755
0.520996 0.452271 0.017029
0.617889 0.472961 0.003296
0.732422 0.481781 0.000092
0.849152 0.484955 0.000305
0.967834 0.487823 0.000519
0.176910 0.477142 0.041626
0.281586 0.501434 0.041260
0.380096 0.527374 0.044891
0.474030 0.547729 0.044922
0.563080 0.557159 0.037079
0.643463 0.570129 0.018921
0.737946 0.594177 0.003113
0.856598 0.606934 0.000000
0.978546 0.611725 0.000122
0.248230 0.591461 0.063538
0.340363 0.610260 0.057770
0.427948 0.630981 0.058472
0.513641 0.649963 0.059113
0.595551 0.660706 0.053650
0.678833 0.664551 0.042328
0.756622 0.680573 0.019531
0.856537 0.712402 0.002472
0.981293 0.730804 0.000000
0.286224 0.688263 0.117432
0.375458 0.703430 0.090729
0.457703 0.720276 0.078979
0.537415 0.736603 0.073517
0.616577 0.749573 0.069672
0.697906 0.756348 0.058960
0.784119 0.759247 0.042694
0.871979 0.785034 0.017609
0.976166 0.828888 0.001648
0.284637 0.766876 0.171234
0.382050 0.780579 0.122375
0.469147 0.797089 0.098206
0.550079 0.811768 0.082367
0.629242 0.824554 0.076172
0.711029 0.834320 0.070251
0.798431 0.840576 0.054596
0.896759 0.845490 0.037445
0.975830 0.883789 0.015350
0.000793 0.000000 0.047974
0.057159 0.002960 0.072968
0.175232 0.000000 0.087921
0.289093 0.000000 0.097351
0.402039 0.000000 0.101624
0.519043 0.000000 0.104218
0.640625 0.000000 0.105988
0.766266 0.000000 0.109436
0.896149 0.000397 0.114441
0.000000 0.035187 0.070404
0.100464 0.062836 0.098938
0.228790 0.086487 0.115265
0.341370 0.090729 0.113770
0.450653 0.091003 0.110626
0.561798 0.091309 0.108948
0.677917 0.095886 0.109741
0.798279 0.103363 0.113129
0.921051 0.110626 0.116760
0.000000 0.127625 0.079010
0.092590 0.168060 0.097015
0.248627 0.201752 0.101196
0.372070 0.224792 0.113068
0.484100 0.230072 0.111206
0.596130 0.233612 0.111481
0.709412 0.236786 0.113922
0.824921 0.239777 0.116974
0.942841 0.242737 0.119812
0.000000 0.221252 0.067810
0.082947 0.264832 0.074554
0.266266 0.312073 0.070740
0.395111 0.337830 0.079620
0.500824 0.354645 0.109161
0.612427 0.358978 0.114899
0.725494 0.362061 0.117828
0.840515 0.364807 0.120300
0.957336 0.367188 0.122345
0.005219 0.317047 0.061584
0.128357 0.369507 0.067596
0.299530 0.418488 0.067871
0.425598 0.447968 0.068146
0.524353 0.460602 0.077667
0.621185 0.477081 0.110596
0.735474 0.484497 0.120300
0.851501 0.487305 0.122772
0.970154 0.489960 0.124359
0.065582 0.455322 0.087219
0.225555 0.491943 0.079987
0.352936 0.528748 0.082886
0.462494 0.556732 0.085297
0.559967 0.568909 0.076599
0.643677 0.577362 0.083618
0.740082 0.597839 0.112915
0.858307 0.609161 0.123016
0.979889 0.613129 0.125702
0.184387 0.583649 0.135315
0.301727 0.607605 0.131042
0.404022 0.634064 0.121124
0.501160 0.658203 0.110321
0.587982 0.672211 0.100098
0.675629 0.676758 0.085449
0.757202 0.688354 0.088898
0.858185 0.716400 0.114471
0.982483 0.732849 0.124298
0.244476 0.686188 0.204559
0.348419 0.704773 0.201538
0.435822 0.723175 0.188110
0.523834 0.742889 0.175690
0.606934 0.759003 0.157593
0.692383 0.769592 0.116760
0.780273 0.773315 0.089508
0.871765 0.794464 0.092194
0.976532 0.833160 0.115631
0.250183 0.769745 0.265656
0.362000 0.786560 0.259583
0.448975 0.802307 0.242737
0.536102 0.819031 0.227081
0.618958 0.834015 0.210144
0.703156 0.847473 0.176056
0.791901 0.857208 0.122345
0.892914 0.862579 0.090607
0.975525 0.895660 0.095337
0.002960 0.002960 0.107452
0.031921 0.003174 0.150116
0.151611 0.003937 0.161224
0.266571 0.000000 0.185791
0.385864 0.000000 0.206573
0.507080 0.000000 0.219666
0.632050 0.000000 0.227936
0.758179 0.000000 0.234528
0.886475 0.000397 0.238983
0.000000 0.031342 0.139984
0.039825 0.045410 0.173187
0.199066 0.063782 0.215698
0.322388 0.069214 0.225769
0.433868 0.075226 0.231781
0.548065 0.082031 0.236511
0.665497 0.087555 0.239899
0.785095 0.093323 0.242432
0.907593 0.099030 0.244751
0.000000 0.106659 0.151764
0.036224 0.152161 0.199432
0.239410 0.212860 0.249420
0.367920 0.229950 0.260834
0.484436 0.233704 0.259155
0.596619 0.236359 0.257874
0.709045 0.237854 0.256500
0.823456 0.238861 0.254700
0.940216 0.240082 0.253418
0.000000 0.216705 0.179871
0.042725 0.266022 0.210510
0.254669 0.333069 0.250732
0.392395 0.356171 0.265686
0.501953 0.362457 0.262207
0.613953 0.364441 0.258759
0.726868 0.365936 0.256287
0.841827 0.367188 0.253906
0.958344 0.368195 0.252441
0.002350 0.320953 0.195496
0.060608 0.379883 0.221802
0.273804 0.443237 0.242279
0.417542 0.475159 0.253876
0.526611 0.482910 0.253510
0.622803 0.485443 0.256378
0.736450 0.488037 0.253479
0.852509 0.489777 0.251343
0.971130 0.491455 0.250092
0.012238 0.422333 0.210297
0.096161 0.487885 0.229126
0.305511 0.538452 0.234802
0.441071 0.573395 0.247040
0.550323 0.591309 0.242462
0.643799 0.595917 0.227325
0.740967 0.605255 0.244904
0.859619 0.611938 0.248016
0.980499 0.614258 0.249207
0.036469 0.533936 0.225067
0.163849 0.587250 0.224060
0.348114 0.627533 0.228271
0.470154 0.660706 0.235626
0.571014 0.682709 0.232056
0.666473 0.692017 0.196930
0.755249 0.700653 0.185211
0.858948 0.722473 0.232849
0.983643 0.735199 0.246002
0.105621 0.669189 0.284058
0.262115 0.690460 0.277161
0.386292 0.716858 0.278778
0.493317 0.742493 0.272614
0.588226 0.763580 0.265259
0.678497 0.777679 0.236389
0.772491 0.784454 0.174896
0.869171 0.803009 0.161469
0.976837 0.837830 0.224579
0.153717 0.768066 0.345703
0.305664 0.780975 0.335602
0.413696 0.800507 0.336395
0.510681 0.820496 0.327820
0.601593 0.838257 0.320740
0.689911 0.854401 0.301422
0.779541 0.866974 0.260559
0.883850 0.876007 0.197083
0.975189 0.906433 0.177368
0.006012 0.005524 0.177704
0.026520 0.003937 0.213257
0.110535 0.002563 0.227692
0.228119 0.003174 0.244751
0.347443 0.000427 0.280609
0.473846 0.000000 0.310089
0.606598 0.000214 0.332520
0.737823 0.000000 0.346649
0.871185 0.000000 0.356415
0.000000 0.030548 0.205566
0.027802 0.038147 0.234985
0.132599 0.052917 0.278931
0.276642 0.043427 0.299225
0.390137 0.053528 0.315155
0.506195 0.067322 0.329651
0.634003 0.078766 0.346558
0.762146 0.087982 0.357391
0.891144 0.095306 0.365082
0.000793 0.096832 0.215057
0.027679 0.115265 0.258698
0.165436 0.180511 0.324951
0.350647 0.220276 0.376160
0.472809 0.222473 0.383789
0.584320 0.226868 0.384735
0.697937 0.232452 0.385071
0.813751 0.235504 0.384644
0.931793 0.238159 0.384338
0.000000 0.190033 0.243774
0.027588 0.222046 0.278778
0.170990 0.315674 0.360626
0.387024 0.379089 0.413483
0.495880 0.373505 0.404755
0.609985 0.369812 0.396454
0.722382 0.369324 0.392273
0.837097 0.369781 0.389740
0.953888 0.370422 0.387939
0.001587 0.302856 0.289368
0.042084 0.345978 0.319275
0.214294 0.434875 0.375885
0.409912 0.488159 0.419220
0.516144 0.497162 0.424225
0.620392 0.490662 0.397003
0.734406 0.490936 0.390808
0.850342 0.492157 0.388000
0.969208 0.493286 0.386230
0.011444 0.413269 0.324036
0.067688 0.469269 0.352722
0.258972 0.546234 0.390381
0.427582 0.588501 0.415985
0.538879 0.607422 0.424774
0.638611 0.609497 0.412415
0.739594 0.609650 0.392395
0.858246 0.613403 0.385864
0.978882 0.615112 0.384094
0.032043 0.531464 0.363495
0.106476 0.592224 0.390533
0.309631 0.644043 0.406982
0.449799 0.675201 0.419800
0.557709 0.697113 0.428375
0.654785 0.709625 0.423065
0.749176 0.714691 0.400543
0.857086 0.727417 0.388336
0.983459 0.737000 0.382202
0.064941 0.650726 0.400269
0.143219 0.697876 0.421356
0.343933 0.726074 0.420441
0.467194 0.751129 0.428375
0.570892 0.773651 0.434143
0.665924 0.791412 0.432892
0.759979 0.801819 0.414337
0.860809 0.817871 0.386505
0.976501 0.844177 0.383942
0.083923 0.748413 0.428009
0.172638 0.782776 0.439331
0.361755 0.800293 0.432953
0.480774 0.823090 0.439453
0.580231 0.843262 0.440491
0.676208 0.862732 0.440521
0.767120 0.879211 0.427551
0.869965 0.892426 0.398285
0.973572 0.919983 0.375000
0.009064 0.005524 0.234192
0.027100 0.005524 0.259491
0.066559 0.004547 0.283569
0.193146 0.003174 0.297394
0.297943 0.005524 0.317841
0.419769 0.000824 0.364655
0.558044 0.000305 0.406738
0.699493 0.000519 0.438019
0.841339 0.000458 0.460236
0.000000 0.029175 0.266937
0.028595 0.037933 0.285309
0.075134 0.047333 0.325104
0.231201 0.046631 0.356659
0.335815 0.033813 0.359344
0.448700 0.049408 0.389587
0.584747 0.066528 0.425751
0.723907 0.080322 0.453552
0.862335 0.090637 0.472656
0.000580 0.094574 0.284546
0.025421 0.106079 0.315552
0.087891 0.152313 0.372192
0.282257 0.201447 0.436707
0.440460 0.212585 0.471313
0.554016 0.215088 0.485779
0.667633 0.214874 0.492279
0.785248 0.215820 0.495911
0.909027 0.223999 0.500397
0.000793 0.177032 0.294617
0.024933 0.197784 0.329132
0.105591 0.252716 0.404480
0.333313 0.350555 0.478394
0.491211 0.394867 0.523926
0.600555 0.377777 0.522552
0.710663 0.371002 0.517670
0.825256 0.370667 0.515106
0.943298 0.371338 0.513397
0.000397 0.270935 0.332336
0.029663 0.296997 0.359650
0.091766 0.383423 0.437103
0.363495 0.475525 0.507141
0.513000 0.526276 0.558868
0.611755 0.505920 0.535461
0.726959 0.497711 0.523254
0.842743 0.495697 0.517609
0.961151 0.495636 0.514801
0.008484 0.384003 0.388916
0.045288 0.417908 0.413025
0.171539 0.516296 0.477814
0.397217 0.576996 0.520844
0.535858 0.617828 0.561859
0.625916 0.622253 0.560120
0.736023 0.613617 0.523193
0.853760 0.614319 0.515564
0.974121 0.615784 0.512543
0.026031 0.506409 0.437439
0.079926 0.551208 0.461182
0.241180 0.624725 0.500031
0.425812 0.673706 0.531586
0.552643 0.705231 0.558472
0.644165 0.719055 0.563049
0.741028 0.723206 0.547302
0.854767 0.730103 0.518982
0.981476 0.737000 0.510071
0.056732 0.629059 0.481445
0.109955 0.669922 0.501923
0.296783 0.717163 0.519958
0.449036 0.756653 0.543213
0.563049 0.780975 0.558228
0.658203 0.797821 0.563660
0.750214 0.810486 0.559540
0.851868 0.823853 0.538574
0.975525 0.846741 0.516754
0.073395 0.732330 0.515106
0.132538 0.770966 0.536285
0.325745 0.802338 0.543030
0.463440 0.831543 0.557983
0.569672 0.850494 0.565369
0.667450 0.869965 0.571320
0.759186 0.888275 0.573090
0.857330 0.904205 0.566010
0.970215 0.928467 0.545502
0.012909 0.004730 0.281769
0.027985 0.005219 0.302490
0.047791 0.005524 0.326263
0.162720 0.004547 0.349243
0.266327 0.005127 0.359955
0.364105 0.005219 0.386139
0.493622 0.000092 0.445923
0.640442 0.000610 0.500336
0.792114 0.000519 0.542236
0.000000 0.026611 0.321747
0.029083 0.040741 0.330017
0.050018 0.045563 0.363251
0.188782 0.056824 0.410248
0.311340 0.041290 0.420898
0.391479 0.031036 0.415771
0.520874 0.048950 0.471344
0.665405 0.067719 0.520691
0.814606 0.082062 0.558533
0.000000 0.098419 0.339752
0.024750 0.110260 0.368713
0.055603 0.140747 0.407928
0.208649 0.190643 0.481354
0.385559 0.209290 0.519348
0.512238 0.211243 0.546112
0.623688 0.211456 0.571716
0.739990 0.202667 0.585327
0.865295 0.201752 0.595764
0.001587 0.174896 0.362335
0.024658 0.189697 0.392120
0.053436 0.214264 0.436646
0.254761 0.311432 0.520325
0.434570 0.372498 0.577789
0.574280 0.393951 0.610443
0.682648 0.384216 0.622803
0.798035 0.374634 0.627563
0.919403 0.370972 0.630310
0.001099 0.255341 0.371796
0.027313 0.274963 0.398163
0.073700 0.338226 0.469940
0.291626 0.410706 0.544250
0.479156 0.505127 0.611603
0.603760 0.541931 0.646759
0.710541 0.515228 0.644958
0.826355 0.502350 0.640656
0.945801 0.498932 0.638397
0.005829 0.349884 0.416504
0.035400 0.374634 0.441437
0.073914 0.430267 0.491669
0.292023 0.544617 0.578094
0.506622 0.611053 0.635529
0.617706 0.648438 0.681641
0.721222 0.627441 0.656891
0.841339 0.619659 0.644836
0.962524 0.617798 0.639130
0.018829 0.469696 0.483917
0.056885 0.497925 0.503693
0.145416 0.585846 0.562683
0.369995 0.645660 0.600800
0.531982 0.694489 0.644684
0.640564 0.725098 0.680176
0.724823 0.731110 0.677734
0.849823 0.732117 0.644135
0.974487 0.735413 0.637207
0.048279 0.596344 0.536041
0.090729 0.627075 0.552704
0.221924 0.695831 0.593506
0.410126 0.735260 0.616730
0.548279 0.777008 0.652069
0.654907 0.801910 0.676331
0.738892 0.814850 0.678650
0.841003 0.827667 0.667297
0.973328 0.848145 0.641083
0.067993 0.707947 0.576782
0.113251 0.739502 0.594452
0.276154 0.784973 0.617340
0.434479 0.817749 0.636108
0.555023 0.852264 0.660339
0.663544 0.875214 0.677521
0.753021 0.892303 0.683929
0.847382 0.909607 0.685608
0.965149 0.931610 0.672211
0.015961 0.003937 0.330536
0.028992 0.003937 0.345367
0.045258 0.003937 0.370270
0.127350 0.004547 0.404694
0.244324 0.005524 0.410614
0.337006 0.005219 0.424408
0.434448 0.003754 0.457642
0.571594 0.001190 0.530731
0.725342 0.000610 0.596680
0.000092 0.023254 0.373596
0.030243 0.046722 0.375641
0.047119 0.052704 0.406555
0.133575 0.069305 0.457031
0.293671 0.065704 0.488251
0.378937 0.039124 0.477173
0.463318 0.035400 0.488892
0.600525 0.056519 0.560394
0.750916 0.073273 0.619843
0.000000 0.103546 0.394073
0.024445 0.114441 0.420563
0.050995 0.142059 0.447693
0.139526 0.184082 0.514465
0.339691 0.216034 0.567474
0.472260 0.222229 0.592133
0.575928 0.214264 0.612518
0.685425 0.209747 0.647003
0.807190 0.192841 0.670776
0.000488 0.178040 0.416931
0.024445 0.191650 0.440582
0.050476 0.213135 0.480988
0.175812 0.296295 0.560638
0.374359 0.355896 0.623230
0.522034 0.380463 0.653076
0.643921 0.400726 0.683502
0.753754 0.395905 0.710632
0.876404 0.382019 0.727875
0.002747 0.253571 0.430267
0.027588 0.268707 0.456238
0.063934 0.311401 0.515411
0.169006 0.367859 0.586365
0.420715 0.470123 0.652618
0.559875 0.520996 0.694885
0.679169 0.543915 0.722778
0.789093 0.525848 0.740021
0.911560 0.510071 0.748749
0.005219 0.331818 0.447205
0.032318 0.351593 0.470764
0.065765 0.396606 0.519897
0.237854 0.496887 0.609497
0.454620 0.559296 0.671844
0.597076 0.633148 0.727325
0.698608 0.660034 0.752838
0.812500 0.635834 0.758148
0.937958 0.623444 0.758301
0.013794 0.430420 0.500214
0.044769 0.458038 0.524475
0.082062 0.500366 0.561646
0.210602 0.608276 0.645203
0.464478 0.673645 0.697357
0.618134 0.721039 0.746368
0.707886 0.745911 0.785339
0.827057 0.738159 0.770477
0.957184 0.735840 0.761993
0.037262 0.555054 0.572083
0.075806 0.583313 0.590485
0.128845 0.642670 0.631561
0.333069 0.704987 0.672913
0.508636 0.753998 0.712189
0.637054 0.792114 0.752136
0.732544 0.815216 0.783020
0.821045 0.828857 0.786346
0.967865 0.848053 0.763092
0.062531 0.674500 0.620514
0.100372 0.702789 0.637115
0.199890 0.760681 0.676758
0.393890 0.793976 0.695435
0.523193 0.832092 0.724640
0.607941 0.864410 0.736298
0.748962 0.894562 0.782349
0.835938 0.911163 0.788818
0.955536 0.932343 0.786804
0.019012 0.003265 0.375763
0.030548 0.004120 0.390472
0.045990 0.005707 0.417328
0.083496 0.005707 0.448273
0.234467 0.003937 0.481384
0.324677 0.004639 0.479095
0.412292 0.003174 0.496643
0.513092 0.007385 0.538544
0.656830 0.013000 0.625519
0.000488 0.019714 0.423218
0.031830 0.056915 0.422607
0.048004 0.066132 0.452423
0.085632 0.080597 0.493256
0.267487 0.098572 0.550293
0.382416 0.076965 0.558868
0.448883 0.042328 0.541321
0.549713 0.058258 0.579987
0.690491 0.084473 0.661682
0.000000 0.110931 0.448608
0.023865 0.121277 0.473694
0.051910 0.152222 0.492462
0.089233 0.180023 0.541534
0.289825 0.226959 0.612000
0.441528 0.241333 0.643097
0.550110 0.243011 0.661652
0.634949 0.221954 0.674469
0.747498 0.218506 0.721436
0.000000 0.186340 0.468872
0.024536 0.199249 0.491547
0.051392 0.221161 0.530670
0.110199 0.281097 0.587341
0.316284 0.343445 0.657135
0.478333 0.376984 0.696991
0.600342 0.394806 0.720917
0.705658 0.413544 0.749847
0.819244 0.412201 0.790955
0.003143 0.256531 0.491486
0.028870 0.269745 0.512543
0.054169 0.289185 0.544220
0.091949 0.336700 0.607544
0.364197 0.445465 0.687256
0.511047 0.501709 0.738129
0.635406 0.526886 0.763367
0.743774 0.549408 0.791656
0.856506 0.539154 0.824585
0.008484 0.329041 0.498535
0.032928 0.344757 0.520630
0.063477 0.381104 0.567505
0.198914 0.469360 0.657898
0.359344 0.508698 0.711395
0.552673 0.603455 0.765625
0.665131 0.642700 0.797363
0.768524 0.662567 0.821777
0.885956 0.645264 0.847961
0.012207 0.410034 0.524841
0.040009 0.431946 0.546783
0.071991 0.467926 0.584381
0.172333 0.569092 0.671600
0.419342 0.629272 0.726715
0.581207 0.682983 0.784393
0.693085 0.732880 0.832062
0.785858 0.754852 0.849304
0.913452 0.742920 0.866089
0.028107 0.515167 0.582611
0.063477 0.541901 0.604492
0.099304 0.581940 0.637970
0.159973 0.653320 0.696564
0.420532 0.726440 0.753265
0.590179 0.779022 0.804993
0.707581 0.812164 0.846344
0.798157 0.832520 0.882385
0.938293 0.844025 0.880859
0.055328 0.635620 0.652283
0.089355 0.662048 0.670441
0.126831 0.701691 0.699097
0.280090 0.760620 0.742310
0.468140 0.805359 0.775452
0.539551 0.834198 0.790161
0.670685 0.871704 0.818726
0.826813 0.908875 0.882599
0.932983 0.929626 0.892334
0.022095 0.009460 0.425720
0.032043 0.011047 0.439026
0.047394 0.016174 0.463867
0.067749 0.022888 0.497803
0.206970 0.028778 0.553375
0.328125 0.010345 0.556824
0.410889 0.005707 0.558777
0.499542 0.012207 0.582916
0.606171 0.032349 0.638733
0.004059 0.022186 0.471375
0.032837 0.070465 0.469910
0.048706 0.080688 0.496887
0.070343 0.097687 0.537292
0.218140 0.130280 0.603271
0.376740 0.131073 0.632629
0.465485 0.096680 0.630707
0.540253 0.076996 0.632751
0.647125 0.123566 0.685577
0.000000 0.119598 0.503204
0.023743 0.129486 0.527832
0.053619 0.163391 0.535370
0.074463 0.185181 0.576813
0.226593 0.234741 0.648621
0.409546 0.260620 0.691040
0.527985 0.268860 0.713318
0.620422 0.265472 0.727875
0.698578 0.248352 0.743500
0.000000 0.196106 0.521790
0.025024 0.208160 0.543854
0.052063 0.228333 0.578278
0.084290 0.270813 0.612518
0.245728 0.335907 0.687866
0.434601 0.377838 0.737366
0.564606 0.397552 0.763702
0.669861 0.414368 0.786469
0.765106 0.432861 0.816803
0.002350 0.262604 0.540833
0.029358 0.275055 0.559448
0.054565 0.295776 0.590759
0.082825 0.331268 0.644012
0.282257 0.432129 0.727051
0.459442 0.480804 0.776917
0.594177 0.511719 0.809204
0.704834 0.532928 0.831543
0.803345 0.554230 0.859833
0.010559 0.332794 0.558807
0.034698 0.346771 0.580353
0.060760 0.372833 0.617645
0.104614 0.417999 0.671844
0.233185 0.492493 0.756927
0.433105 0.545471 0.830475
0.604065 0.593628 0.871490
0.734344 0.616943 0.881378
0.832977 0.653687 0.893036
0.016754 0.405945 0.571045
0.040985 0.424622 0.591858
0.070312 0.453644 0.627197
0.158508 0.544067 0.713531
0.377319 0.593384 0.770447
0.411835 0.605255 0.833191
0.590759 0.662048 0.881012
0.740906 0.707916 0.898285
0.855042 0.749390 0.918427
0.022675 0.492035 0.603638
0.055359 0.515015 0.624359
0.089691 0.551208 0.658295
0.137573 0.615173 0.716522
0.358948 0.686401 0.777802
0.448883 0.710358 0.817841
0.573944 0.735474 0.880890
0.749756 0.789062 0.911530
0.875275 0.836853 0.942719
0.046906 0.597778 0.661438
0.081177 0.624115 0.681458
0.112000 0.659393 0.711090
0.146912 0.707306 0.754395
0.355347 0.773743 0.808929
0.436371 0.800537 0.834869
0.535736 0.836212 0.872131
0.741943 0.880035 0.919434
0.898407 0.925507 0.967896
