assets/luts/IWLTBAP_K99.cube
# Copyright: (C) Copyright 2010-2019 by IWLTBAP SAS
# Cannot be resold, shared or otherwise redistributed
# Website: https://luts.iwltbap.com
TITLE "IWLTBAP Kodachrome 99 Experimental (Rec.709, sRGB, DCI-P3)"
LUT_3D_SIZE 5
0.000977 0.000427 0.000458
0.175201 0.036621 0.000305
0.431946 0.077423 0.001068
0.719330 0.137634 0.000122
0.954468 0.170776 0.000031
0.147186 0.169952 0.160583
0.210541 0.192596 0.139191
0.495209 0.223877 0.002716
0.747559 0.244354 0.000000
0.969727 0.278137 0.000031
0.463379 0.514038 0.490997
0.484985 0.509949 0.476654
0.531830 0.483490 0.348541
0.741821 0.496796 0.208313
1.000000 0.487946 0.009949
0.671600 0.732086 0.704987
0.698975 0.743042 0.708221
0.734924 0.754883 0.703094
0.810455 0.755280 0.586182
0.929993 0.764130 0.478363
0.806244 0.889404 0.854248
0.829437 0.900940 0.863892
0.868347 0.921082 0.869965
0.922302 0.949188 0.872101
1.000000 0.970459 0.826111
0.045044 0.023987 0.045715
0.111267 0.074829 0.100769
0.328156 0.162994 0.194641
0.722168 0.116241 0.150299
0.976440 0.124420 0.137543
0.061676 0.211426 0.233551
0.226624 0.230286 0.233215
0.507294 0.223053 0.181519
0.759155 0.230438 0.153351
0.990417 0.242950 0.142181
0.468536 0.519531 0.502014
0.518036 0.552521 0.536987
0.544678 0.510468 0.425842
0.766266 0.488464 0.248932
1.000000 0.481598 0.191620
0.673981 0.736725 0.712616
0.702148 0.751068 0.728729
0.740875 0.764984 0.729584
0.802917 0.762451 0.637756
0.933716 0.762268 0.519775
0.811249 0.890381 0.860443
0.832947 0.901947 0.872955
0.868103 0.922394 0.887665
0.920563 0.950928 0.892944
1.000000 0.975006 0.848267
0.130341 0.100464 0.147949
0.198425 0.152466 0.223236
0.323608 0.149231 0.317108
0.517700 0.234863 0.394226
0.787659 0.297577 0.455994
0.156830 0.287903 0.428986
0.222015 0.339813 0.504913
0.455109 0.276520 0.454010
0.584991 0.325256 0.443024
0.816193 0.389435 0.472839
0.334534 0.574738 0.600250
0.419373 0.595978 0.616638
0.588318 0.579468 0.577545
0.778625 0.512268 0.471466
0.983429 0.504395 0.434143
0.684540 0.745972 0.730194
0.719849 0.760681 0.747986
0.760864 0.784607 0.774078
0.812592 0.790985 0.730896
0.986328 0.749207 0.541534
0.819794 0.891876 0.869263
0.841125 0.903992 0.882233
0.873474 0.924286 0.903381
0.922089 0.955109 0.924500
0.998444 0.979156 0.886627
0.223450 0.203369 0.330811
0.273285 0.248932 0.400299
0.385620 0.320007 0.363190
0.580414 0.181824 0.571808
0.790558 0.227814 0.625885
0.193359 0.372437 0.587067
0.273529 0.407440 0.635071
0.528534 0.482178 0.527740
0.691284 0.320770 0.683258
0.844177 0.395416 0.675720
0.246796 0.639221 0.790253
0.381622 0.649200 0.811401
0.626099 0.658264 0.770386
0.773499 0.625275 0.757660
0.883545 0.602875 0.730591
0.520966 0.798859 0.826385
0.583038 0.804413 0.827606
0.701477 0.813629 0.829468
0.817932 0.812836 0.810608
0.970947 0.775299 0.748016
0.818481 0.907257 0.886597
0.847473 0.917023 0.899963
0.887939 0.932098 0.919342
0.930969 0.957764 0.947052
0.993164 0.989075 0.952606
0.284729 0.319092 0.543976
0.375977 0.363098 0.581543
0.532806 0.463776 0.537781
0.622070 0.462402 0.642548
0.871002 0.296600 0.854126
0.290894 0.459656 0.746338
0.408325 0.487244 0.755219
0.601715 0.556366 0.674957
0.679108 0.578949 0.692993
0.919159 0.455200 0.902679
0.326752 0.667847 0.938324
0.441528 0.674744 0.943542
0.650757 0.692841 0.884430
0.759888 0.724091 0.749176
0.934753 0.658966 0.919769
0.346222 0.843201 0.977295
0.491974 0.843811 0.977173
0.672058 0.840912 0.975067
0.841248 0.838623 0.893463
0.931824 0.838562 0.921326
0.610535 0.964264 0.992432
0.685638 0.968933 0.992004
0.776978 0.976898 0.993683
0.880768 0.986938 0.997375
0.998871 0.999237 0.999207
