assets/luts/IWLTBAP_K64.cube
# Copyright: (C) Copyright 2010-2019 by IWLTBAP SAS
# Cannot be resold, shared or otherwise redistributed
# Website: https://luts.iwltbap.com
TITLE "IWLTBAP Kodachrome 64 (Rec.709, sRGB, DCI-P3)"
LUT_3D_SIZE 33
0.000000 0.000000 0.000000
0.013550 0.000000 0.000000
0.027283 0.000000 0.000000
0.045715 0.000000 0.000519
0.073578 0.000000 0.000763
0.104126 0.000000 0.001495
0.131287 0.000000 0.001495
0.157166 0.000000 0.001831
0.183197 0.000000 0.002136
0.210785 0.000000 0.001404
0.239197 0.000000 0.002045
0.266998 0.000000 0.001740
0.294769 0.000000 0.001312
0.322968 0.000000 0.000732
0.351746 0.000000 0.000610
0.380371 0.000000 0.000610
0.409302 0.000000 0.000580
0.438568 0.000000 0.000580
0.467865 0.000000 0.000580
0.497833 0.000000 0.000549
0.528381 0.000000 0.000549
0.559143 0.000000 0.000519
0.590027 0.000000 0.000519
0.621185 0.000000 0.000488
0.651947 0.000000 0.000488
0.682892 0.000000 0.000702
0.714203 0.000000 0.000916
0.745667 0.000000 0.000885
0.777100 0.000000 0.000916
0.808472 0.000000 0.001373
0.839996 0.000214 0.001831
0.871643 0.000397 0.002258
0.903076 0.000397 0.002655
0.000000 0.012939 0.001129
0.013763 0.013031 0.002258
0.032623 0.013824 0.003143
0.057892 0.014191 0.004028
0.088745 0.014526 0.004761
0.117218 0.014404 0.004028
0.142548 0.014740 0.003815
0.168884 0.014709 0.003510
0.195892 0.015045 0.003113
0.223145 0.015686 0.002899
0.250763 0.016296 0.002838
0.278259 0.017151 0.002502
0.306091 0.017456 0.002075
0.334015 0.017883 0.001617
0.362396 0.018188 0.001373
0.390991 0.017914 0.001160
0.419830 0.018219 0.000702
0.448914 0.018402 0.000275
0.478333 0.018707 0.000122
0.507935 0.018524 0.000000
0.537994 0.018982 0.000000
0.568451 0.019745 0.000000
0.599091 0.020142 0.000000
0.629791 0.020538 0.000000
0.660309 0.021057 0.000000
0.690979 0.021545 0.000000
0.721985 0.022156 0.000000
0.753235 0.022797 0.000305
0.784210 0.023193 0.000397
0.815277 0.023438 0.000397
0.846527 0.023773 0.000549
0.877960 0.023987 0.000671
0.908966 0.024231 0.000671
0.000000 0.022125 0.003387
0.014648 0.021240 0.004700
0.035706 0.023163 0.006042
0.063690 0.024902 0.006439
0.096771 0.027222 0.006561
0.125153 0.029419 0.005676
0.151733 0.031555 0.005127
0.178619 0.032959 0.004547
0.205505 0.034424 0.004150
0.232819 0.036285 0.003693
0.260345 0.037903 0.003326
0.287842 0.039185 0.003235
0.315338 0.039978 0.002808
0.343506 0.040955 0.002502
0.371948 0.041809 0.002075
0.400391 0.042480 0.001892
0.428925 0.042389 0.001404
0.457550 0.042694 0.000977
0.486877 0.042999 0.000793
0.516418 0.043396 0.000244
0.546173 0.043610 0.000214
0.576477 0.044891 0.000000
0.606873 0.046112 0.000000
0.637360 0.047119 0.000000
0.667633 0.048309 0.000000
0.697998 0.049438 0.000000
0.728699 0.050323 0.000000
0.759491 0.051178 0.000000
0.790253 0.051971 0.000183
0.821075 0.052490 0.000397
0.852081 0.053009 0.000549
0.883148 0.053497 0.000549
0.913910 0.053894 0.000519
0.000000 0.029907 0.006287
0.016296 0.031281 0.008026
0.037018 0.032654 0.009003
0.066742 0.036499 0.009277
0.101013 0.042542 0.007874
0.131500 0.048492 0.006836
0.159210 0.052704 0.005859
0.186981 0.055969 0.004913
0.214630 0.058807 0.004669
0.241943 0.061157 0.003998
0.269196 0.063446 0.003571
0.296814 0.065460 0.003204
0.324554 0.067108 0.003143
0.352386 0.068542 0.002960
0.380798 0.069672 0.002747
0.409119 0.070984 0.002350
0.437500 0.071838 0.002106
0.466187 0.072235 0.001648
0.495300 0.073212 0.001465
0.524719 0.073700 0.000885
0.554413 0.074158 0.000854
0.584412 0.075256 0.000549
0.614685 0.076630 0.000305
0.644836 0.078003 0.000305
0.674805 0.079376 0.000183
0.704956 0.080505 0.000000
0.735138 0.081421 0.000000
0.765625 0.082306 0.000000
0.795990 0.082855 0.000427
0.826569 0.083527 0.000397
0.857239 0.084076 0.000610
0.888062 0.084808 0.000763
0.918610 0.085205 0.000732
0.000000 0.041901 0.009155
0.018585 0.046021 0.010925
0.040985 0.049652 0.011871
0.069611 0.053497 0.012329
0.102478 0.059937 0.010712
0.135010 0.070801 0.008362
0.165161 0.077972 0.006409
0.194580 0.083221 0.005402
0.222931 0.087067 0.004730
0.250488 0.089691 0.004486
0.278412 0.092377 0.003845
0.305939 0.094543 0.003693
0.333771 0.096588 0.003601
0.361755 0.098663 0.003052
0.389832 0.100281 0.002960
0.418121 0.101624 0.002808
0.446411 0.102997 0.002472
0.474854 0.104156 0.002197
0.503723 0.105255 0.002075
0.532990 0.106506 0.001526
0.562592 0.107330 0.001465
0.592438 0.108215 0.001434
0.622375 0.109161 0.000946
0.652283 0.110413 0.000885
0.681854 0.111633 0.000458
0.711700 0.112640 0.000397
0.741608 0.113495 0.000366
0.771576 0.114288 0.000366
0.801727 0.114838 0.000397
0.832062 0.115479 0.000397
0.862488 0.116058 0.000610
0.893005 0.116547 0.000763
0.923401 0.117188 0.000732
0.000000 0.062927 0.011902
0.020233 0.068329 0.012878
0.045746 0.072723 0.013489
0.075409 0.076874 0.013489
0.105896 0.081909 0.012787
0.135406 0.090546 0.010712
0.168152 0.102234 0.008209
0.199890 0.110504 0.006134
0.230042 0.115997 0.004761
0.258636 0.119629 0.004456
0.286682 0.122375 0.004272
0.314484 0.124878 0.003693
0.342407 0.127075 0.003632
0.370605 0.129364 0.003540
0.398529 0.131195 0.002899
0.426727 0.132874 0.002838
0.454803 0.134399 0.002777
0.483185 0.135864 0.002380
0.511749 0.137177 0.002136
0.540894 0.138611 0.002075
0.570465 0.139771 0.001892
0.599976 0.140778 0.001465
0.629547 0.141632 0.001434
0.659088 0.142670 0.000977
0.688446 0.143890 0.000916
0.717926 0.144958 0.000885
0.747589 0.145782 0.000854
0.777374 0.146484 0.000854
0.807251 0.147247 0.000854
0.837433 0.147736 0.000824
0.867645 0.148346 0.000793
0.897980 0.148926 0.000763
0.928101 0.149475 0.000702
0.000000 0.087158 0.012878
0.021881 0.092468 0.014435
0.049469 0.097229 0.014435
0.081085 0.101868 0.014435
0.111084 0.107208 0.014008
0.138824 0.113220 0.013031
0.170380 0.123413 0.010620
0.203217 0.135254 0.008087
0.234924 0.143677 0.005981
0.265167 0.149261 0.004791
0.294250 0.153168 0.004333
0.322357 0.155731 0.003601
0.350220 0.158081 0.003510
0.378387 0.160248 0.003448
0.406403 0.162231 0.003387
0.434479 0.164062 0.002808
0.462494 0.165558 0.002716
0.490753 0.167145 0.002655
0.519531 0.168762 0.002289
0.548431 0.170197 0.002045
0.577637 0.171356 0.001984
0.606873 0.172516 0.001801
0.636200 0.173462 0.001434
0.665344 0.174683 0.001373
0.694366 0.175812 0.001038
0.723602 0.176788 0.001007
0.753052 0.177673 0.000977
0.782654 0.178406 0.000946
0.812408 0.178986 0.000916
0.842407 0.179535 0.001160
0.872467 0.180054 0.001129
0.902618 0.180573 0.001099
0.932617 0.181152 0.000793
0.000000 0.111328 0.014252
0.024109 0.117645 0.015411
0.053772 0.122528 0.015411
0.086639 0.127686 0.015411
0.117035 0.133423 0.015411
0.144806 0.139374 0.014618
0.174316 0.146423 0.013733
0.206055 0.156921 0.010956
0.238678 0.168579 0.008362
0.270111 0.177032 0.006134
0.300018 0.182617 0.005066
0.329132 0.186554 0.004150
0.357391 0.189087 0.003418
0.385406 0.191315 0.003357
0.413422 0.193298 0.003326
0.441315 0.195068 0.003113
0.469452 0.196686 0.002655
0.497864 0.198395 0.002594
0.526581 0.200012 0.002533
0.555420 0.201508 0.001984
0.584412 0.202759 0.001953
0.613403 0.203827 0.001892
0.642395 0.204895 0.001495
0.671204 0.206055 0.001343
0.699921 0.207123 0.001312
0.728851 0.208038 0.001282
0.758179 0.208832 0.001251
0.787628 0.209534 0.001221
0.817230 0.210144 0.001190
0.846985 0.210724 0.001129
0.876831 0.211243 0.001099
0.906860 0.211792 0.001068
0.936707 0.212341 0.001038
0.000000 0.135620 0.015564
0.026489 0.142853 0.016357
0.058350 0.148102 0.016357
0.092010 0.153503 0.015839
0.122925 0.159607 0.016357
0.151764 0.166229 0.016174
0.181030 0.173065 0.015930
0.211243 0.180328 0.014709
0.242554 0.190948 0.011780
0.274231 0.202026 0.008453
0.304596 0.210052 0.006378
0.334198 0.215668 0.004913
0.363251 0.219635 0.003998
0.391754 0.222412 0.003265
0.419830 0.224365 0.003174
0.447723 0.226135 0.002777
0.475830 0.227814 0.002594
0.504150 0.229431 0.002533
0.532837 0.230957 0.002106
0.561646 0.232483 0.001953
0.590485 0.233734 0.001892
0.619324 0.234894 0.001587
0.648010 0.235870 0.001434
0.676544 0.236908 0.001343
0.705017 0.237793 0.001282
0.733856 0.238739 0.001251
0.763000 0.239563 0.001221
0.792328 0.240265 0.001190
0.821777 0.240936 0.001160
0.851410 0.241516 0.001129
0.881104 0.242126 0.001099
0.910919 0.242706 0.001038
0.940643 0.243286 0.001007
0.001526 0.160553 0.015778
0.030884 0.168335 0.016724
0.063934 0.173950 0.016968
0.097931 0.179657 0.016571
0.129120 0.186371 0.017212
0.159302 0.193604 0.017334
0.189148 0.200745 0.017334
0.218903 0.207611 0.017303
0.248840 0.214752 0.015991
0.279297 0.224976 0.012604
0.309357 0.235321 0.009155
0.338776 0.242920 0.006866
0.367981 0.248535 0.005005
0.397034 0.252686 0.003876
0.425598 0.255463 0.003082
0.453674 0.257324 0.002563
0.481689 0.258972 0.002502
0.509979 0.260498 0.002106
0.538513 0.261963 0.001953
0.567169 0.263367 0.001892
0.595917 0.264587 0.001862
0.624542 0.265717 0.001556
0.653046 0.266663 0.001343
0.681335 0.267609 0.001312
0.709778 0.268433 0.001251
0.738495 0.269287 0.001221
0.767578 0.270142 0.001190
0.796783 0.270905 0.001160
0.826141 0.271545 0.001129
0.855652 0.272186 0.001099
0.885223 0.272827 0.001068
0.914917 0.273438 0.001038
0.944489 0.273956 0.001007
0.005310 0.186249 0.017487
0.036346 0.193970 0.017670
0.071167 0.200073 0.018097
0.105194 0.206177 0.018005
0.136475 0.213165 0.018433
0.167450 0.221161 0.018524
0.198029 0.228912 0.019470
0.227905 0.235931 0.019745
0.257294 0.242462 0.018768
0.286865 0.249451 0.016907
0.315887 0.258911 0.013306
0.344666 0.268616 0.009613
0.373260 0.276093 0.006897
0.401764 0.281494 0.004883
0.430237 0.285431 0.003754
0.458557 0.288147 0.002960
0.486755 0.290039 0.002441
0.515045 0.291504 0.002045
0.543457 0.292908 0.001862
0.571869 0.294159 0.001770
0.600403 0.295258 0.001343
0.628967 0.296326 0.001312
0.657410 0.297272 0.001221
0.685638 0.298126 0.001190
0.714050 0.298981 0.001221
0.742737 0.299744 0.001190
0.771729 0.300568 0.001099
0.800873 0.301300 0.001129
0.830170 0.301971 0.001038
0.859650 0.302643 0.001068
0.889069 0.303284 0.001038
0.918640 0.303925 0.001007
0.948181 0.304474 0.000977
0.009186 0.212769 0.018768
0.042206 0.220398 0.019257
0.078644 0.226868 0.019257
0.113647 0.233490 0.019562
0.145538 0.241058 0.020264
0.177124 0.249451 0.020416
0.208099 0.257660 0.021393
0.238129 0.265259 0.022247
0.267548 0.271942 0.021667
0.296692 0.277863 0.019928
0.325104 0.284363 0.017334
0.352539 0.292938 0.013489
0.379852 0.302032 0.009918
0.407318 0.309082 0.007019
0.434906 0.314148 0.005005
0.462738 0.317780 0.003693
0.490906 0.320435 0.002655
0.519287 0.322357 0.001984
0.547668 0.323700 0.001801
0.575989 0.324890 0.001587
0.604401 0.325958 0.001312
0.632904 0.326935 0.001129
0.661316 0.327850 0.000916
0.689545 0.328644 0.000824
0.717957 0.329437 0.000793
0.746643 0.330231 0.001007
0.775604 0.330994 0.000885
0.804718 0.331726 0.000916
0.833923 0.332428 0.000702
0.863342 0.333069 0.000702
0.892761 0.333710 0.001007
0.922272 0.334351 0.000977
0.951691 0.334991 0.000946
0.013519 0.240021 0.020691
0.051331 0.247833 0.021179
0.088928 0.254639 0.021179
0.123535 0.261749 0.021210
0.156311 0.269806 0.022186
0.188354 0.278625 0.022766
0.219421 0.287048 0.023315
0.249451 0.294800 0.024261
0.278564 0.301666 0.024536
0.307404 0.307648 0.023315
0.335602 0.312866 0.021240
0.362732 0.318665 0.018372
0.388611 0.326630 0.014282
0.414307 0.334991 0.010101
0.440399 0.341431 0.007202
0.466980 0.346069 0.005219
0.494446 0.349609 0.003601
0.522675 0.352203 0.002289
0.551117 0.354095 0.001770
0.579559 0.355499 0.001282
0.607971 0.356537 0.001099
0.636444 0.357483 0.000977
0.664825 0.358368 0.000793
0.693085 0.359161 0.000793
0.721497 0.359894 0.000763
0.750183 0.360687 0.000763
0.779144 0.361389 0.000732
0.808228 0.362091 0.000702
0.837463 0.362823 0.000702
0.866821 0.363464 0.000671
0.896179 0.364136 0.000641
0.925629 0.364777 0.000946
0.955048 0.365387 0.000916
0.020294 0.268066 0.023285
0.065277 0.276489 0.023407
0.103424 0.283478 0.023407
0.136353 0.290558 0.023407
0.168762 0.298950 0.024109
0.201050 0.307983 0.025055
0.231934 0.316498 0.025909
0.261688 0.324463 0.026428
0.290588 0.331451 0.027161
0.319031 0.337646 0.026459
0.346619 0.342499 0.024567
0.373688 0.346893 0.022186
0.399323 0.352203 0.018951
0.423401 0.359497 0.014465
0.447510 0.367065 0.010559
0.472290 0.372925 0.007446
0.498444 0.377411 0.005127
0.525818 0.380951 0.003510
0.553955 0.383636 0.002197
0.582458 0.385590 0.001556
0.611084 0.387024 0.001068
0.639587 0.388062 0.000793
0.667969 0.388885 0.000793
0.696259 0.389648 0.000458
0.724701 0.390411 0.000427
0.753387 0.391144 0.000427
0.782349 0.391876 0.000397
0.811493 0.392578 0.000397
0.840729 0.393250 0.000671
0.870056 0.393921 0.000641
0.899384 0.394531 0.000641
0.928894 0.395203 0.000854
0.958405 0.395874 0.000885
0.034454 0.297699 0.026154
0.084991 0.305786 0.025330
0.121002 0.312653 0.025330
0.152191 0.319916 0.025391
0.183075 0.328278 0.026031
0.214722 0.337341 0.026978
0.245178 0.345734 0.027954
0.274628 0.353729 0.028534
0.303284 0.360962 0.029083
0.330811 0.366974 0.028564
0.358032 0.372101 0.027466
0.384705 0.376160 0.025513
0.410461 0.379913 0.023132
0.434570 0.384583 0.019836
0.456879 0.391205 0.015137
0.479431 0.398163 0.011108
0.503693 0.403870 0.007629
0.529633 0.408386 0.005219
0.556854 0.411987 0.003418
0.584808 0.414703 0.002136
0.613464 0.416748 0.001495
0.642273 0.418396 0.000946
0.670837 0.419434 0.000427
0.699127 0.420227 0.000366
0.727631 0.420929 0.000366
0.756348 0.421692 0.000336
0.785309 0.422363 0.000336
0.814453 0.423035 0.000336
0.843719 0.423706 0.000336
0.873138 0.424408 0.000610
0.902527 0.425110 0.000610
0.932098 0.425781 0.000580
0.961670 0.426453 0.000824
0.060425 0.327637 0.028839
0.103760 0.334900 0.027252
0.138062 0.341858 0.027466
0.168549 0.349182 0.027771
0.198730 0.357300 0.028046
0.228851 0.365753 0.028900
0.258392 0.373993 0.029877
0.287415 0.382019 0.030823
0.315704 0.389343 0.031189
0.343079 0.395721 0.031189
0.369659 0.400879 0.030334
0.395844 0.405090 0.028412
0.421509 0.408600 0.026489
0.446106 0.411774 0.024078
0.468781 0.415924 0.020874
0.489258 0.421997 0.016113
0.511017 0.428680 0.011627
0.534821 0.434296 0.007996
0.560516 0.438904 0.005310
0.587433 0.442535 0.003357
0.615479 0.445404 0.002045
0.644135 0.447632 0.001068
0.672913 0.449371 0.000549
0.701599 0.450562 0.000336
0.730225 0.451416 0.000244
0.759003 0.452148 0.000336
0.787994 0.452850 0.000336
0.817139 0.453522 0.000305
0.846466 0.454254 0.000305
0.875946 0.454956 0.000305
0.905457 0.455658 0.000580
0.935150 0.456390 0.000549
0.964813 0.457062 0.000549
0.086243 0.356964 0.030762
0.124084 0.363983 0.029388
0.155792 0.370880 0.029510
0.185577 0.378296 0.029968
0.215118 0.386322 0.029968
0.244202 0.394409 0.030823
0.272644 0.402344 0.031799
0.300812 0.410156 0.032745
0.328644 0.417603 0.033508
0.355560 0.424164 0.033508
0.381683 0.429382 0.033356
0.407318 0.433685 0.031677
0.432587 0.437256 0.029755
0.457092 0.440125 0.027832
0.480408 0.442749 0.025818
0.501251 0.446472 0.021912
0.520996 0.452271 0.017029
0.542206 0.458801 0.011993
0.565674 0.464508 0.008331
0.590973 0.469177 0.005249
0.617889 0.472961 0.003296
0.645905 0.476013 0.001984
0.674500 0.478394 0.001007
0.703308 0.480286 0.000519
0.732422 0.481781 0.000092
0.761475 0.482788 0.000000
0.790558 0.483490 0.000153
0.819763 0.484222 0.000305
0.849152 0.484955 0.000305
0.878693 0.485718 0.000275
0.908264 0.486420 0.000427
0.938049 0.487122 0.000549
0.967834 0.487823 0.000519
0.109985 0.386383 0.032684
0.145325 0.393738 0.031708
0.175507 0.400604 0.031433
0.203430 0.407715 0.031891
0.231812 0.415405 0.032471
0.260254 0.423309 0.033234
0.287781 0.430969 0.033966
0.314941 0.438538 0.035248
0.341919 0.445770 0.036194
0.368347 0.452301 0.036407
0.393768 0.457642 0.036255
0.418823 0.462067 0.035278
0.443512 0.465668 0.033600
0.467804 0.468658 0.031677
0.491241 0.471008 0.029755
0.513153 0.473083 0.027069
0.533234 0.476624 0.022736
0.552399 0.482300 0.017395
0.573090 0.488739 0.012543
0.596130 0.494446 0.008575
0.621307 0.499268 0.005371
0.648102 0.503296 0.003265
0.675995 0.506561 0.001923
0.704590 0.509094 0.000977
0.733856 0.511292 0.000244
0.763428 0.513062 0.000000
0.793030 0.514374 0.000000
0.822296 0.515106 0.000061
0.851746 0.515839 0.000275
0.881287 0.516571 0.000275
0.910919 0.517303 0.000275
0.940796 0.518005 0.000336
0.970764 0.518677 0.000488
0.133026 0.416656 0.034607
0.166992 0.423950 0.033081
0.196045 0.430756 0.033356
0.222412 0.437378 0.034332
0.248962 0.444489 0.034546
0.276581 0.452179 0.035461
0.302979 0.459503 0.036377
0.329346 0.466675 0.037811
0.355377 0.473724 0.039093
0.380707 0.479919 0.039276
0.405518 0.485321 0.039886
0.430054 0.490021 0.038910
0.454163 0.493896 0.037445
0.477814 0.496887 0.035553
0.501129 0.499176 0.033600
0.523468 0.500854 0.031464
0.544830 0.502777 0.028351
0.564453 0.506317 0.023499
0.583252 0.511932 0.018158
0.603668 0.518402 0.012634
0.626465 0.524292 0.008514
0.651428 0.529358 0.005432
0.678040 0.533600 0.003235
0.705963 0.537140 0.001862
0.735046 0.540070 0.000854
0.764679 0.542511 0.000153
0.794556 0.544434 0.000000
0.824524 0.545959 0.000000
0.854187 0.546875 0.000061
0.883759 0.547577 0.000275
0.913452 0.548279 0.000244
0.943481 0.548981 0.000244
0.973602 0.549652 0.000244
0.155640 0.447052 0.037567
0.187378 0.453949 0.035858
0.215424 0.460358 0.036194
0.240753 0.466675 0.037170
0.265930 0.473297 0.038116
0.291901 0.480408 0.038422
0.317383 0.487396 0.039490
0.342804 0.494324 0.040985
0.367981 0.500824 0.041931
0.392548 0.506836 0.042847
0.416595 0.512268 0.042969
0.440521 0.517029 0.042664
0.464111 0.521149 0.041260
0.487305 0.524384 0.039368
0.510132 0.526825 0.037445
0.532440 0.528564 0.035431
0.554413 0.529907 0.032837
0.575500 0.531708 0.029663
0.594818 0.535248 0.024872
0.613525 0.541016 0.018768
0.633820 0.547791 0.013031
0.656464 0.553955 0.008514
0.681274 0.559326 0.005463
0.707977 0.563904 0.003174
0.736298 0.567810 0.001770
0.765594 0.570984 0.000763
0.795471 0.573608 0.000153
0.825592 0.575714 0.000000
0.855927 0.577423 0.000000
0.886078 0.578613 0.000000
0.915863 0.579346 0.000092
0.945953 0.580017 0.000214
0.976166 0.580658 0.000214
0.176910 0.477142 0.041626
0.205872 0.483185 0.039154
0.232727 0.489227 0.039368
0.257233 0.495209 0.040314
0.281586 0.501434 0.041260
0.306305 0.507996 0.042206
0.331085 0.514618 0.043091
0.355713 0.521210 0.044006
0.380096 0.527374 0.044891
0.404083 0.533203 0.045776
0.427551 0.538574 0.046265
0.450806 0.543457 0.046234
0.474030 0.547729 0.044922
0.496857 0.551239 0.043396
0.519226 0.553864 0.041504
0.541077 0.555695 0.039368
0.563080 0.557159 0.037079
0.584808 0.558441 0.034180
0.605652 0.560303 0.030548
0.624908 0.564148 0.025574
0.643463 0.570129 0.018921
0.663544 0.577026 0.013275
0.686035 0.583435 0.008881
0.710876 0.589111 0.005463
0.737946 0.594177 0.003113
0.766510 0.598358 0.001434
0.796082 0.601807 0.000549
0.826202 0.604675 0.000153
0.856598 0.606934 0.000000
0.887268 0.608826 0.000000
0.917908 0.610199 0.000000
0.948334 0.611084 0.000092
0.978546 0.611725 0.000122
0.196228 0.506348 0.046143
0.223206 0.511688 0.043518
0.248749 0.517334 0.043549
0.272858 0.523102 0.044006
0.296539 0.528992 0.044891
0.320618 0.535248 0.045715
0.344635 0.541565 0.046234
0.368530 0.547638 0.047089
0.392242 0.553589 0.047943
0.415741 0.559296 0.048798
0.438721 0.564667 0.048828
0.461487 0.569580 0.048828
0.484131 0.573944 0.048370
0.506561 0.577637 0.047241
0.528473 0.580475 0.045624
0.550018 0.582581 0.043335
0.571686 0.584198 0.041290
0.593353 0.585449 0.038483
0.614929 0.586517 0.035583
0.635529 0.588470 0.031433
0.654327 0.592499 0.025879
0.672577 0.598633 0.019196
0.692627 0.605804 0.013458
0.715271 0.612518 0.008820
0.740540 0.618774 0.005402
0.767822 0.624176 0.003052
0.796631 0.628693 0.001373
0.826416 0.632416 0.000549
0.856781 0.635498 0.000000
0.887604 0.638031 0.000000
0.918732 0.640106 0.000000
0.949921 0.641663 0.000000
0.980713 0.642792 0.000000
0.214386 0.535095 0.050385
0.240173 0.540039 0.047058
0.264771 0.545319 0.047363
0.288116 0.550690 0.047760
0.311432 0.556366 0.047821
0.334900 0.562317 0.048645
0.358124 0.568237 0.049347
0.381348 0.574097 0.049835
0.404541 0.579803 0.050476
0.427490 0.585327 0.051270
0.450043 0.590607 0.051422
0.472443 0.595581 0.051575
0.494507 0.599976 0.051300
0.516266 0.603668 0.050629
0.537811 0.606598 0.049072
0.558929 0.608856 0.047363
0.580231 0.610565 0.045135
0.601532 0.611908 0.042572
0.622986 0.612915 0.039764
0.644440 0.613953 0.036591
0.664490 0.615906 0.032288
0.682831 0.620148 0.026215
0.701080 0.626587 0.019623
0.721283 0.634094 0.013367
0.744385 0.641418 0.009064
0.769867 0.648010 0.005371
0.797394 0.653870 0.003021
0.826416 0.658722 0.001343
0.856628 0.662781 0.000214
0.887512 0.666229 0.000000
0.918854 0.669006 0.000000
0.950409 0.671295 0.000000
0.981750 0.673065 0.000000
0.231873 0.563477 0.054504
0.256714 0.568115 0.050354
0.280914 0.573090 0.050140
0.303711 0.578156 0.050507
0.326385 0.583557 0.051086
0.348724 0.589050 0.051819
0.371429 0.594666 0.052032
0.393982 0.600189 0.052826
0.416504 0.605682 0.053131
0.438934 0.611084 0.053741
0.461212 0.616333 0.054504
0.483276 0.621216 0.055023
0.504791 0.625519 0.054657
0.525848 0.629059 0.053864
0.546661 0.631958 0.053040
0.567566 0.634338 0.051422
0.588440 0.636169 0.049438
0.609436 0.637634 0.046875
0.630432 0.638550 0.044220
0.651794 0.639374 0.041382
0.672668 0.640198 0.037506
0.692108 0.642242 0.032715
0.710388 0.646790 0.026672
0.728912 0.653778 0.019653
0.749634 0.661865 0.013733
0.773071 0.669739 0.008667
0.798920 0.676880 0.005280
0.826752 0.683197 0.002594
0.856384 0.688568 0.000977
0.887207 0.693054 0.000214
0.918610 0.696777 0.000000
0.950317 0.699890 0.000000
0.981873 0.702454 0.000000
0.248230 0.591461 0.063538
0.272034 0.595459 0.057159
0.295624 0.600159 0.057007
0.318054 0.605103 0.057373
0.340363 0.610260 0.057770
0.361969 0.615265 0.057556
0.383759 0.620331 0.057587
0.405914 0.625641 0.058167
0.427948 0.630981 0.058472
0.449829 0.636108 0.058502
0.471283 0.641052 0.058594
0.492676 0.645813 0.059113
0.513641 0.649963 0.059113
0.534149 0.653442 0.058441
0.554474 0.656372 0.057648
0.574921 0.658813 0.055969
0.595551 0.660706 0.053650
0.616211 0.662140 0.051056
0.636993 0.663177 0.048096
0.657867 0.663940 0.045197
0.678833 0.664551 0.042328
0.699371 0.665344 0.038483
0.718842 0.667816 0.033356
0.737488 0.673004 0.026672
0.756622 0.680573 0.019531
0.777863 0.689301 0.013489
0.801697 0.697754 0.008606
0.827972 0.705505 0.004822
0.856537 0.712402 0.002472
0.886902 0.718323 0.000885
0.918182 0.723236 0.000214
0.949799 0.727356 0.000000
0.981293 0.730804 0.000000
0.262482 0.618225 0.076599
0.285614 0.621887 0.067261
0.308838 0.626282 0.066254
0.330780 0.630920 0.066681
0.352356 0.635681 0.065918
0.373749 0.640320 0.064514
0.394958 0.645081 0.064301
0.416229 0.649994 0.064331
0.437744 0.654999 0.064087
0.459137 0.659882 0.063538
0.480042 0.664551 0.063629
0.500671 0.669006 0.063873
0.521057 0.673035 0.063812
0.541168 0.676544 0.063110
0.561157 0.679535 0.062042
0.581177 0.682068 0.060608
0.601562 0.684174 0.058228
0.622070 0.685791 0.055511
0.642761 0.687042 0.052673
0.663422 0.687958 0.049469
0.684265 0.688599 0.046051
0.705261 0.689148 0.042877
0.725922 0.690155 0.038757
0.745605 0.693054 0.033234
0.764771 0.698853 0.026520
0.784424 0.707062 0.019379
0.806244 0.716492 0.013062
0.830627 0.725647 0.008057
0.857849 0.734131 0.004730
0.887207 0.741669 0.002167
0.917908 0.748077 0.000641
0.949158 0.753448 0.000061
0.980316 0.757935 0.000000
0.273682 0.643158 0.090698
0.296509 0.646667 0.078949
0.319550 0.650909 0.077393
0.341248 0.655182 0.076782
0.362061 0.659424 0.074615
0.383453 0.663849 0.071747
0.404297 0.668427 0.070953
0.424927 0.673035 0.070404
0.445679 0.677673 0.069458
0.466583 0.682251 0.068298
0.487305 0.686768 0.067902
0.507507 0.691040 0.068085
0.527313 0.694946 0.067566
0.547119 0.698517 0.067078
0.567017 0.701721 0.066193
0.586884 0.704468 0.064819
0.606995 0.706726 0.063171
0.627228 0.708649 0.060425
0.647766 0.710144 0.057037
0.668427 0.711212 0.053955
0.689209 0.711975 0.050507
0.710327 0.712616 0.046936
0.731567 0.713226 0.042877
