assets/luts/IWLTBAP_K64.cube
# Copyright: (C) Copyright 2010-2019 by IWLTBAP SAS
# Cannot be resold, shared or otherwise redistributed
# Website: https://luts.iwltbap.com
TITLE "IWLTBAP Kodachrome 64 (Rec.709, sRGB, DCI-P3)"
LUT_3D_SIZE 5
0.000000 0.000000 0.000000
0.183197 0.000000 0.002136
0.409302 0.000000 0.000580
0.651947 0.000000 0.000488
0.903076 0.000397 0.002655
0.000000 0.135620 0.015564
0.242554 0.190948 0.011780
0.475830 0.227814 0.002594
0.705017 0.237793 0.001282
0.940643 0.243286 0.001007
0.086243 0.356964 0.030762
0.328644 0.417603 0.033508
0.520996 0.452271 0.017029
0.732422 0.481781 0.000092
0.967834 0.487823 0.000519
0.248230 0.591461 0.063538
0.427948 0.630981 0.058472
0.595551 0.660706 0.053650
0.756622 0.680573 0.019531
0.981293 0.730804 0.000000
0.284637 0.766876 0.171234
0.469147 0.797089 0.098206
0.629242 0.824554 0.076172
0.798431 0.840576 0.054596
0.975830 0.883789 0.015350
0.002960 0.002960 0.107452
0.151611 0.003937 0.161224
0.385864 0.000000 0.206573
0.632050 0.000000 0.227936
0.886475 0.000397 0.238983
0.000000 0.106659 0.151764
0.239410 0.212860 0.249420
0.484436 0.233704 0.259155
0.709045 0.237854 0.256500
0.940216 0.240082 0.253418
0.002350 0.320953 0.195496
0.273804 0.443237 0.242279
0.526611 0.482910 0.253510
0.736450 0.488037 0.253479
0.971130 0.491455 0.250092
0.036469 0.533936 0.225067
0.348114 0.627533 0.228271
0.571014 0.682709 0.232056
0.755249 0.700653 0.185211
0.983643 0.735199 0.246002
0.153717 0.768066 0.345703
0.413696 0.800507 0.336395
0.601593 0.838257 0.320740
0.779541 0.866974 0.260559
0.975189 0.906433 0.177368
0.009064 0.005524 0.234192
0.066559 0.004547 0.283569
0.297943 0.005524 0.317841
0.558044 0.000305 0.406738
0.841339 0.000458 0.460236
0.000580 0.094574 0.284546
0.087891 0.152313 0.372192
0.440460 0.212585 0.471313
0.667633 0.214874 0.492279
0.909027 0.223999 0.500397
0.000397 0.270935 0.332336
0.091766 0.383423 0.437103
0.513000 0.526276 0.558868
0.726959 0.497711 0.523254
0.961151 0.495636 0.514801
0.026031 0.506409 0.437439
0.241180 0.624725 0.500031
0.552643 0.705231 0.558472
0.741028 0.723206 0.547302
0.981476 0.737000 0.510071
0.073395 0.732330 0.515106
0.325745 0.802338 0.543030
0.569672 0.850494 0.565369
0.759186 0.888275 0.573090
0.970215 0.928467 0.545502
0.015961 0.003937 0.330536
0.045258 0.003937 0.370270
0.244324 0.005524 0.410614
0.434448 0.003754 0.457642
0.725342 0.000610 0.596680
0.000000 0.103546 0.394073
0.050995 0.142059 0.447693
0.339691 0.216034 0.567474
0.575928 0.214264 0.612518
0.807190 0.192841 0.670776
0.002747 0.253571 0.430267
0.063934 0.311401 0.515411
0.420715 0.470123 0.652618
0.679169 0.543915 0.722778
0.911560 0.510071 0.748749
0.013794 0.430420 0.500214
0.082062 0.500366 0.561646
0.464478 0.673645 0.697357
0.707886 0.745911 0.785339
0.957184 0.735840 0.761993
0.062531 0.674500 0.620514
0.199890 0.760681 0.676758
0.523193 0.832092 0.724640
0.748962 0.894562 0.782349
0.955536 0.932343 0.786804
0.022095 0.009460 0.425720
0.047394 0.016174 0.463867
0.206970 0.028778 0.553375
0.410889 0.005707 0.558777
0.606171 0.032349 0.638733
0.000000 0.119598 0.503204
0.053619 0.163391 0.535370
0.226593 0.234741 0.648621
0.527985 0.268860 0.713318
0.698578 0.248352 0.743500
0.002350 0.262604 0.540833
0.054565 0.295776 0.590759
0.282257 0.432129 0.727051
0.594177 0.511719 0.809204
0.803345 0.554230 0.859833
0.016754 0.405945 0.571045
0.070312 0.453644 0.627197
0.377319 0.593384 0.770447
0.590759 0.662048 0.881012
0.855042 0.749390 0.918427
0.046906 0.597778 0.661438
0.112000 0.659393 0.711090
0.355347 0.773743 0.808929
0.535736 0.836212 0.872131
0.898407 0.925507 0.967896
