assets/luts/IWLTBAP_K99.cube
# Copyright: (C) Copyright 2010-2019 by IWLTBAP SAS
# Cannot be resold, shared or otherwise redistributed
# Website: https://luts.iwltbap.com
TITLE "IWLTBAP Kodachrome 99 Experimental (Rec.709, sRGB, DCI-P3)"
LUT_3D_SIZE 9
0.000977 0.000427 0.000458
0.078278 0.012787 0.003662
0.175201 0.036621 0.000305
0.296844 0.056580 0.000671
0.431946 0.077423 0.001068
0.584839 0.102417 0.000977
0.719330 0.137634 0.000122
0.847260 0.155334 0.000000
0.954468 0.170776 0.000031
0.064911 0.075562 0.071594
0.094147 0.090973 0.076660
0.210846 0.102936 0.010834
0.329803 0.110352 0.000580
0.462097 0.126740 0.000793
0.601044 0.148041 0.000397
0.728729 0.173004 0.000000
0.850739 0.195862 0.000000
0.959351 0.211090 0.000000
0.147186 0.169952 0.160583
0.163727 0.178406 0.166382
0.210541 0.192596 0.139191
0.337128 0.223816 0.092072
0.495209 0.223877 0.002716
0.625244 0.232452 0.000000
0.747559 0.244354 0.000000
0.865906 0.260193 0.000000
0.969727 0.278137 0.000031
0.316772 0.357819 0.340088
0.326447 0.358246 0.338593
0.333557 0.346069 0.317719
0.375336 0.338745 0.236145
0.472687 0.362854 0.207733
0.630463 0.358429 0.066437
0.765320 0.353180 0.000092
0.883392 0.361908 0.000000
0.990479 0.372650 0.000000
0.463379 0.514038 0.490997
0.473724 0.514740 0.488342
0.484985 0.509949 0.476654
0.494263 0.496765 0.447052
0.531830 0.483490 0.348541
0.602234 0.496307 0.297394
0.741821 0.496796 0.208313
0.881989 0.489929 0.084534
1.000000 0.487946 0.009949
0.576508 0.631653 0.606049
0.589813 0.636383 0.606934
0.606140 0.640442 0.605225
0.621399 0.641235 0.597900
0.640381 0.634644 0.565094
0.677216 0.622986 0.467926
0.752014 0.627319 0.314636
0.837769 0.634125 0.356232
0.977539 0.625916 0.225677
0.671600 0.732086 0.704987
0.683807 0.737305 0.707611
0.698975 0.743042 0.708221
0.716400 0.749207 0.707184
0.734924 0.754883 0.703094
0.764404 0.757507 0.673981
0.810455 0.755280 0.586182
0.883118 0.756531 0.380524
0.929993 0.764130 0.478363
0.745270 0.815460 0.785126
0.755585 0.820404 0.790314
0.770416 0.826965 0.792297
0.788483 0.835388 0.794342
0.809204 0.845154 0.795166
0.833038 0.856201 0.794067
0.871552 0.867126 0.769989
0.928223 0.873077 0.688171
0.994965 0.875946 0.539062
0.806244 0.889404 0.854248
0.816010 0.894196 0.859467
0.829437 0.900940 0.863892
0.846985 0.909760 0.866791
0.868347 0.921082 0.869965
0.893829 0.934998 0.872864
0.922302 0.949188 0.872101
0.970123 0.959930 0.834808
1.000000 0.970459 0.826111
0.012054 0.006927 0.014923
0.045685 0.028717 0.037445
0.101288 0.073944 0.081940
0.260529 0.087738 0.087189
0.441010 0.059753 0.063141
0.603180 0.058655 0.038269
0.748535 0.062622 0.017670
0.872162 0.098572 0.020050
0.977509 0.121063 0.023163
0.018494 0.088806 0.099396
0.090881 0.094910 0.096466
0.203949 0.107574 0.092560
0.332581 0.112579 0.078003
0.473419 0.113861 0.059692
0.621887 0.108093 0.034363
0.757874 0.117767 0.016937
0.877716 0.147888 0.019836
0.981384 0.169220 0.023041
0.151123 0.172852 0.165863
0.175903 0.192749 0.186005
0.213745 0.202789 0.171539
0.360352 0.221130 0.111877
0.507141 0.216248 0.066803
0.646484 0.209229 0.026642
0.773193 0.211060 0.015137
0.887939 0.229980 0.018982
0.992615 0.243713 0.022278
0.289642 0.330536 0.314880
0.337158 0.375824 0.359406
0.348907 0.366638 0.345154
0.373871 0.344299 0.264618
0.485382 0.360474 0.212646
0.636200 0.354126 0.114777
0.770416 0.348907 0.067993
0.902374 0.344940 0.019348
1.000000 0.358948 0.025757
0.470367 0.524963 0.502686
0.480865 0.528442 0.507111
0.493866 0.523987 0.497223
0.500244 0.508911 0.471558
0.529114 0.487427 0.374481
0.599854 0.497528 0.330353
0.749695 0.493774 0.218781
0.885986 0.487885 0.136841
1.000000 0.484772 0.088318
0.579956 0.637268 0.612976
0.591797 0.641968 0.618134
0.609650 0.647064 0.618256
0.626678 0.648865 0.612732
0.641327 0.642120 0.587372
0.674133 0.626373 0.492462
0.746674 0.628906 0.361572
0.843536 0.632263 0.362427
0.982849 0.623901 0.241516
0.674927 0.735168 0.709808
0.685669 0.740326 0.715637
0.700592 0.746155 0.717743
0.718170 0.752533 0.717621
0.737000 0.758667 0.714569
0.762238 0.761688 0.693573
0.806641 0.758087 0.609711
0.881866 0.757507 0.398560
0.930450 0.763824 0.493286
0.748077 0.816711 0.788666
0.758240 0.821716 0.794250
0.771271 0.828308 0.800079
0.789185 0.836975 0.803040
0.809814 0.846924 0.804718
0.833435 0.858154 0.804443
0.867615 0.869659 0.788605
0.923767 0.875092 0.709595
0.992065 0.876984 0.558044
0.808868 0.890167 0.857452
0.818634 0.894958 0.862732
0.830872 0.901733 0.869965
0.847504 0.910675 0.874817
0.868439 0.921967 0.878693
0.893555 0.936005 0.882263
0.921509 0.949982 0.881714
0.964966 0.961212 0.852325
1.000000 0.972595 0.829834
0.045044 0.023987 0.045715
0.073914 0.044678 0.065643
0.111267 0.074829 0.100769
0.182159 0.120728 0.151825
0.328156 0.162994 0.194641
0.544861 0.152222 0.173889
0.722168 0.116241 0.150299
0.861847 0.116211 0.138275
0.976440 0.124420 0.137543
0.072815 0.093109 0.129333
0.108856 0.104858 0.128784
0.151855 0.121552 0.146393
0.226593 0.162781 0.185944
0.394409 0.181335 0.193115
0.579987 0.163788 0.167877
0.732727 0.152252 0.150146
0.867584 0.158020 0.139618
0.981415 0.166809 0.137238
0.061676 0.211426 0.233551
0.107635 0.231689 0.252075
0.226624 0.230286 0.233215
0.370148 0.227386 0.205933
0.507294 0.223053 0.181519
0.632935 0.226013 0.165680
0.759155 0.230438 0.153351
0.883636 0.236298 0.147003
0.990417 0.242950 0.142181
0.316742 0.353882 0.343262
0.362823 0.395111 0.384705
0.384796 0.404358 0.395630
0.401825 0.376129 0.320770
0.518646 0.359253 0.239441
0.653717 0.347076 0.188263
0.784058 0.341858 0.162689
0.904480 0.346436 0.153046
1.000000 0.351654 0.146423
0.468536 0.519531 0.502014
0.495819 0.542267 0.525024
0.518036 0.552521 0.536987
0.526550 0.539093 0.515961
0.544678 0.510468 0.425842
0.616058 0.500244 0.359985
0.766266 0.488464 0.248932
0.895721 0.482758 0.212280
1.000000 0.481598 0.191620
0.579468 0.639709 0.617401
0.591095 0.646423 0.624451
0.615814 0.659119 0.638824
0.638977 0.664886 0.638672
0.652161 0.659607 0.621460
0.677338 0.638306 0.532196
0.737366 0.633392 0.438934
0.857330 0.627625 0.373749
0.993683 0.619476 0.279724
0.673981 0.736725 0.712616
0.686401 0.743500 0.720123
0.702148 0.751068 0.728729
0.720947 0.758148 0.731079
0.740875 0.764984 0.729584
0.762146 0.769135 0.717621
0.802917 0.762451 0.637756
0.883087 0.758087 0.415192
0.933716 0.762268 0.519775
0.750000 0.817780 0.792023
0.760162 0.822937 0.797760
0.772980 0.829803 0.805176
0.789429 0.838593 0.812225
0.810333 0.849030 0.815399
0.834167 0.860779 0.816528
0.863281 0.872986 0.810028
0.918457 0.877930 0.735809
0.987549 0.878510 0.586212
0.811249 0.890381 0.860443
0.820892 0.895264 0.865845
0.832947 0.901947 0.872955
0.847839 0.910919 0.882019
0.868103 0.922394 0.887665
0.892914 0.936615 0.892365
0.920563 0.950928 0.892944
0.958466 0.962769 0.873535
1.000000 0.975006 0.848267
0.085602 0.057465 0.085938
0.118378 0.086792 0.120819
0.144806 0.108215 0.136139
0.201447 0.118561 0.192688
0.297974 0.161957 0.245789
0.408081 0.218872 0.301239
0.595306 0.235748 0.312225
0.779938 0.226074 0.292297
0.927246 0.205902 0.276581
0.116455 0.115234 0.154877
0.147339 0.135040 0.183228
0.187592 0.158661 0.204041
0.243927 0.157776 0.238617
0.327301 0.194397 0.268433
0.445923 0.243835 0.307373
0.622803 0.259369 0.309692
0.798889 0.249939 0.288361
0.937042 0.237335 0.278168
0.118530 0.249481 0.330261
0.151154 0.270660 0.372589
0.214111 0.292755 0.403046
0.336853 0.257721 0.336060
0.400818 0.270447 0.326233
0.521057 0.297150 0.337372
0.687653 0.298828 0.314728
0.843719 0.284149 0.287170
0.963531 0.279327 0.279541
0.187958 0.404114 0.429901
0.208466 0.411560 0.436646
0.310425 0.445831 0.466705
0.421875 0.418579 0.419556
0.529327 0.378387 0.355804
0.650604 0.364838 0.322021
0.769897 0.362488 0.300873
0.883698 0.366516 0.289490
0.985229 0.377319 0.289917
0.471039 0.524750 0.511810
0.496674 0.541718 0.530182
0.529694 0.557556 0.548645
0.554962 0.568665 0.560638
0.574738 0.542389 0.478821
0.657166 0.499207 0.384003
0.787170 0.483643 0.326355
0.910889 0.476349 0.299866
1.000000 0.484711 0.303772
0.592957 0.645660 0.630157
0.606506 0.652985 0.638245
0.634094 0.671936 0.658051
0.658813 0.685272 0.672485
0.672729 0.683044 0.662781
0.696960 0.665436 0.588379
0.738251 0.639984 0.514313
0.881409 0.621307 0.396057
1.000000 0.614227 0.357941
0.683258 0.740723 0.721954
0.692627 0.746185 0.727814
0.714386 0.760223 0.742676
0.731903 0.769012 0.752625
0.750885 0.776276 0.755127
0.771912 0.783508 0.752045
0.806763 0.778046 0.690460
0.867737 0.762482 0.538727
0.955200 0.756134 0.528534
0.752716 0.818512 0.796051
0.761444 0.823242 0.801086
0.776611 0.832153 0.810608
0.792969 0.841309 0.820557
0.812531 0.852081 0.829254
0.836456 0.864716 0.833252
0.863556 0.878174 0.833405
0.912445 0.883514 0.775543
0.981812 0.881012 0.624146
0.812653 0.889404 0.862579
0.822205 0.894531 0.868103
0.834442 0.901489 0.875519
0.849335 0.910522 0.884857
0.867584 0.922180 0.895905
0.891968 0.936615 0.902405
0.919922 0.952118 0.905670
0.951813 0.964691 0.897064
1.000000 0.977173 0.869354
0.130341 0.100464 0.147949
0.158539 0.121521 0.178650
0.198425 0.152466 0.223236
0.224335 0.175415 0.209717
0.323608 0.149231 0.317108
0.422455 0.180634 0.351868
0.517700 0.234863 0.394226
0.643799 0.277802 0.437286
0.787659 0.297577 0.455994
0.160858 0.156525 0.226868
0.187256 0.174713 0.253754
0.228516 0.209473 0.307312
0.270477 0.223907 0.266449
0.349213 0.178497 0.345245
0.442017 0.210938 0.367188
0.532990 0.269043 0.404968
0.663116 0.311554 0.442169
0.791351 0.336517 0.464325
0.156830 0.287903 0.428986
0.185211 0.300812 0.445740
0.222015 0.339813 0.504913
0.372986 0.342468 0.405273
0.455109 0.276520 0.454010
0.517426 0.282074 0.425812
0.584991 0.325256 0.443024
0.701630 0.358185 0.458710
0.816193 0.389435 0.472839
0.010193 0.460419 0.563141
0.067688 0.468781 0.575836
0.286682 0.493225 0.600677
0.432526 0.479034 0.574219
0.530762 0.436951 0.521637
0.584442 0.428040 0.493347
0.658966 0.443359 0.493103
0.768646 0.447815 0.481598
0.893372 0.445648 0.458252
0.334534 0.574738 0.600250
0.359100 0.579559 0.603790
0.419373 0.595978 0.616638
0.505646 0.593506 0.608887
0.588318 0.579468 0.577545
0.668365 0.532288 0.510956
0.778625 0.512268 0.471466
0.886292 0.503082 0.445648
0.983429 0.504395 0.434143
0.590759 0.655701 0.641571
0.602509 0.659973 0.646851
0.632202 0.672150 0.662109
0.663391 0.685516 0.678497
0.687561 0.697998 0.691467
0.716553 0.688416 0.636169
0.783386 0.636292 0.527985
0.905090 0.617218 0.468933
1.000000 0.613434 0.451965
0.684540 0.745972 0.730194
0.696533 0.750275 0.735718
0.719849 0.760681 0.747986
0.740295 0.772888 0.761200
0.760864 0.784607 0.774078
0.782135 0.793701 0.776855
0.812592 0.790985 0.730896
0.849915 0.767792 0.648743
0.986328 0.749207 0.541534
0.758392 0.822083 0.803589
0.769592 0.826202 0.808777
0.784241 0.834869 0.818054
0.801025 0.844971 0.828857
0.819672 0.856110 0.840820
0.841064 0.868561 0.850464
0.867279 0.882538 0.853790
0.908325 0.889648 0.815369
0.978882 0.884064 0.664673
0.819794 0.891876 0.869263
0.829468 0.897278 0.875092
0.841125 0.903992 0.882233
0.855835 0.912933 0.891632
0.873474 0.924286 0.903381
0.894501 0.938324 0.916779
0.922089 0.955109 0.924500
0.951294 0.968231 0.922546
0.998444 0.979156 0.886627
0.179565 0.147827 0.230499
0.203064 0.165710 0.256989
0.239105 0.197205 0.306335
0.277283 0.218140 0.310699
0.313385 0.253448 0.290741
0.444153 0.163666 0.437622
0.547485 0.182404 0.464844
0.648682 0.231323 0.501190
0.750153 0.278198 0.543396
0.201904 0.207428 0.319000
0.224426 0.223511 0.343231
0.258820 0.258881 0.400391
0.330261 0.288940 0.401672
0.358459 0.301666 0.337219
0.464905 0.195404 0.460480
0.565643 0.216522 0.479553
0.662231 0.269806 0.511139
0.763733 0.322845 0.555847
0.180450 0.328186 0.502411
0.207886 0.339905 0.519073
0.238678 0.369141 0.565735
0.405792 0.406647 0.554779
0.455231 0.410706 0.438049
0.575867 0.299896 0.571899
0.637115 0.291321 0.538239
0.694824 0.321625 0.535187
0.786591 0.404175 0.581482
0.127197 0.488007 0.663300
0.176819 0.495148 0.674988
0.260864 0.514038 0.696320
0.428711 0.525574 0.698578
0.550323 0.523193 0.544769
0.655640 0.459747 0.644348
0.711243 0.445282 0.604584
0.753021 0.460449 0.593781
0.807861 0.503265 0.613098
0.095062 0.622772 0.713562
0.133728 0.628235 0.721252
0.293427 0.639465 0.732483
0.497253 0.629669 0.712067
0.612885 0.623627 0.673187
0.676819 0.609406 0.662231
0.720337 0.583527 0.638885
0.777588 0.580750 0.631348
0.859619 0.585846 0.626862
0.442688 0.700500 0.727081
0.470276 0.703400 0.728210
0.502319 0.708893 0.731720
0.585083 0.715576 0.732269
0.656677 0.718262 0.730072
0.724731 0.714478 0.710938
0.784332 0.670685 0.652588
0.884094 0.646729 0.611481
0.978729 0.638000 0.591339
0.674500 0.757721 0.745697
0.690399 0.760773 0.748291
0.714020 0.767120 0.754974
0.739105 0.775574 0.766510
0.766846 0.786591 0.780518
0.788422 0.798676 0.793640
0.821442 0.800751 0.755524
0.892151 0.762360 0.661194
1.000000 0.746338 0.609680
0.755402 0.828796 0.811188
0.767212 0.832581 0.816376
0.785278 0.839142 0.824860
0.806610 0.847260 0.835114
0.827087 0.858582 0.847717
0.847412 0.871368 0.861359
0.871063 0.885315 0.870636
0.906738 0.894745 0.847809
0.968170 0.888519 0.743744
0.820587 0.898560 0.877808
0.832825 0.902496 0.883087
0.848389 0.908142 0.890259
0.864105 0.916382 0.899445
0.881256 0.927094 0.910828
0.901184 0.940308 0.924530
0.925476 0.957092 0.939667
0.953949 0.971893 0.942993
0.994263 0.983673 0.920380
0.223450 0.203369 0.330811
0.243591 0.218445 0.352783
0.273285 0.248932 0.400299
0.335571 0.290497 0.436218
0.385620 0.320007 0.363190
0.423706 0.299072 0.423584
0.580414 0.181824 0.571808
0.692688 0.194885 0.599884
0.790558 0.227814 0.625885
0.230896 0.262024 0.420532
0.251526 0.274902 0.439423
0.279236 0.304810 0.486969
0.367523 0.353333 0.525818
0.448944 0.390808 0.431549
0.461182 0.344238 0.464386
0.605133 0.222382 0.597534
0.710388 0.237701 0.615387
0.808716 0.289062 0.642761
0.193359 0.372437 0.587067
0.222382 0.382599 0.601685
0.273529 0.407440 0.635071
0.408264 0.449707 0.655060
0.528534 0.482178 0.527740
0.563446 0.457886 0.577911
0.691284 0.320770 0.683258
0.749237 0.298981 0.649200
0.844177 0.395416 0.675720
0.171783 0.513550 0.739288
0.221924 0.519073 0.746368
0.293335 0.532593 0.764282
0.420624 0.553589 0.776459
0.596863 0.571136 0.647278
0.627899 0.570709 0.632996
0.764648 0.483673 0.751556
0.822784 0.463623 0.716156
0.869904 0.498779 0.704376
0.246796 0.639221 0.790253
0.306000 0.642090 0.795319
0.381622 0.649200 0.811401
0.503632 0.654755 0.817169
0.626099 0.658264 0.770386
0.688904 0.666260 0.681488
0.773499 0.625275 0.757660
0.835449 0.594818 0.738373
0.883545 0.602875 0.730591
0.154938 0.741669 0.832733
0.229462 0.744812 0.835388
0.334137 0.749481 0.838287
0.520935 0.750336 0.825928
0.661896 0.743134 0.802368
0.741852 0.740814 0.765991
0.779144 0.733673 0.767120
0.821594 0.709290 0.755890
0.873413 0.708221 0.756134
0.520966 0.798859 0.826385
0.550262 0.800964 0.826416
0.583038 0.804413 0.827606
0.633484 0.809296 0.829010
0.701477 0.813629 0.829468
0.761414 0.815613 0.826904
0.817932 0.812836 0.810608
0.879395 0.789429 0.775574
0.970947 0.775299 0.748016
0.731873 0.844696 0.835663
0.750732 0.846924 0.836578
0.774353 0.850006 0.838226
0.803986 0.856689 0.844910
0.828094 0.864929 0.855896
0.852997 0.874146 0.867981
0.874054 0.885468 0.880585
0.907532 0.898376 0.871185
0.982391 0.888031 0.806549
0.818481 0.907257 0.886597
0.831207 0.911438 0.892365
0.847473 0.917023 0.899963
0.866211 0.923706 0.908752
0.887939 0.932098 0.919342
0.909302 0.943024 0.931732
0.930969 0.957764 0.947052
0.958374 0.975800 0.961517
0.993164 0.989075 0.952606
0.253357 0.259766 0.434998
0.271759 0.271210 0.451080
0.304993 0.299927 0.492279
0.396545 0.358521 0.536255
0.490173 0.423523 0.479858
0.498810 0.416260 0.479065
0.591705 0.334625 0.622131
0.745605 0.234680 0.731018
0.835510 0.242310 0.740295
0.247253 0.317810 0.525665
0.271240 0.328430 0.540222
0.318420 0.357971 0.578308
0.426910 0.416016 0.615021
0.531342 0.472260 0.536591
0.549683 0.477386 0.533966
0.620483 0.384003 0.654144
0.765411 0.284027 0.752014
0.851410 0.303589 0.756805
0.222412 0.416656 0.671356
0.263794 0.424896 0.679626
0.337128 0.446930 0.698090
0.452820 0.488953 0.714874
0.581299 0.535583 0.622559
0.606750 0.552887 0.590210
0.684845 0.485168 0.722839
0.802216 0.354614 0.790863
0.890076 0.410126 0.792908
0.226471 0.538879 0.812622
0.281738 0.544037 0.816742
0.356750 0.555511 0.823059
0.461426 0.575653 0.822235
0.619202 0.603119 0.731171
0.666718 0.629089 0.651001
0.722534 0.593201 0.752838
0.858032 0.506744 0.844849
0.919525 0.515289 0.821472
0.299988 0.654602 0.875336
0.351410 0.657013 0.878571
0.409760 0.662720 0.885254
0.479950 0.671631 0.894684
0.636597 0.680054 0.840698
0.723145 0.697083 0.733612
0.751343 0.690704 0.762360
0.860535 0.636536 0.846008
0.926819 0.623077 0.835022
0.324921 0.751343 0.889557
0.391998 0.752319 0.889465
0.457367 0.755646 0.895325
0.564545 0.760071 0.902557
0.667542 0.759583 0.890350
0.753510 0.760742 0.833130
0.786896 0.765198 0.782196
0.853973 0.741852 0.840576
0.916321 0.726868 0.841125
0.287903 0.835175 0.924377
0.338562 0.837250 0.925049
0.398682 0.840607 0.927460
0.502930 0.843292 0.926422
0.647552 0.838501 0.908417
0.764832 0.829254 0.881531
0.831482 0.827942 0.846527
0.863617 0.827759 0.854645
0.912018 0.820984 0.860779
0.564697 0.883392 0.913574
0.595459 0.885162 0.913116
0.629150 0.887909 0.913330
0.665497 0.891602 0.914734
0.728912 0.896118 0.915619
0.788147 0.899658 0.915527
0.846313 0.901367 0.911804
0.903625 0.901367 0.900574
0.977264 0.901367 0.890137
0.778870 0.927826 0.920349
0.801117 0.928864 0.919525
0.829529 0.932129 0.921051
0.861511 0.936279 0.923553
0.887177 0.943115 0.930817
0.911438 0.951996 0.942139
0.937408 0.962006 0.955078
0.962982 0.976929 0.971436
0.995239 0.994629 0.978943
0.284729 0.319092 0.543976
0.315491 0.331665 0.557434
0.375977 0.363098 0.581543
0.451660 0.406097 0.590240
0.532806 0.463776 0.537781
0.563965 0.494995 0.536682
0.622070 0.462402 0.642548
0.751312 0.366028 0.793915
0.871002 0.296600 0.854126
0.286682 0.376556 0.631622
0.325256 0.387695 0.640472
0.389282 0.413849 0.656677
0.471954 0.452698 0.661224
0.563934 0.502869 0.592926
0.595276 0.535156 0.569214
0.644257 0.511230 0.662781
0.769836 0.416443 0.813904
0.892761 0.367188 0.875977
0.290894 0.459656 0.746338
0.337341 0.467102 0.747833
0.408325 0.487244 0.755219
0.497894 0.518951 0.754181
0.601715 0.556366 0.674957
0.641937 0.591431 0.620422
0.679108 0.578949 0.692993
0.798645 0.502075 0.844696
0.919159 0.455200 0.902679
0.290497 0.563965 0.874725
0.347321 0.568024 0.869873
0.420532 0.578461 0.865448
0.512909 0.596649 0.855072
0.633301 0.619690 0.778870
0.693726 0.651703 0.689209
0.716644 0.653839 0.717896
0.816345 0.599548 0.857941
0.937012 0.554443 0.921265
0.326752 0.667847 0.938324
0.380157 0.669952 0.939636
0.441528 0.674744 0.943542
0.519958 0.683899 0.945190
0.650757 0.692841 0.884430
0.740021 0.711212 0.779297
0.759888 0.724091 0.749176
0.825287 0.695129 0.853882
0.934753 0.658966 0.919769
0.381409 0.761627 0.967438
0.432129 0.763336 0.972351
0.487305 0.766388 0.979797
0.572662 0.768768 0.976501
0.661163 0.770172 0.957153
0.760803 0.770905 0.881531
0.805878 0.781555 0.802429
0.838348 0.776886 0.850403
0.928680 0.753662 0.915375
0.346222 0.843201 0.977295
0.420715 0.843201 0.976868
0.491974 0.843811 0.977173
0.564728 0.844910 0.981537
0.672058 0.840912 0.975067
0.766541 0.836273 0.952728
0.841248 0.838623 0.893463
0.868347 0.847046 0.864990
0.931824 0.838562 0.921326
0.411743 0.911072 0.989227
0.452423 0.912933 0.989410
0.500824 0.915070 0.990479
0.547791 0.918518 0.993042
0.634186 0.920990 0.995239
0.732269 0.919128 0.991425
0.847443 0.910919 0.965759
0.916016 0.912506 0.931152
0.951630 0.918671 0.945404
0.610535 0.964264 0.992432
0.644379 0.966705 0.992035
0.685638 0.968933 0.992004
0.728516 0.972565 0.992737
0.776978 0.976898 0.993683
0.826996 0.981689 0.995453
0.880768 0.986938 0.997375
0.932526 0.994141 0.999359
0.998871 0.999237 0.999207
