assets/luts/Vivid_LUTs_3.cube
LUT_3D_SIZE 16
-0.004427 -0.005195 0.020246
-0.029868 -0.003987 0.016951
0.076234 -0.002556 0.015454
0.194112 0.001394 0.025758
0.310547 0.002280 0.032122
0.431684 0.004182 0.044262
0.550170 0.006117 0.053233
0.663139 0.008910 0.063510
0.784714 0.008378 0.076534
0.883254 0.010330 0.079130
0.902097 0.011040 0.078388
0.911803 0.011822 0.082100
0.922294 0.012378 0.085055
0.934538 0.011293 0.086634
0.945125 0.010467 0.088092
0.958306 0.009535 0.089865
-0.003174 -0.025369 0.015199
-0.026540 -0.025189 0.014310
0.048615 -0.020933 0.018512
0.172922 -0.015060 0.024897
0.293016 -0.009304 0.030796
0.413931 0.003556 0.043131
0.532410 0.006823 0.051827
0.651708 0.010579 0.062650
0.769013 0.011010 0.075189
0.876657 0.012694 0.083175
0.903516 0.012410 0.080570
0.914356 0.012546 0.082260
0.923947 0.013317 0.085361
0.932092 0.013843 0.085794
0.941608 0.013242 0.087071
0.954970 0.012186 0.088906
-0.002282 0.068663 0.028282
-0.018789 0.060847 0.023085
-0.039828 0.036622 0.011293
0.146547 -0.023384 0.023471
0.260727 -0.034626 0.033367
0.384896 -0.027179 0.041875
0.508360 -0.014976 0.049390
0.632570 0.008750 0.062029
0.746950 0.013523 0.073471
0.866053 0.014864 0.081766
0.903489 0.013643 0.085498
0.915043 0.013046 0.084745
0.926589 0.013082 0.085540
0.934271 0.013933 0.086151
0.940826 0.014659 0.086683
0.951766 0.014490 0.087931
0.003882 0.144170 0.051013
-0.008438 0.139452 0.047690
-0.041281 0.128151 0.031641
0.069663 0.116839 0.005567
0.248700 0.092963 0.030016
0.350313 0.044783 0.048907
0.475632 -0.041596 0.055738
0.601078 -0.042049 0.063147
0.721186 -0.021062 0.073910
0.850858 0.018524 0.083297
0.902053 0.021078 0.085061
0.911178 0.021123 0.087183
0.923310 0.020460 0.087430
0.934130 0.018097 0.086859
0.942577 0.016643 0.086920
0.952851 0.016252 0.087667
0.002455 0.224489 0.069601
0.004407 0.221000 0.067351
-0.021019 0.213342 0.063669
-0.068878 0.202103 0.032741
0.152252 0.202422 -0.016347
0.358527 0.184151 0.025451
0.440285 0.139673 0.061523
0.557596 0.107033 0.069985
0.683360 0.034806 0.076192
0.819597 -0.051030 0.084260
0.909147 -0.033289 0.089790
0.916432 0.016815 0.090229
0.924811 0.028119 0.090435
0.932763 0.030807 0.090305
0.941438 0.030563 0.090405
0.952169 0.029850 0.090440
0.004295 0.307171 0.086654
0.007254 0.304465 0.085282
0.009040 0.299528 0.083163
-0.033223 0.287196 0.072807
-0.095627 0.282768 0.019247
0.216748 0.298161 -0.023014
0.465251 0.288518 -0.017303
0.543707 0.228684 0.063354
0.643297 0.196479 0.087938
0.779239 0.156463 0.092422
0.900033 0.080128 0.094829
0.912671 -0.034584 0.095441
0.925123 -0.056879 0.096179
0.934757 -0.059146 0.095659
0.942808 -0.050271 0.095062
0.952249 -0.041167 0.095562
0.007735 0.394248 0.105126
0.009345 0.391097 0.103206
0.009740 0.387228 0.101253
0.013406 0.378135 0.095748
-0.042196 0.366542 0.081669
-0.120508 0.371201 -0.028280
0.290313 0.404083 -0.021253
0.583421 0.404452 -0.025965
0.654220 0.325663 0.057076
0.736199 0.279554 0.104511
0.875182 0.264423 0.108575
0.910554 0.241218 0.105170
0.921244 0.216879 0.104812
0.929996 0.187579 0.103855
0.938642 0.152869 0.101883
0.948521 0.129048 0.101421
0.007749 0.478392 0.118741
0.009659 0.476627 0.118239
0.011304 0.472829 0.117478
0.009830 0.466425 0.116759
0.026942 0.457159 0.109589
-0.054090 0.440654 0.079261
-0.150451 0.462454 -0.033659
0.389712 0.511364 -0.017442
0.693798 0.521923 -0.027304
0.774194 0.437247 0.035872
0.847564 0.371280 0.115988
0.904098 0.354591 0.122824
0.914897 0.342000 0.119506
0.925076 0.325367 0.117767
0.933632 0.304807 0.116034
0.943351 0.292311 0.115180
0.008600 0.565956 0.141347
0.012006 0.562852 0.138182
0.013801 0.558573 0.135738
0.014314 0.553052 0.134534
0.023115 0.546481 0.130148
0.040715 0.533482 0.113116
-0.068750 0.516856 0.057033
-0.165130 0.561076 -0.030788
0.476673 0.622402 -0.012500
0.805582 0.641063 -0.026440
0.905310 0.554032 -0.030997
0.939875 0.480887 0.099345
0.928321 0.450056 0.121019
0.928057 0.427236 0.127834
0.929526 0.404464 0.129953
0.936827 0.392305 0.130444
0.009356 0.658580 0.155861
0.012825 0.654968 0.155326
0.015421 0.649736 0.154261
0.017562 0.642965 0.152784
0.019514 0.635756 0.150736
0.038476 0.629421 0.139596
0.054323 0.612055 0.118798
-0.081670 0.606420 -0.020940
-0.182617 0.668231 -0.027331
0.580467 0.737101 -0.003920
0.920352 0.750071 -0.020977
0.988891 0.656140 -0.033709
0.987338 0.605587 -0.030281
0.982501 0.571262 0.039967
0.972434 0.533057 0.080292
0.970599 0.510977 0.102871
0.009704 0.769330 0.174275
0.012167 0.765619 0.173586
0.014331 0.760915 0.172570
0.016656 0.753831 0.171109
0.017187 0.744275 0.169766
0.030857 0.733118 0.165173
0.052990 0.725708 0.148991
0.066156 0.704173 0.121396
-0.091158 0.718585 -0.048549
-0.217201 0.779890 -0.020198
0.693881 0.836413 0.006992
0.981509 0.826252 0.006325
0.989772 0.758669 -0.012164
0.986833 0.722398 -0.021378
0.988707 0.682237 -0.029576
0.990415 0.657341 -0.033485
0.014113 0.894546 0.208752
0.015656 0.890755 0.207234
0.017106 0.885966 0.205750
0.019489 0.880237 0.203174
0.021447 0.870468 0.199510
0.024874 0.858525 0.195461
0.045075 0.845390 0.181345
0.065902 0.838520 0.161832
0.087240 0.820579 0.089476
-0.112134 0.851855 -0.042243
-0.125222 0.889016 -0.007338
0.775574 0.912003 0.009388
0.988720 0.899450 0.010122
0.990653 0.862364 0.009844
0.987576 0.821317 0.008963
0.988913 0.792992 0.008590
0.014443 0.915303 0.215417
0.016125 0.915262 0.214941
0.017402 0.915024 0.214436
0.019961 0.916117 0.213239
0.022875 0.917690 0.211655
0.024425 0.918332 0.211446
0.036946 0.916995 0.204818
0.059169 0.916736 0.192756
0.077723 0.915008 0.167779
0.105728 0.918044 -0.031075
-0.145087 0.950740 -0.021002
0.327534 0.967232 0.013512
0.831544 0.971931 0.012960
0.935985 0.951799 0.011456
0.980579 0.934370 0.011009
0.992231 0.915111 0.011527
0.013363 0.926614 0.217542
0.016612 0.927881 0.218252
0.017878 0.927391 0.217652
0.020175 0.926060 0.216846
0.023086 0.926404 0.215382
0.024612 0.927389 0.214426
0.032034 0.928484 0.210902
0.053813 0.928520 0.202282
0.071818 0.930710 0.181590
0.103258 0.932748 0.086315
0.113340 0.962474 -0.037253
-0.184965 0.979629 0.013637
0.639387 0.985143 0.014211
0.850544 0.984468 0.016228
0.866598 0.981466 0.015284
0.903537 0.974990 0.013676
0.012554 0.937813 0.219834
0.016009 0.939048 0.220743
0.018320 0.939486 0.221026
0.020428 0.938314 0.220194
0.023209 0.936866 0.219202
0.025252 0.937337 0.218055
0.027257 0.938641 0.217281
0.047924 0.938328 0.208063
0.067161 0.941393 0.190888
0.090506 0.942795 0.139719
0.124542 0.959364 -0.048631
-0.102889 0.981671 0.012378
0.394891 0.984092 0.013689
0.814243 0.987800 0.014479
0.851074 0.985861 0.015302
0.870725 0.984747 0.014330
0.011961 0.988339 0.231241
-0.014315 0.989559 0.232138
-0.045946 0.991032 0.233045
-0.083117 0.990506 0.232868
-0.124081 0.988930 0.231885
-0.166648 0.987629 0.231042
-0.209649 0.988701 0.230156
-0.251446 0.988775 0.221144
-0.290607 0.993432 0.203293
-0.317552 0.993835 0.167823
-0.324242 1.005360 -0.051108
-0.331608 1.026957 -0.030597
-0.255868 1.026610 -0.031168
0.729337 1.030315 -0.031835
0.820239 1.029207 -0.032143
0.842701 1.028703 -0.032767
-0.005524 -0.358025 -0.075059
-0.026550 -0.358364 -0.078720
0.086231 -0.358641 -0.078705
0.206415 -0.358570 -0.076763
0.326950 -0.358129 -0.076029
0.449375 -0.357883 -0.070762
0.570638 -0.357990 -0.062623
0.690618 -0.358515 -0.043309
0.813197 -0.359431 0.049208
0.914894 -0.361107 0.070671
0.936237 -0.365192 0.081408
0.945858 -0.369931 0.088850
0.951081 -0.372257 0.091964
0.952253 -0.372906 0.093384
0.955275 -0.372957 0.094819
0.966442 -0.372820 0.096556
-0.003915 -0.025635 0.035825
-0.026942 -0.024483 0.032135
0.050355 -0.020504 0.027211
0.175899 -0.014817 0.031558
0.294432 -0.009024 0.036809
0.415714 0.002465 0.046705
0.534105 0.007335 0.056261
0.653776 0.010688 0.067653
0.770059 0.011074 0.078555
0.878479 0.011873 0.086869
0.903004 0.012797 0.083878
0.912461 0.013664 0.085761
0.922572 0.014280 0.088804
0.932451 0.013353 0.088193
0.942390 0.012727 0.089368
0.955638 0.011724 0.091199
0.002209 0.064565 0.036807
-0.018939 0.060516 0.033899
-0.040813 0.035981 0.021352
0.146741 -0.024439 0.030843
0.261970 -0.034536 0.039292
0.386630 -0.026979 0.046827
0.510302 -0.014530 0.054806
0.633020 0.008934 0.066569
0.748220 0.012565 0.077368
0.867414 0.014242 0.085700
0.903224 0.014073 0.089016
0.913416 0.014402 0.088262
0.925087 0.014287 0.089115
0.934672 0.013504 0.088584
0.941846 0.013968 0.088935
0.952429 0.013835 0.090191
0.004224 0.141380 0.054387
-0.008645 0.137967 0.051971
-0.041597 0.127351 0.038298
0.071981 0.115526 0.019520
0.248737 0.090320 0.037013
0.351288 0.043663 0.053371
0.475947 -0.041822 0.060177
0.601865 -0.041380 0.066567
0.721735 -0.020298 0.077611
0.850643 0.019464 0.087111
0.903112 0.021590 0.089263
0.909845 0.021451 0.089660
0.922068 0.020842 0.090183
0.933114 0.018812 0.089781
0.941924 0.017243 0.089832
0.951964 0.016808 0.090554
0.002494 0.223069 0.073936
0.006181 0.220698 0.072927
-0.021014 0.213119 0.068395
-0.068842 0.202335 0.039280
0.150723 0.202095 -0.010443
0.356712 0.182454 0.032977
0.440203 0.137783 0.066450
0.558852 0.104689 0.074016
0.683637 0.025371 0.080642
0.819853 -0.050650 0.087718
0.910418 -0.032046 0.093203
0.916950 0.017655 0.092757
0.925558 0.028122 0.093341
0.933660 0.030652 0.093570
0.942330 0.030801 0.093619
0.953084 0.030216 0.093535
0.004167 0.306351 0.089798
0.007613 0.303813 0.089222
0.009054 0.298643 0.087443
-0.033128 0.287783 0.077024
-0.095504 0.281820 0.030175
0.217205 0.297427 -0.024816
0.464956 0.287099 -0.008525
0.542878 0.226685 0.069255
0.643321 0.195380 0.090873
0.780108 0.153744 0.094507
0.901328 0.076603 0.099831
0.914143 -0.042436 0.099668
0.926847 -0.057449 0.100207
0.935863 -0.058603 0.098150
0.943874 -0.049488 0.097331
0.953113 -0.040464 0.097931
0.007343 0.393864 0.108021
0.009271 0.390917 0.106611
0.009987 0.386779 0.104786
0.013725 0.379010 0.100541
-0.042354 0.367620 0.085354
-0.120552 0.370520 -0.026354
0.290306 0.404631 -0.023009
0.582484 0.403567 -0.026469
0.654378 0.323923 0.063370
0.737064 0.279455 0.108129
0.875615 0.262858 0.111221
0.911272 0.239092 0.108407
0.922237 0.214585 0.107953
0.930098 0.185407 0.107391
0.938536 0.150339 0.106242
0.948507 0.127009 0.105717
0.006519 0.478308 0.122331
0.009709 0.476316 0.121590
0.011449 0.472450 0.120746
0.009426 0.466517 0.120679
0.027500 0.457810 0.112614
-0.054399 0.441213 0.084448
-0.150571 0.462144 -0.035009
0.389758 0.511143 -0.018838
0.694392 0.521055 -0.028750
0.773757 0.436108 0.043154
0.845585 0.370518 0.120166
0.905253 0.355503 0.128220
0.915535 0.342018 0.124361
0.925152 0.324225 0.121246
0.933767 0.304065 0.119064
0.943505 0.291748 0.117916
0.009678 0.565883 0.144055
0.012266 0.563034 0.142860
0.014300 0.558454 0.140450
0.014377 0.553030 0.137725
0.023102 0.545868 0.134124
0.041137 0.533938 0.118045
-0.069584 0.516771 0.063090
-0.164450 0.561014 -0.032425
0.478225 0.622611 -0.013697
0.805755 0.639986 -0.027653
0.904129 0.551840 -0.027478
0.939824 0.480092 0.105234
0.928507 0.449606 0.126052
0.927241 0.425090 0.131260
0.929133 0.402085 0.133019
0.936185 0.390339 0.133425
0.009607 0.658475 0.160183
0.013711 0.655276 0.159594
0.016180 0.649906 0.158418
0.017577 0.642927 0.156189
0.019289 0.636109 0.154342
0.037706 0.629827 0.144313
0.053789 0.612958 0.123537
-0.081517 0.605623 0.016095
-0.182897 0.667954 -0.028436
0.579841 0.736401 -0.003328
0.920545 0.748907 -0.022248
0.988517 0.654423 -0.034659
0.987361 0.603664 -0.025924
0.982721 0.568859 0.049680
0.972327 0.530549 0.087503
0.970146 0.508618 0.109009
0.009821 0.769086 0.178875
0.012161 0.766143 0.178427
0.014741 0.760934 0.177816
0.017358 0.753858 0.175670
0.018312 0.744393 0.173939
0.029922 0.733248 0.169521
0.052996 0.725881 0.152770
0.066433 0.704966 0.125227
-0.089932 0.718385 -0.049310
-0.218366 0.779237 -0.020601
0.693066 0.835754 0.008674
0.982518 0.825928 0.007299
0.991539 0.759094 -0.012918
0.987633 0.721630 -0.022962
0.989169 0.681163 -0.030573
0.991104 0.655720 -0.033175
0.013040 0.892993 0.211743
0.015432 0.890582 0.210497
0.016945 0.886129 0.208884
0.018815 0.879560 0.206047
0.020697 0.869612 0.202364
0.024351 0.857297 0.198884
0.044486 0.845185 0.185334
0.065445 0.836677 0.166863
0.087491 0.820605 0.094059
-0.110006 0.851823 -0.043244
-0.131577 0.888750 0.006516
0.776001 0.912644 0.011439
0.988715 0.898752 0.012510
0.990928 0.860699 0.013053
0.988677 0.820288 0.011901
0.990097 0.792534 0.011226
0.013765 0.914831 0.219153
0.016133 0.915542 0.218978
0.017554 0.915375 0.218557
0.019593 0.916252 0.217290
0.022341 0.917761 0.215630
0.023590 0.917579 0.214963
0.037138 0.917098 0.209190
0.059550 0.916777 0.198058
0.077574 0.916126 0.171310
0.105159 0.918731 -0.025066
-0.144879 0.951496 -0.021703
0.327052 0.966829 0.015308
0.830779 0.970654 0.014753
0.936251 0.950486 0.013566
0.979774 0.932755 0.012881
0.991496 0.913519 0.014144
0.014086 0.926728 0.222469
0.016535 0.928302 0.220730
0.017943 0.927838 0.220212
0.019962 0.927366 0.219990
0.022701 0.928226 0.218674
0.024788 0.928351 0.217399
0.031647 0.928493 0.215267
0.053442 0.929235 0.205683
0.073467 0.930534 0.184976
0.101968 0.934111 0.094169
0.113627 0.964274 -0.038899
-0.185266 0.979545 0.015706
0.635972 0.985333 0.016153
0.848987 0.983465 0.018933
0.866992 0.979785 0.017382
0.904087 0.973638 0.015670
0.013537 0.938080 0.224944
0.016050 0.939607 0.223174
0.018365 0.940071 0.223328
0.020248 0.939638 0.223075
0.022818 0.938779 0.222423
0.025312 0.939224 0.221044
0.027241 0.938843 0.220449
0.047435 0.938958 0.211622
0.067625 0.941732 0.194600
0.089367 0.942595 0.146047
0.124614 0.960788 -0.049096
-0.101813 0.981992 0.013979
0.394064 0.984930 0.016628
0.810196 0.987443 0.016328
0.849959 0.985083 0.018806
0.869511 0.983813 0.017743
0.012782 0.988633 0.235253
-0.015377 0.990177 0.233660
-0.044718 0.991636 0.234598
-0.081578 0.991799 0.235028
-0.124003 0.991085 0.234418
-0.168103 0.989365 0.233463
-0.211438 0.988747 0.232639
-0.252529 0.989303 0.224588
-0.290876 0.993757 0.206592
-0.318131 0.993651 0.172392
-0.324635 1.006533 -0.050873
-0.331727 1.028052 -0.033720
-0.255030 1.027539 -0.032771
0.724668 1.030059 -0.033293
0.818890 1.028651 -0.032484
0.841454 1.027770 -0.033056
-0.007116 -0.358179 0.079663
-0.024136 -0.358568 0.071515
0.091519 -0.358921 0.055819
0.195793 -0.359039 0.042237
0.324566 -0.358785 0.055866
0.453647 -0.358379 0.059238
0.577646 -0.358201 0.053786
0.694269 -0.358615 0.061172
0.812891 -0.359499 0.076462
0.916229 -0.361198 0.088030
0.937663 -0.365486 0.094921
0.946311 -0.370297 0.097523
0.950972 -0.372480 0.098582
0.952357 -0.372888 0.098615
0.955174 -0.372770 0.099127
0.966250 -0.372510 0.100541
-0.004721 -0.022191 0.091748
-0.028528 -0.021467 0.089124
0.057205 -0.019084 0.081712
0.170254 -0.011111 0.077153
0.297377 -0.008757 0.082332
0.420787 0.004908 0.083785
0.538310 0.008304 0.083734
0.654703 0.010427 0.086118
0.768693 0.011848 0.090789
0.878063 0.012355 0.095932
0.903777 0.012534 0.093015
0.912247 0.012783 0.092320
0.922194 0.013382 0.094003
0.932144 0.012744 0.092260
0.941884 0.012517 0.092585
0.954808 0.011971 0.094256
-0.002436 0.051181 0.075110
-0.020612 0.046545 0.073336
-0.024712 0.037340 0.069843
0.151906 0.013325 0.064590
0.274646 -0.033105 0.066197
0.394468 -0.026413 0.064951
0.515388 -0.014507 0.066724
0.634774 0.008448 0.075821
0.750406 0.011432 0.083085
0.868747 0.013663 0.090465
0.905309 0.012848 0.092717
0.912992 0.014711 0.091530
0.923489 0.015474 0.092580
0.933163 0.014589 0.092117
0.941688 0.013919 0.091751
0.953115 0.013441 0.092500
0.003672 0.133714 0.078538
-0.010565 0.130804 0.075204
-0.042196 0.124862 0.063966
0.069239 0.114266 0.044071
0.248672 0.086241 0.051599
0.353220 0.039617 0.061838
0.477565 -0.043964 0.066036
0.602557 -0.039971 0.070705
0.721658 -0.018280 0.080923
0.850356 0.019744 0.089774
0.904075 0.022731 0.094399
0.909853 0.021480 0.093223
0.920663 0.021117 0.093457
0.932081 0.019459 0.093640
0.941346 0.017641 0.093114
0.952452 0.016755 0.093115
0.003412 0.219640 0.084292
0.005683 0.217178 0.082204
-0.020994 0.211717 0.077855
-0.068918 0.201606 0.050860
0.148223 0.201327 0.016882
0.354400 0.178271 0.040829
0.440413 0.134178 0.071112
0.560999 0.099253 0.078103
0.684842 -0.028538 0.085004
0.820620 -0.050072 0.091879
0.912509 -0.028738 0.097746
0.917823 0.020164 0.096615
0.925961 0.028570 0.097007
0.934177 0.030855 0.097309
0.942629 0.031248 0.096990
0.953317 0.030878 0.096867
0.004131 0.304760 0.093331
0.007542 0.302253 0.092586
0.009237 0.297019 0.091783
-0.033082 0.287330 0.080844
-0.095517 0.280803 0.039556
0.216796 0.295449 -0.026145
0.463236 0.283897 0.018235
0.541440 0.223363 0.075741
0.644015 0.192802 0.093908
0.780395 0.147921 0.097081
0.902404 0.067013 0.104226
0.915508 -0.049024 0.103905
0.928531 -0.058061 0.103636
0.937336 -0.057955 0.101464
0.944375 -0.049205 0.100101
0.953550 -0.041026 0.100737
0.006544 0.392872 0.110640
0.008537 0.390095 0.109517
0.010279 0.386027 0.108447
0.013238 0.378499 0.105335
-0.041904 0.368730 0.089161
-0.120420 0.368939 -0.021672
0.290007 0.404601 -0.024844
0.581761 0.400668 -0.026797
0.653233 0.321227 0.071560
0.737502 0.277578 0.110759
0.876702 0.259985 0.114711
0.912579 0.235547 0.112163
0.922595 0.210943 0.111705
0.931019 0.182185 0.111524
0.938346 0.148702 0.110530
0.948047 0.127052 0.109903
0.005883 0.477898 0.126107
0.009267 0.475999 0.125445
0.011216 0.472259 0.123950
0.010235 0.465810 0.123260
0.027852 0.458261 0.115926
-0.054667 0.442354 0.088620
-0.150920 0.461522 -0.036155
0.388467 0.510973 -0.020310
0.694933 0.519298 -0.030130
0.772942 0.433664 0.048888
0.844369 0.368572 0.123956
0.906287 0.354662 0.132566
0.916427 0.340750 0.128841
0.925743 0.322763 0.125435
0.934118 0.302998 0.122716
0.943226 0.291179 0.121670
0.010192 0.564759 0.146720
0.012659 0.561662 0.145781
0.014954 0.558091 0.144597
0.015214 0.552367 0.141877
0.022148 0.545582 0.137928
0.041418 0.534050 0.122994
-0.070217 0.517393 0.068280
-0.164577 0.559905 -0.033885
0.479615 0.622819 -0.014405
0.806545 0.638700 -0.028802
0.902869 0.548947 -0.019772
0.937514 0.477807 0.110942
0.928762 0.448539 0.131922
0.928079 0.424927 0.136330
0.929567 0.401287 0.137181
0.936482 0.388874 0.136791
0.010269 0.657562 0.164326
0.014239 0.654501 0.163928
0.016123 0.650410 0.162735
0.017773 0.643560 0.160808
0.019042 0.636465 0.158428
0.037745 0.629742 0.149027
0.053861 0.613513 0.128742
-0.082296 0.605557 0.023302
-0.183167 0.667090 -0.029512
0.579498 0.736001 -0.003343
0.919880 0.747240 -0.023364
0.988906 0.652134 -0.034991
0.986892 0.601476 -0.009906
0.982387 0.566987 0.059286
0.972394 0.528866 0.094448
0.969284 0.506638 0.114557
0.010092 0.768101 0.184355
0.012532 0.765074 0.184009
0.015322 0.760464 0.183169
0.018049 0.753461 0.180827
0.019081 0.743421 0.177723
0.028570 0.733071 0.172826
0.052384 0.724614 0.157266
0.066423 0.705672 0.130169
-0.090579 0.717782 -0.050032
-0.219380 0.778097 -0.021243
0.691238 0.834839 0.009726
0.981685 0.824964 0.007035
0.992146 0.758842 -0.014040
0.987945 0.720683 -0.025087
0.989800 0.679953 -0.031627
0.991652 0.654661 -0.031406
0.011693 0.891676 0.214131
0.014091 0.889209 0.213025
0.016456 0.886078 0.211725
0.018520 0.879566 0.209274
0.020209 0.869238 0.205837
0.023685 0.856859 0.202286
0.044416 0.844734 0.190764
0.064786 0.835361 0.171502
0.087675 0.820299 0.101232
-0.107647 0.851382 -0.044662
-0.135247 0.888563 0.011708
0.776647 0.912661 0.013903
0.989937 0.897566 0.015082
0.992591 0.859807 0.015275
0.990355 0.819399 0.013817
0.991193 0.792439 0.012759
0.013083 0.914362 0.222864
0.015440 0.915059 0.222798
0.017557 0.915951 0.222836
0.019721 0.916487 0.221641
0.021952 0.917843 0.219779
0.022687 0.916960 0.218721
0.037105 0.917135 0.213786
0.059294 0.916210 0.202616
0.078754 0.915746 0.175893
0.105535 0.919148 0.017949
-0.144028 0.952513 -0.022546
0.321670 0.966631 0.017402
0.830486 0.969464 0.016496
0.936558 0.949093 0.016450
0.979938 0.930578 0.015901
0.991498 0.911111 0.017165
0.013397 0.926240 0.226051
0.015858 0.927851 0.224349
0.017958 0.928047 0.224364
0.020098 0.927844 0.224236
0.022386 0.928467 0.222801
0.024180 0.928338 0.221376
0.031266 0.928107 0.220417
0.051940 0.929216 0.208517
0.073590 0.931301 0.189561
0.101675 0.935268 0.100028
0.113790 0.964819 -0.040251
-0.184996 0.980706 0.017550
0.634301 0.984972 0.017169
0.846613 0.983591 0.019665
0.866971 0.978368 0.018702
0.904830 0.971752 0.017649
0.013762 0.937821 0.229260
0.016210 0.939429 0.227299
0.018355 0.940357 0.226376
0.020385 0.939971 0.226297
0.022673 0.940019 0.226027
0.024881 0.940157 0.224609
0.026725 0.938800 0.224392
0.047575 0.939437 0.215475
0.067222 0.942859 0.199236
0.088214 0.943475 0.152101
0.124433 0.961085 -0.049332
-0.098657 0.982384 0.015650
0.388493 0.985413 0.019088
0.806154 0.986909 0.018237
0.848397 0.984736 0.021097
0.868470 0.982618 0.020325
0.010656 0.988935 0.235838
-0.023912 0.990506 0.234168
-0.051232 0.992109 0.233473
-0.082701 0.992438 0.234182
-0.119714 0.992328 0.234669
-0.163746 0.991648 0.234120
-0.211010 0.989961 0.232831
-0.254924 0.990379 0.226383
-0.293405 0.994552 0.208242
-0.320488 0.994293 0.174642
-0.327181 1.007068 -0.059265
-0.333524 1.027530 -0.048843
-0.257236 1.028883 -0.046162
0.720228 1.029934 -0.045225
0.816113 1.028154 -0.042728
0.839716 1.027323 -0.041634
0.009600 -0.358286 0.191754
0.036740 -0.358663 0.188668
0.121275 -0.359140 0.178130
0.213916 -0.359303 0.163181
0.309806 -0.359188 0.145557
0.432081 -0.358896 0.149581
0.574951 -0.358689 0.163923
0.704453 -0.359000 0.159472
0.820012 -0.359769 0.139089
0.920035 -0.361466 0.141603
0.945042 -0.365550 0.141435
0.953090 -0.370409 0.138168
0.956135 -0.372650 0.135307
0.957355 -0.372938 0.130970
0.959587 -0.372620 0.126275
0.970078 -0.372291 0.124482
-0.010050 -0.020462 0.178437
-0.030473 -0.020090 0.177889
0.090530 -0.018329 0.170624
0.184982 -0.016941 0.159210
0.278942 0.018412 0.143766
0.404157 0.015971 0.150751
0.543356 0.005673 0.160887
0.666483 0.008836 0.153428
0.775481 0.011704 0.137252
0.882096 0.012026 0.136816
0.910218 0.012913 0.132461
0.917285 0.013468 0.127873
0.925639 0.013391 0.125801
0.935942 0.012908 0.121554
0.945594 0.012894 0.117174
0.958546 0.012468 0.116004
-0.005322 0.045220 0.159124
-0.026294 0.040134 0.156546
0.032353 0.028107 0.155397
0.158298 -0.004110 0.145531
0.262831 0.038522 0.129155
0.391228 -0.012301 0.136414
0.525015 -0.015577 0.138773
0.641961 0.009658 0.129983
0.754283 0.012455 0.122124
0.872683 0.012849 0.126023
0.908613 0.013766 0.122271
0.916441 0.013483 0.119472
0.925634 0.013867 0.118151
0.935176 0.014332 0.114811
0.943864 0.014480 0.111775
0.955865 0.013923 0.110717
-0.001194 0.131144 0.140750
-0.014691 0.127945 0.137224
-0.042492 0.120383 0.133577
0.114945 0.116022 0.131478
0.256183 0.101891 0.121481
0.374746 0.057162 0.116277
0.493788 -0.047645 0.109860
0.614906 -0.038111 0.109883
0.728359 -0.015519 0.108334
0.854106 0.019961 0.111816
0.906727 0.021653 0.109477
0.913556 0.018957 0.106799
0.923976 0.018951 0.106089
0.934628 0.018289 0.104626
0.943648 0.017905 0.103526
0.954648 0.017935 0.103116
0.003507 0.220905 0.139870
-0.003221 0.217952 0.136891
-0.028295 0.211266 0.129911
-0.066390 0.205577 0.115476
0.153942 0.203097 0.088368
0.354380 0.171379 0.093001
0.451009 0.133591 0.101006
0.570092 0.090356 0.099795
0.690994 -0.046294 0.098578
0.823172 -0.049666 0.103636
0.914493 -0.025785 0.106780
0.919520 0.022918 0.103545
0.927000 0.028932 0.102710
0.934377 0.030035 0.101933
0.942176 0.030025 0.101189
0.953075 0.029960 0.101398
0.005005 0.309744 0.133797
0.006623 0.306878 0.130536
-0.004800 0.300948 0.124445
-0.035363 0.292013 0.111453
-0.097395 0.285149 0.076014
0.217514 0.295280 0.017391
0.460763 0.278175 0.045589
0.540474 0.218796 0.086946
0.645728 0.188636 0.100009
0.779780 0.139631 0.101356
0.903115 0.046604 0.107429
0.916360 -0.056766 0.107593
0.928804 -0.058165 0.107171
0.937297 -0.055875 0.106943
0.944363 -0.048907 0.105834
0.954007 -0.041762 0.106513
0.006229 0.394318 0.128807
0.008665 0.391476 0.126182
0.010350 0.386246 0.121822
0.011682 0.379156 0.115720
-0.042070 0.368873 0.100128
-0.120954 0.368384 -0.013600
0.289730 0.402067 -0.029849
0.579770 0.396209 -0.028420
0.650293 0.316694 0.079041
0.737521 0.273912 0.113389
