assets/luts/Vivid_LUTs_4.cube
LUT_3D_SIZE 6
-0.016102 -0.012893 -0.005168
0.220509 0.019657 0.022393
0.526350 0.055836 0.058348
0.714484 0.168063 0.142066
0.732218 0.190449 0.159806
0.741714 0.202338 0.166420
0.063577 0.157821 0.055034
0.160409 0.157838 0.068432
0.476505 0.145234 0.064988
0.707864 0.191582 0.135179
0.731579 0.210821 0.160445
0.743339 0.216504 0.170716
0.183201 0.339164 0.122961
0.192919 0.328150 0.120895
0.408044 0.364720 0.171976
0.678713 0.362874 0.171494
0.760778 0.371817 0.204243
0.765939 0.356722 0.205972
0.327603 0.551188 0.215011
0.329685 0.538033 0.208715
0.393303 0.518170 0.203263
0.693519 0.635930 0.346057
0.845541 0.628103 0.342196
0.836690 0.584956 0.316572
0.531150 0.797198 0.388356
0.542735 0.801009 0.384362
0.571927 0.796156 0.380536
0.704392 0.808097 0.408578
0.898472 0.868962 0.534421
0.912913 0.845019 0.527406
0.593562 0.877179 0.439315
0.596949 0.873047 0.434859
0.593669 0.872551 0.433235
0.694675 0.881476 0.444916
0.885543 0.929853 0.556886
0.949751 0.949676 0.603397
-0.214521 -0.309142 0.091392
-0.173643 -0.315808 -0.070792
0.541939 -0.315293 0.054370
0.746776 -0.273610 0.156898
0.742151 -0.283588 0.090638
0.740680 -0.285279 -0.072345
-0.026358 0.174224 0.133491
0.143477 0.155352 0.126684
0.489702 0.146302 0.118016
0.719725 0.195887 0.165785
0.740995 0.216399 0.181347
0.752717 0.227706 0.190809
0.184701 0.342084 0.143041
0.191616 0.329013 0.134064
0.405182 0.364826 0.181726
0.681511 0.361364 0.179672
0.768215 0.374031 0.216636
0.772907 0.361941 0.218252
0.330065 0.552548 0.226341
0.330262 0.540342 0.217656
0.392521 0.521050 0.214711
0.696431 0.639212 0.360113
0.850459 0.629569 0.352569
0.844331 0.588323 0.329488
0.541372 0.804880 0.400058
0.548819 0.807839 0.400553
0.574432 0.802000 0.396278
0.706477 0.812027 0.420724
0.903702 0.874788 0.549877
0.917967 0.848482 0.540389
0.591124 0.876968 0.445542
0.606011 0.882123 0.450716
0.596721 0.882388 0.448381
0.690602 0.887446 0.454360
0.883827 0.934268 0.567583
0.951082 0.954962 0.617382
-0.206911 -0.216136 0.445283
-0.193715 -0.236477 0.425336
0.427052 -0.272059 0.408869
0.861815 -0.196686 0.461233
0.872231 -0.210939 0.431008
0.866283 -0.191817 0.405048
0.042619 0.274059 0.394821
0.077405 0.247572 0.383958
0.401526 0.209033 0.366964
0.822045 0.258346 0.405287
0.857725 0.294832 0.405229
0.863657 0.317277 0.400390
0.059765 0.415794 0.312719
0.063606 0.400528 0.300162
0.415012 0.389002 0.322130
0.775680 0.421742 0.348854
0.858779 0.444731 0.374990
0.868463 0.450261 0.382284
0.374827 0.607178 0.343314
0.372667 0.591254 0.328356
0.420736 0.558573 0.300911
0.714190 0.662362 0.439323
0.883171 0.648486 0.413619
0.884022 0.623664 0.402355
0.557862 0.830816 0.462114
0.565147 0.828197 0.455064
0.586389 0.818738 0.442316
0.707969 0.816462 0.445148
0.906225 0.875802 0.563238
0.926253 0.854488 0.561969
0.605921 0.891119 0.457756
0.611694 0.888557 0.453196
0.621883 0.892870 0.458064
0.697628 0.896195 0.458666
0.880957 0.940166 0.569835
0.946206 0.959682 0.621145
0.139338 0.411490 0.807733
0.223246 0.408794 0.807181
0.320248 0.346789 0.815129
0.830837 0.328214 0.802171
0.879068 0.237911 0.746373
0.909038 0.177724 0.685744
0.232472 0.506256 0.769787
0.255442 0.492408 0.761009
0.316142 0.442304 0.756767
0.781697 0.405395 0.736844
0.889312 0.363461 0.682990
0.911770 0.370606 0.641992
0.167712 0.557440 0.696260
0.165905 0.541190 0.681586
0.237580 0.502189 0.686012
0.731962 0.461129 0.662680
0.909026 0.478944 0.631561
0.943116 0.488571 0.624763
0.255741 0.717602 0.584374
0.260971 0.706548 0.574213
0.363605 0.685913 0.560996
0.727030 0.682575 0.614708
0.960624 0.726068 0.666976
0.964343 0.724353 0.665944
0.602081 0.898229 0.641907
0.612125 0.895397 0.638417
0.628328 0.884771 0.622653
0.736321 0.862334 0.611455
0.943751 0.915990 0.730259
0.971166 0.904372 0.736663
0.648776 0.948019 0.615214
0.655313 0.945179 0.608386
0.663980 0.945332 0.601237
0.760447 0.951605 0.622614
0.925607 0.981529 0.702082
0.979758 0.991129 0.739058
0.213226 0.451708 0.850806
0.268272 0.450143 0.849358
0.348576 0.427832 0.856655
0.822063 0.411705 0.868427
0.880552 0.411588 0.865360
0.899618 0.394628 0.855459
0.274810 0.556346 0.837531
0.301707 0.551737 0.837589
0.370034 0.538347 0.840028
0.766888 0.499412 0.860964
0.885212 0.507446 0.861726
0.909876 0.499571 0.857732
0.274403 0.617372 0.840842
0.281945 0.613713 0.840771
0.351208 0.610164 0.840532
0.682142 0.547300 0.865272
0.893237 0.565700 0.863699
0.919875 0.553837 0.853372
0.282107 0.790966 0.861008
0.288981 0.781189 0.858500
0.331439 0.758865 0.853912
0.499778 0.704558 0.873255
0.925421 0.690889 0.876716
0.950811 0.678344 0.861273
0.441079 0.946102 0.829580
0.446028 0.943861 0.825710
0.449364 0.934495 0.815695
0.661425 0.919975 0.820550
0.935686 0.917118 0.888198
0.991569 0.930845 0.904601
0.564728 0.985784 0.763769
0.578011 0.985448 0.756711
0.593837 0.985418 0.746884
0.720064 0.992106 0.772509
0.938504 1.006098 0.876550
0.996947 1.018045 0.921683
0.260468 0.482304 0.869527
0.304964 0.482518 0.869717
0.378574 0.478087 0.873917
0.783398 0.432759 0.893964
0.883283 0.457626 0.894104
0.904208 0.450452 0.891844
0.294022 0.583878 0.870231
0.318436 0.581255 0.867965
0.384323 0.573987 0.870301
0.715484 0.518736 0.893128
0.888447 0.544460 0.898450
0.912564 0.536994 0.892444
0.294245 0.640363 0.875202
0.303057 0.637874 0.876042
0.370409 0.638201 0.874812
0.619228 0.577224 0.894126
0.894911 0.601838 0.898952
0.920503 0.595723 0.895622
0.296498 0.766935 0.887776
0.304265 0.757733 0.886489
0.352156 0.740757 0.884577
0.485029 0.713754 0.900591
0.917103 0.701451 0.911215
0.944735 0.692015 0.907672
0.354372 0.964443 0.906486
0.351138 0.962981 0.909372
0.344680 0.955003 0.916185
0.419232 0.948426 0.928321
0.879280 0.906805 0.953065
0.986076 0.905425 0.953553
0.529837 0.983649 0.888711
0.538167 0.983390 0.888528
0.547299 0.983580 0.888264
0.632085 0.981777 0.883151
0.914020 0.988738 0.949690
0.997101 0.996063 0.986600
