assets/luts/Vivid_LUTs_2.cube
LUT_3D_SIZE 6
-0.075837 -0.071332 -0.063533
0.171175 -0.065542 -0.073714
0.330816 0.052407 -0.048163
0.485511 0.096181 0.022273
0.606341 0.131632 0.023696
0.656840 0.153858 0.023449
-0.086073 0.130301 0.047641
0.229969 0.169699 0.022139
0.435620 0.186767 0.027410
0.563776 0.219995 0.028114
0.665893 0.245028 0.026015
0.708706 0.254881 0.028114
-0.090764 0.253573 0.134931
-0.086747 0.329044 0.128111
0.600290 0.441053 0.085742
0.710738 0.420015 0.060085
0.780534 0.409841 0.055255
0.808567 0.401630 0.057029
0.020071 0.405429 0.233005
0.078579 0.454568 0.216254
0.337160 0.542041 0.087138
0.854164 0.657288 0.122367
0.900577 0.673328 0.177105
0.906631 0.667842 0.240738
0.051027 0.510987 0.281828
0.095775 0.567273 0.294603
0.156525 0.646427 0.344470
0.801853 0.807320 0.373797
0.884232 0.858698 0.564218
0.899255 0.843882 0.567890
0.063299 0.601458 0.330211
0.089575 0.653038 0.367512
0.196553 0.741890 0.455024
0.762946 0.877067 0.513849
0.887483 0.921199 0.620845
0.915270 0.922611 0.640043
-0.072635 -0.231638 0.057901
0.172619 -0.241199 0.072524
0.350997 -0.269727 -0.142775
0.521299 -0.315546 -0.176931
0.661636 -0.322823 -0.225805
0.698083 -0.321824 -0.235791
-0.086832 0.158571 0.169499
0.161263 0.173482 0.180749
0.427450 0.133260 0.090346
0.582344 0.163884 0.077717
0.693970 0.210000 0.068270
0.740583 0.235340 0.074125
-0.083280 0.285377 0.240401
0.031387 0.342002 0.244526
0.573483 0.439844 0.184243
0.712252 0.391502 0.099013
0.798378 0.385640 0.096246
0.845358 0.405298 0.113305
0.029093 0.443363 0.341162
0.087162 0.490462 0.339375
0.135196 0.542140 0.257948
0.855154 0.679054 0.213350
0.882477 0.712519 0.374417
0.893654 0.710566 0.442241
0.063860 0.569496 0.406435
0.104231 0.598648 0.405555
0.181677 0.671530 0.443475
0.805416 0.827707 0.497290
0.884862 0.858054 0.598417
0.899644 0.845673 0.599248
0.075257 0.659896 0.450519
0.102671 0.681425 0.461013
0.188459 0.745469 0.503722
0.784267 0.885390 0.563118
0.887145 0.916118 0.636148
0.911630 0.917592 0.652392
-0.063563 -0.245870 0.187978
0.154039 -0.245666 0.289765
0.346682 -0.276811 0.215982
0.531219 -0.320570 0.090089
0.705118 -0.322623 -0.127061
0.741616 -0.322861 -0.178870
-0.080671 0.210801 0.265756
0.118928 0.200466 0.328408
0.438633 0.183632 0.333036
0.634220 0.175518 0.243385
0.759153 0.211975 0.200207
0.790477 0.244267 0.199743
-0.060883 0.329583 0.338022
0.062707 0.394051 0.411506
0.366096 0.469933 0.483349
0.690894 0.349172 0.196747
0.810860 0.363347 0.193981
0.872840 0.499966 0.351751
0.047568 0.487194 0.448487
0.114871 0.564102 0.519016
0.138957 0.562050 0.427250
0.807581 0.711201 0.416115
0.882184 0.734732 0.515345
0.898360 0.741706 0.568945
0.085597 0.643570 0.544288
0.127687 0.672215 0.555750
0.219735 0.720074 0.560153
0.792322 0.852488 0.612967
0.884602 0.870205 0.667741
0.900124 0.861591 0.669911
0.091294 0.712450 0.563519
0.122683 0.722756 0.560997
0.273940 0.801214 0.609356
0.801935 0.910291 0.670572
0.888831 0.926596 0.705600
0.910544 0.926342 0.712694
-0.041849 -0.257887 0.345331
0.148380 -0.265139 0.432234
0.272648 -0.310213 0.421106
0.498571 -0.331034 0.349862
0.643315 -0.330458 0.313205
0.700917 -0.327545 0.235987
-0.073458 0.237704 0.387945
0.116611 0.189859 0.501603
0.335035 0.137491 0.568543
0.586263 0.167450 0.473906
0.692035 0.205830 0.419146
0.754389 0.262048 0.400827
0.017210 0.382600 0.455950
0.073266 0.426886 0.536224
0.148292 0.397670 0.569918
0.641521 0.356318 0.597659
0.768522 0.400459 0.528382
0.862218 0.561171 0.595856
0.069644 0.537759 0.562853
0.133271 0.621723 0.653005
0.232018 0.660765 0.687554
0.692792 0.739232 0.713115
0.867735 0.703906 0.630042
0.894944 0.774877 0.718583
0.099027 0.693201 0.641904
0.145428 0.716526 0.668126
0.402824 0.825251 0.754651
0.634350 0.833003 0.719164
0.871010 0.873068 0.722908
0.898342 0.858879 0.751913
0.102989 0.744896 0.650932
0.145417 0.762926 0.669086
0.518134 0.893492 0.794614
0.824933 0.939287 0.831004
0.870067 0.942968 0.823815
0.915989 0.953198 0.854184
-0.025963 -0.263000 0.470286
0.142208 -0.278094 0.527150
0.242117 -0.327998 0.516852
0.469375 -0.338034 0.492780
0.627139 -0.332873 0.468116
0.661144 -0.331174 0.417796
-0.065087 0.248728 0.490819
0.110676 0.217957 0.600417
0.314447 0.162779 0.667907
0.562104 0.160113 0.616524
0.669485 0.194186 0.549698
0.706892 0.238956 0.520979
0.027818 0.406504 0.537145
0.075875 0.430220 0.605380
0.135509 0.401639 0.662351
0.575222 0.303640 0.741598
0.791321 0.475111 0.738476
0.842935 0.558956 0.741331
0.074854 0.557050 0.642928
0.122358 0.591287 0.703882
0.267685 0.674345 0.785587
0.699137 0.757147 0.848676
0.855473 0.760753 0.842791
0.894650 0.819598 0.843707
0.111523 0.713662 0.737435
0.177524 0.740731 0.765409
0.508521 0.844682 0.854212
0.708164 0.868661 0.864871
0.847018 0.879281 0.854711
0.902928 0.878926 0.850101
0.120592 0.767633 0.749447
0.189039 0.794215 0.777196
0.635623 0.915069 0.884169
0.831159 0.947877 0.881818
0.875104 0.952292 0.883444
0.919429 0.957262 0.887306
0.024602 -0.261339 0.513957
0.138815 -0.281204 0.567586
0.209433 -0.329733 0.571622
0.416166 -0.340485 0.561039
0.604173 -0.337809 0.520456
0.655607 -0.334083 0.495495
-0.056137 0.249254 0.534133
0.114257 0.232426 0.639190
0.291243 0.193721 0.716046
0.520420 0.153810 0.679449
0.661645 0.182615 0.618249
0.698286 0.228247 0.597731
0.026453 0.397619 0.574153
0.072418 0.412482 0.639856
0.155514 0.419183 0.726590
0.576861 0.393430 0.834201
0.804621 0.547208 0.811571
0.867593 0.618842 0.826778
0.069379 0.536537 0.654747
0.115964 0.562872 0.716242
0.352665 0.700969 0.832255
0.789922 0.826669 0.887478
0.853716 0.829881 0.890673
0.898164 0.851165 0.898358
0.104686 0.681250 0.754233
0.171356 0.706038 0.779696
0.498577 0.809235 0.866797
0.761788 0.861985 0.892572
0.856689 0.883912 0.902220
0.901581 0.887539 0.903673
0.125991 0.745848 0.774184
0.202269 0.774710 0.799610
0.638785 0.885827 0.895138
0.804112 0.915209 0.898774
0.863059 0.922886 0.907874
0.906123 0.926940 0.911295
