assets/luts/Vivid_LUTs_2.cube
LUT_3D_SIZE 16
-0.075837 -0.071332 -0.063533
0.074688 -0.070612 -0.067885
0.112633 -0.071097 -0.074706
0.171175 -0.065542 -0.073714
0.223012 -0.052183 -0.068016
0.274244 0.023080 -0.058051
0.330816 0.052407 -0.048163
0.381964 0.072296 -0.031382
0.433605 0.087009 0.017543
0.485511 0.096181 0.022273
0.532223 0.104242 0.023858
0.572824 0.115844 0.024346
0.606341 0.131632 0.023696
0.629791 0.142030 0.023656
0.645387 0.148991 0.023612
0.656840 0.153858 0.023449
-0.072360 0.078786 -0.062074
0.076278 0.079775 -0.065245
0.120411 0.079721 -0.074006
0.178375 0.086121 -0.072070
0.230477 0.098037 -0.064441
0.281385 0.108681 -0.053588
0.337066 0.117453 -0.042153
0.390591 0.130085 0.008792
0.444125 0.139754 0.020709
0.496733 0.149105 0.024836
0.544510 0.157105 0.025790
0.583892 0.167931 0.025621
0.615951 0.181487 0.024665
0.638835 0.190885 0.024327
0.654169 0.196715 0.024136
0.666131 0.201377 0.023996
-0.070161 0.096918 -0.046511
0.078287 0.099447 -0.049908
0.137935 0.116644 -0.061414
0.210260 0.122516 -0.054043
0.270953 0.127409 -0.043340
0.332599 0.135912 -0.023724
0.388873 0.145270 0.020632
0.440483 0.154547 0.023778
0.486031 0.165964 0.026084
0.529031 0.177063 0.027125
0.569919 0.186072 0.027070
0.608596 0.197303 0.026095
0.639933 0.209536 0.024731
0.659878 0.217509 0.024543
0.672507 0.221837 0.024741
0.682722 0.224843 0.024815
-0.086073 0.130301 0.047641
0.056677 0.134399 0.034770
0.115436 0.142957 0.010867
0.229969 0.169699 0.022139
0.320685 0.171675 0.027063
0.381193 0.176014 0.026576
0.435620 0.186767 0.027410
0.482954 0.196844 0.028109
0.523307 0.208130 0.028561
0.563776 0.219995 0.028114
0.604221 0.228188 0.027249
0.639605 0.236685 0.025691
0.665893 0.245028 0.026015
0.684860 0.250017 0.026930
0.697803 0.252949 0.027681
0.708706 0.254881 0.028114
-0.087288 0.160042 0.074396
0.038343 0.164722 0.065205
0.044946 0.183388 0.054649
0.196080 0.208751 0.021750
0.362899 0.247853 0.035540
0.437587 0.249716 0.034466
0.481685 0.259509 0.032549
0.523310 0.267856 0.032484
0.560960 0.273145 0.032440
0.594444 0.278248 0.032311
0.625750 0.283226 0.032832
0.656114 0.287214 0.032818
0.681652 0.289304 0.033098
0.701191 0.290684 0.033480
0.713987 0.290418 0.033825
0.725478 0.290895 0.034312
-0.090020 0.200988 0.102304
0.039456 0.204596 0.097333
-0.043860 0.237839 0.101209
0.082786 0.261550 0.052559
0.348928 0.337973 0.041741
0.494629 0.354397 0.051409
0.551121 0.351052 0.047790
0.583658 0.345913 0.045176
0.613963 0.344812 0.045693
0.641934 0.344978 0.045400
0.668812 0.344047 0.044427
0.694889 0.341614 0.043223
0.716983 0.341433 0.043228
0.732798 0.341847 0.044144
0.742841 0.339936 0.044369
0.751955 0.339089 0.044996
-0.090764 0.253573 0.134931
0.039363 0.257860 0.130961
0.024676 0.296150 0.138975
-0.086747 0.329044 0.128111
0.234518 0.368208 0.054438
0.489812 0.435844 0.083259
0.600290 0.441053 0.085742
0.648865 0.432108 0.069892
0.680406 0.422661 0.063175
0.710738 0.420015 0.060085
0.738164 0.418679 0.057725
0.762209 0.414182 0.055910
0.780534 0.409841 0.055255
0.792790 0.406786 0.055751
0.801443 0.404122 0.056641
0.808567 0.401630 0.057029
-0.083121 0.309244 0.171404
0.040987 0.315255 0.169559
0.040556 0.348238 0.177272
-0.031088 0.371202 0.170556
-0.078861 0.404258 0.109400
0.397037 0.468401 0.091209
0.594044 0.510194 0.109968
0.696139 0.509898 0.091652
0.746076 0.506127 0.079390
0.780071 0.502081 0.073102
0.803584 0.496326 0.068811
0.823187 0.491518 0.066406
0.841097 0.489457 0.067953
0.852499 0.486806 0.070192
0.858613 0.482387 0.071635
0.865722 0.481091 0.073982
-0.066337 0.361707 0.205612
0.044158 0.366091 0.201528
0.050416 0.389384 0.204275
0.062876 0.413935 0.196498
-0.035357 0.426853 0.164850
0.189203 0.480377 0.107308
0.515369 0.545611 0.109297
0.694947 0.572065 0.099773
0.788394 0.579650 0.094070
0.830681 0.582911 0.089026
0.855200 0.581645 0.084936
0.873883 0.581877 0.084701
0.888503 0.582797 0.088239
0.897755 0.580472 0.090257
0.902426 0.573777 0.091260
0.908651 0.573030 0.096368
0.020071 0.405429 0.233005
0.053582 0.409966 0.226831
0.063435 0.425589 0.225435
0.078579 0.454568 0.216254
0.082574 0.466399 0.200029
0.067690 0.497476 0.156342
0.337160 0.542041 0.087138
0.650623 0.607611 0.096853
0.791427 0.638859 0.107073
0.854164 0.657288 0.122367
0.879040 0.667324 0.137663
0.893375 0.669539 0.146533
0.900577 0.673328 0.177105
0.902264 0.674395 0.209359
0.902984 0.668480 0.225108
0.906631 0.667842 0.240738
0.030717 0.439987 0.246847
0.066179 0.444323 0.240284
0.074831 0.459915 0.240209
0.086687 0.492513 0.235714
0.095878 0.510844 0.226420
0.093159 0.525760 0.226823
0.190107 0.562844 0.150398
0.585154 0.624889 0.085146
0.778524 0.686914 0.116067
0.850842 0.714669 0.166297
0.876358 0.743446 0.237665
0.878407 0.753936 0.298307
0.878751 0.757633 0.351077
0.884718 0.757470 0.385504
0.888753 0.753351 0.401916
0.893973 0.752337 0.417931
0.043304 0.476283 0.265759
0.076307 0.482239 0.259866
0.082980 0.497061 0.258287
0.092194 0.530741 0.262722
0.100069 0.557218 0.266982
0.109487 0.569079 0.272620
0.123170 0.609496 0.267347
0.501186 0.647958 0.105797
0.764797 0.718064 0.113934
0.839735 0.762034 0.212629
0.852162 0.795544 0.360199
0.872344 0.819994 0.449305
0.883454 0.822075 0.487228
0.889267 0.816843 0.503196
0.893450 0.808007 0.498239
0.898557 0.803676 0.500926
0.051027 0.510987 0.281828
0.082861 0.517807 0.276947
0.088276 0.533246 0.278972
0.095775 0.567273 0.294603
0.105705 0.594864 0.311488
0.119240 0.607597 0.323188
0.156525 0.646427 0.344470
0.364146 0.679808 0.260654
0.708631 0.741883 0.211615
0.801853 0.807320 0.373797
0.841881 0.835491 0.478387
0.867337 0.849988 0.532760
0.884232 0.858698 0.564218
0.890205 0.854192 0.570814
0.893950 0.848639 0.571693
0.899255 0.843882 0.567890
0.054791 0.538925 0.295753
0.085904 0.545663 0.291702
0.090901 0.562755 0.301286
0.099307 0.594329 0.323598
0.111457 0.617637 0.344510
0.127630 0.631500 0.360263
0.182764 0.670499 0.385516
0.323542 0.708477 0.365667
0.657129 0.765530 0.320170
0.784658 0.827581 0.454005
0.835728 0.855253 0.530284
0.859591 0.866474 0.568492
0.877750 0.870446 0.590386
0.888982 0.872951 0.602005
0.893244 0.868990 0.603362
0.898599 0.866728 0.604338
0.056690 0.558707 0.307082
0.087234 0.565156 0.303349
0.092232 0.581316 0.315663
0.101492 0.611929 0.341815
0.114133 0.631625 0.364056
0.135338 0.646937 0.385167
0.197964 0.689531 0.414145
0.306846 0.728810 0.420585
0.616717 0.777550 0.385665
0.767193 0.834399 0.476041
0.826647 0.862151 0.542152
0.854111 0.872312 0.575132
0.872247 0.877728 0.598531
0.884403 0.878980 0.609570
0.892696 0.879067 0.614133
0.898118 0.876610 0.614937
0.063299 0.601458 0.330211
0.089092 0.608003 0.327347
0.089060 0.623137 0.339700
0.089575 0.653038 0.367512
0.092986 0.670413 0.390880
0.112788 0.688944 0.417597
0.196553 0.741890 0.455024
0.324462 0.785381 0.478623
0.601367 0.829212 0.462367
0.762946 0.877067 0.513849
0.837817 0.905707 0.570060
0.870040 0.915050 0.597127
0.887483 0.921199 0.620845
0.900490 0.922994 0.633967
0.907585 0.922586 0.638356
0.915270 0.922611 0.640043
-0.077778 -0.224228 -0.095307
0.074469 -0.226437 -0.097263
0.117103 -0.233229 -0.109923
0.180453 -0.240444 -0.119315
0.235432 -0.246152 -0.127528
0.287522 -0.253744 -0.136266
0.350890 -0.268324 -0.149806
0.403934 -0.284031 -0.157669
0.447624 -0.299521 -0.164393
0.487143 -0.314218 -0.180789
0.525808 -0.322772 -0.198718
0.563730 -0.324483 -0.211624
0.595136 -0.322443 -0.220101
0.618795 -0.320049 -0.225287
0.633781 -0.318079 -0.227625
0.644877 -0.316399 -0.228481
-0.073084 0.080873 0.082430
0.074495 0.082962 0.083377
0.119538 0.078367 0.066898
0.186171 0.075867 0.057755
0.241389 0.082984 0.056374
0.295172 0.089771 0.057402
0.355086 0.096359 0.057343
0.411936 0.107353 0.059083
0.464936 0.118517 0.061465
0.515310 0.127677 0.061655
0.560405 0.137173 0.060264
0.599789 0.151734 0.057638
0.629998 0.167458 0.056021
0.652302 0.177536 0.055004
0.667096 0.183939 0.054435
0.678238 0.187975 0.053956
-0.076592 0.101117 0.093910
0.072223 0.102226 0.092341
0.131439 0.115636 0.077846
0.215769 0.112548 0.065553
0.276439 0.113388 0.064011
0.339727 0.119983 0.063162
0.395939 0.128669 0.063505
0.447581 0.138093 0.064387
0.494695 0.150010 0.064134
0.539324 0.160738 0.062479
0.580977 0.171005 0.060183
0.620098 0.184515 0.057180
0.649648 0.197714 0.055214
0.669721 0.205751 0.054380
0.682994 0.210550 0.054066
0.693813 0.214561 0.053687
-0.086609 0.136003 0.112404
0.038700 0.139848 0.109594
0.099179 0.145728 0.103065
0.227870 0.164692 0.077364
0.321464 0.161830 0.074496
0.385425 0.163756 0.070254
0.441660 0.173953 0.068010
0.489787 0.184137 0.065787
0.530115 0.194818 0.063512
0.570817 0.206215 0.060909
0.612097 0.215611 0.058120
0.648242 0.224084 0.055087
0.675442 0.233544 0.054065
0.693892 0.239345 0.054186
0.706267 0.242866 0.054549
0.716643 0.245400 0.054790
-0.088330 0.168609 0.128531
0.037910 0.170582 0.124267
-0.030921 0.186828 0.125735
0.172669 0.202362 0.091630
0.357618 0.242208 0.077379
0.439806 0.238283 0.072695
0.484957 0.248489 0.067764
0.526875 0.257128 0.065308
0.564978 0.262792 0.063430
0.599772 0.267397 0.061821
0.634928 0.271383 0.060364
0.667542 0.275878 0.059053
0.693410 0.278638 0.058685
0.712948 0.281056 0.058761
0.725717 0.281077 0.058846
0.736631 0.282114 0.059324
-0.090205 0.210158 0.152051
0.039150 0.211250 0.147288
-0.032250 0.239953 0.151572
-0.059298 0.260958 0.125115
0.325165 0.329073 0.082966
0.491346 0.350339 0.085539
0.551237 0.344612 0.078205
0.585049 0.338682 0.073471
0.617571 0.337027 0.072809
0.646303 0.336878 0.071817
0.674037 0.336163 0.070178
0.700576 0.333461 0.068281
0.723796 0.333425 0.067892
0.740529 0.334265 0.068739
0.751595 0.332993 0.069071
0.761308 0.332132 0.069543
-0.090005 0.262556 0.181814
0.038723 0.264571 0.176201
0.030808 0.300140 0.182515
-0.075337 0.330298 0.181344
0.177186 0.362840 0.116284
0.479806 0.432408 0.120916
0.598265 0.438881 0.122366
0.651818 0.430000 0.102265
0.684500 0.418577 0.090662
0.715546 0.414013 0.085738
0.743331 0.412770 0.082599
0.768449 0.408856 0.080269
0.787436 0.404161 0.079355
0.800176 0.401559 0.079968
0.809518 0.399516 0.081163
0.816894 0.398001 0.081952
-0.080806 0.317172 0.215563
0.040380 0.320207 0.211161
0.041319 0.352117 0.219261
0.026564 0.373194 0.213173
-0.098649 0.404752 0.187591
0.366609 0.461803 0.132384
0.587556 0.511841 0.157489
0.698040 0.511702 0.128547
0.750052 0.506375 0.108340
0.785755 0.501484 0.099313
0.810536 0.495421 0.093546
0.830367 0.490039 0.090637
0.848540 0.488634 0.092803
0.860454 0.487062 0.096144
0.867019 0.483422 0.098544
0.874146 0.482408 0.101556
-0.061464 0.369011 0.247703
0.043995 0.371098 0.242186
0.051161 0.393224 0.245137
0.064474 0.417372 0.239042
0.023975 0.427640 0.217497
0.143193 0.479233 0.160954
0.498773 0.547801 0.154691
0.693588 0.574886 0.135789
0.791756 0.581681 0.123171
0.836673 0.585618 0.116920
0.860881 0.584153 0.112722
0.879364 0.584362 0.113548
0.893410 0.585167 0.119599
0.902492 0.583020 0.124421
0.907353 0.577167 0.128239
0.913280 0.576598 0.135628
0.022024 0.413183 0.273844
0.053802 0.415161 0.266980
0.064259 0.429722 0.266528
0.079313 0.458098 0.258581
0.085018 0.469043 0.243843
0.074913 0.499835 0.224679
0.297908 0.543469 0.134484
0.643905 0.609868 0.130823
0.793204 0.641363 0.136270
0.855460 0.660679 0.159783
0.881098 0.670735 0.178558
0.895684 0.672957 0.191188
0.900869 0.678202 0.230721
0.901533 0.680048 0.266845
0.901966 0.674704 0.284503
0.904927 0.674331 0.301668
0.034028 0.447788 0.288077
0.066780 0.449627 0.280232
0.075694 0.463967 0.280754
0.087239 0.496077 0.277804
0.096412 0.514933 0.268006
0.098861 0.528889 0.272615
0.166848 0.567182 0.201617
0.568057 0.626948 0.123685
0.778214 0.689889 0.146653
0.852744 0.718447 0.207540
0.873762 0.748865 0.289235
0.876055 0.758645 0.350115
0.877345 0.761813 0.400784
0.884610 0.761043 0.431229
0.888713 0.756545 0.444648
0.894459 0.754979 0.458999
0.045761 0.484943 0.307357
0.076983 0.488721 0.300757
0.083767 0.501237 0.298393
0.093029 0.534173 0.302791
0.100747 0.561564 0.307283
0.110857 0.573008 0.312935
0.131331 0.614076 0.319985
0.471895 0.648863 0.157410
0.760147 0.720552 0.152101
0.837723 0.766596 0.263368
0.851340 0.799671 0.407732
0.873159 0.823018 0.488250
0.883846 0.824832 0.522287
0.889290 0.818852 0.535838
0.893397 0.809808 0.530734
0.898474 0.805514 0.533349
0.052755 0.519080 0.322477
0.083483 0.524029 0.317125
0.089098 0.537444 0.318044
0.096623 0.570388 0.332667
0.106659 0.598328 0.349032
0.119897 0.611345 0.360597
0.160776 0.649877 0.385812
0.348285 0.681196 0.309928
0.699114 0.746992 0.271494
0.800009 0.811371 0.424884
0.842229 0.838246 0.514628
0.867237 0.851639 0.562183
0.884128 0.859631 0.590974
0.889955 0.855174 0.596859
0.893924 0.849465 0.598064
0.899103 0.844624 0.594535
0.056257 0.546512 0.335258
0.086642 0.552099 0.331625
0.091728 0.566834 0.338807
0.100159 0.597162 0.359674
0.112208 0.620754 0.379368
0.127990 0.634138 0.394057
0.183628 0.673116 0.420142
0.321746 0.711188 0.404982
0.651927 0.768744 0.368717
0.784966 0.830867 0.493589
0.835591 0.857651 0.561274
0.859265 0.867497 0.595033
0.877539 0.871405 0.615733
0.888815 0.873805 0.626833
0.893080 0.869558 0.627941
0.898484 0.867018 0.628833
0.058140 0.566093 0.346069
0.088219 0.571820 0.343361
0.093245 0.585521 0.352705
0.102375 0.614904 0.376893
0.114876 0.634838 0.398286
0.135559 0.649418 0.417551
0.197920 0.692004 0.446201
0.306830 0.731571 0.455524
0.610357 0.778399 0.425062
0.766013 0.837190 0.511353
0.826186 0.864039 0.572142
0.853787 0.873604 0.601941
0.872030 0.878525 0.623810
0.884234 0.879528 0.634353
0.892547 0.880015 0.638715
0.898053 0.877245 0.639379
0.064551 0.609043 0.370393
0.090596 0.614776 0.368258
0.090664 0.627831 0.377343
0.090801 0.656369 0.403689
0.093460 0.673912 0.426055
0.112496 0.692005 0.450686
0.195456 0.744663 0.487276
0.324840 0.788358 0.512708
0.591288 0.829098 0.499460
0.760362 0.879300 0.548044
0.835895 0.907235 0.600103
0.868186 0.916341 0.625345
0.885765 0.922328 0.647449
0.898493 0.923438 0.660029
0.905861 0.923448 0.664091
0.913623 0.923284 0.665667
-0.074270 -0.225063 -0.088812
0.079372 -0.226784 -0.089514
0.108168 -0.231632 -0.096352
0.180441 -0.241402 -0.116535
0.237316 -0.248668 -0.129996
0.290102 -0.256727 -0.140537
0.352193 -0.269444 -0.152996
0.413339 -0.284944 -0.162686
0.463663 -0.300351 -0.170031
0.508018 -0.315186 -0.186216
0.555565 -0.324959 -0.206777
0.596296 -0.326633 -0.220862
0.627747 -0.324989 -0.228921
0.649977 -0.322547 -0.233895
0.663474 -0.320587 -0.236217
0.672385 -0.319385 -0.237037
-0.069980 0.088189 0.114093
0.078406 0.090038 0.117869
0.106670 0.091599 0.115334
0.188876 0.074061 0.096636
0.251804 0.069050 0.084120
0.310142 0.073293 0.077557
0.369791 0.080866 0.072994
0.429209 0.092432 0.071579
0.490044 0.102622 0.070807
0.543982 0.110621 0.068843
0.590301 0.125407 0.066552
0.627591 0.144658 0.063865
0.656975 0.158967 0.062208
0.677506 0.169492 0.061114
0.690572 0.176460 0.060283
0.700247 0.181068 0.059720
-0.079009 0.108809 0.122976
0.071435 0.109719 0.128974
0.102908 0.117246 0.123440
0.206158 0.099313 0.085218
0.272270 0.092631 0.075386
0.334340 0.099689 0.072541
0.391823 0.108813 0.071444
0.450107 0.118409 0.070925
0.503749 0.129441 0.070466
0.554678 0.139322 0.067889
0.600269 0.153100 0.064298
0.637435 0.171227 0.061150
0.665675 0.185509 0.059946
0.686007 0.194992 0.059742
0.700093 0.201782 0.059886
0.710968 0.207670 0.060394
-0.086530 0.146255 0.139544
0.040356 0.151544 0.144029
0.053314 0.159555 0.146362
0.207591 0.162052 0.113737
0.308744 0.147031 0.087448
0.374772 0.145576 0.081085
0.435133 0.155189 0.077664
0.486714 0.165130 0.074858
0.530538 0.175387 0.071505
0.576281 0.185259 0.067817
0.620113 0.197543 0.064144
0.657843 0.210296 0.060456
0.683346 0.220947 0.059712
0.702127 0.228509 0.060071
0.715033 0.233306 0.060789
0.725389 0.237313 0.061821
-0.089227 0.184491 0.162089
0.039313 0.189949 0.163747
-0.043435 0.205115 0.162281
0.119079 0.203400 0.151670
0.330717 0.236844 0.101726
0.429211 0.221311 0.087392
0.477902 0.227151 0.079388
0.523892 0.236769 0.074727
0.562477 0.242254 0.070836
0.599233 0.246538 0.067860
0.641757 0.250386 0.064795
0.681171 0.256221 0.062302
0.708348 0.261682 0.061975
0.726428 0.267370 0.063236
0.738175 0.270011 0.064247
0.747914 0.272314 0.065320
-0.089870 0.226630 0.187660
0.039521 0.231452 0.188092
0.013587 0.253305 0.184789
-0.074673 0.262303 0.174559
0.238922 0.293255 0.127264
0.472200 0.346400 0.110110
0.542149 0.333156 0.090808
0.577467 0.324636 0.079373
0.611906 0.321960 0.077357
0.644381 0.321087 0.075936
0.675923 0.319406 0.074101
0.706120 0.317094 0.072323
0.733251 0.319383 0.072103
0.752146 0.322504 0.073624
0.765575 0.324373 0.075345
0.776650 0.325656 0.076525
-0.087029 0.273949 0.212360
0.039695 0.279727 0.211689
0.035727 0.312689 0.214919
-0.045766 0.329112 0.202852
-0.062056 0.357170 0.170879
0.443505 0.422312 0.142405
0.586242 0.436447 0.143162
0.647932 0.425533 0.117575
0.683017 0.412241 0.099429
0.715774 0.405451 0.093221
0.745206 0.401467 0.088474
0.772293 0.397251 0.085779
0.793580 0.395844 0.086508
0.809023 0.396799 0.088762
0.820461 0.398857 0.091886
0.829712 0.400751 0.095055
-0.075190 0.328417 0.246301
0.041918 0.334180 0.245133
0.043143 0.363487 0.246830
0.048949 0.380502 0.235830
-0.091846 0.395909 0.222199
0.248833 0.445124 0.171199
0.563052 0.511069 0.189820
0.693071 0.518590 0.164376
0.752388 0.509270 0.123794
0.788868 0.500837 0.110171
0.816730 0.495145 0.102392
0.839119 0.490518 0.099598
0.859305 0.491857 0.104172
0.872449 0.493627 0.110777
0.880266 0.492263 0.114986
0.888635 0.494241 0.119149
-0.050501 0.382166 0.277644
0.046673 0.386857 0.275107
0.053304 0.405004 0.275458
0.069036 0.428087 0.269217
0.062452 0.431234 0.247024
-0.047138 0.471805 0.222636
0.437254 0.541037 0.183111
0.676979 0.583791 0.176923
0.791617 0.587729 0.141562
0.843044 0.592012 0.130436
0.867474 0.589873 0.125584
0.885591 0.590903 0.127902
0.898868 0.593269 0.140653
0.906781 0.593060 0.153861
0.909347 0.591026 0.172134
0.913417 0.593431 0.190235
0.025566 0.429377 0.306275
0.059024 0.432504 0.301820
0.067284 0.442055 0.298526
0.082469 0.469739 0.291275
0.090494 0.478668 0.270485
0.066472 0.495111 0.265294
0.215082 0.541930 0.187724
0.607817 0.614042 0.162766
0.786695 0.647287 0.150801
0.857072 0.668469 0.179316
0.882892 0.678291 0.201183
0.894534 0.682079 0.227127
0.892996 0.692644 0.292013
0.891652 0.696204 0.337085
0.893294 0.691223 0.353638
0.896298 0.692231 0.375466
0.041211 0.469313 0.327924
0.073673 0.474441 0.324945
0.078877 0.479764 0.317472
0.090519 0.508435 0.312734
0.098839 0.529984 0.300807
0.104578 0.536407 0.296599
0.136396 0.576586 0.267922
0.503132 0.626034 0.150289
0.772241 0.695337 0.155819
0.851981 0.727545 0.230371
0.865962 0.761426 0.334527
0.871913 0.769755 0.393171
0.878278 0.772287 0.443216
0.886046 0.770999 0.470806
0.890711 0.764694 0.476298
0.896347 0.761810 0.485656
0.051332 0.507376 0.344115
0.082834 0.513625 0.342320
0.087277 0.518067 0.333884
0.095462 0.543984 0.334943
0.103026 0.575465 0.339895
0.112357 0.585808 0.340903
0.135155 0.621093 0.357906
0.394358 0.650960 0.214227
0.744257 0.723940 0.178182
0.826615 0.777536 0.313581
0.851153 0.808856 0.445653
0.874883 0.830469 0.516343
0.884363 0.830152 0.539950
0.889704 0.823871 0.552596
0.893758 0.814914 0.547555
0.898741 0.809620 0.546695
0.057800 0.543591 0.360238
0.088683 0.549767 0.358599
0.092213 0.555801 0.353546
0.099043 0.578647 0.363188
0.109259 0.608743 0.377574
0.122171 0.621238 0.387033
0.168338 0.658175 0.411748
0.335793 0.690886 0.358464
0.684490 0.758965 0.331904
0.801586 0.819165 0.462314
0.845779 0.841292 0.528604
0.869519 0.851780 0.568134
0.884708 0.858997 0.595144
0.890137 0.855680 0.600304
0.893993 0.850854 0.603161
0.899258 0.846428 0.600381
0.061349 0.573159 0.376693
0.091717 0.578666 0.375239
0.095390 0.586058 0.374701
0.102427 0.603852 0.385316
0.114255 0.628515 0.401972
0.129751 0.639771 0.413292
0.188773 0.680121 0.437936
0.326387 0.718497 0.429146
0.653721 0.778299 0.410284
0.789200 0.836858 0.516545
0.838935 0.858475 0.566921
0.862598 0.865187 0.593397
0.879200 0.869214 0.613975
0.889317 0.871628 0.625648
0.893534 0.867983 0.627156
0.898639 0.866674 0.629968
0.063675 0.592434 0.387415
0.093696 0.597741 0.386228
0.097740 0.606613 0.389532
0.104734 0.621562 0.400938
0.117082 0.641276 0.418154
0.136948 0.653459 0.432610
0.198401 0.694232 0.455751
0.312632 0.733647 0.464007
0.621303 0.782580 0.439170
0.774332 0.841289 0.525744
0.830317 0.863959 0.575679
0.856938 0.872112 0.601738
0.873638 0.875996 0.621287
0.885057 0.877540 0.633238
0.892987 0.878536 0.639015
0.898341 0.875855 0.639934
0.069568 0.634630 0.409689
0.095624 0.639962 0.408666
0.095785 0.650571 0.414929
0.095159 0.665351 0.429132
0.097740 0.680576 0.446799
0.115900 0.696899 0.465954
0.192580 0.744234 0.493521
0.323822 0.785855 0.511572
0.605326 0.828736 0.495976
0.773112 0.881760 0.552776
0.841331 0.906099 0.599772
0.870095 0.915276 0.625844
0.886060 0.920527 0.646942
0.897317 0.922027 0.660273
0.904597 0.922594 0.666596
0.912405 0.922567 0.669631
-0.072635 -0.231638 0.057901
0.082174 -0.233263 0.069135
0.117916 -0.235612 0.090035
0.172619 -0.241199 0.072524
0.237364 -0.248822 -0.085062
0.293574 -0.258486 -0.127598
0.350997 -0.269727 -0.142775
0.415886 -0.284717 -0.151111
0.471145 -0.300482 -0.158809
0.521299 -0.315546 -0.176931
0.578293 -0.324213 -0.199557
0.628856 -0.325277 -0.217373
0.661636 -0.322823 -0.225805
0.681803 -0.321292 -0.231348
0.691786 -0.321364 -0.234436
0.698083 -0.321824 -0.235791
-0.067610 0.096802 0.156497
0.077097 0.097236 0.165205
0.112524 0.105596 0.172654
0.170522 0.104388 0.172543
0.253376 0.075564 0.139166
0.313718 0.066817 0.105112
0.373185 0.073640 0.099250
0.437106 0.083347 0.093752
0.504017 0.088374 0.086670
0.562779 0.098230 0.084215
0.615494 0.127382 0.082092
0.657550 0.152528 0.078276
0.687612 0.166725 0.075945
0.707219 0.175692 0.074538
0.717939 0.178839 0.073600
0.724572 0.179297 0.072837
-0.082049 0.124239 0.161204
0.063788 0.123912 0.172864
0.101406 0.126393 0.174893
0.176633 0.129844 0.170146
0.278614 0.087392 0.122445
0.343314 0.083601 0.097652
0.403311 0.093983 0.091493
0.464702 0.105487 0.088539
0.524401 0.114143 0.085500
0.579601 0.127192 0.081612
0.629261 0.152497 0.077128
0.665710 0.170213 0.073016
0.691770 0.183922 0.071581
0.709309 0.194251 0.071546
0.720592 0.201788 0.071947
0.729873 0.206934 0.072016
-0.086832 0.158571 0.169499
0.039555 0.163786 0.177068
0.050283 0.175482 0.196011
0.161263 0.173482 0.180749
0.297942 0.133619 0.116912
0.368048 0.120282 0.092178
0.427450 0.133260 0.090346
0.481787 0.141318 0.087151
0.532745 0.152190 0.082417
0.582344 0.163884 0.077717
0.630301 0.181010 0.072824
0.666131 0.197208 0.069507
0.693970 0.210000 0.068270
0.714382 0.221041 0.069586
0.728954 0.229544 0.072260
0.740583 0.235340 0.074125
-0.088924 0.198914 0.193766
0.039522 0.204521 0.197612
-0.004270 0.226031 0.212018
-0.050706 0.231666 0.211622
0.301383 0.246204 0.172818
0.419775 0.210945 0.111361
0.471476 0.202700 0.093719
0.518654 0.211241 0.087230
0.559278 0.217530 0.081781
0.598531 0.222100 0.076985
0.645651 0.229764 0.072134
0.686129 0.239444 0.069173
0.714776 0.247574 0.068782
0.734123 0.255832 0.071227
0.748711 0.263465 0.074369
0.760631 0.269184 0.076845
-0.088351 0.238134 0.215817
0.039747 0.243215 0.217889
0.034306 0.275015 0.235506
-0.060861 0.284403 0.224769
0.140494 0.282627 0.210293
0.443708 0.345319 0.160666
0.533495 0.325602 0.121543
0.571942 0.310858 0.091690
0.605016 0.304132 0.084333
0.638551 0.300839 0.080969
0.675366 0.297383 0.077992
0.714672 0.296740 0.075770
0.745922 0.303632 0.077320
0.766399 0.311238 0.080891
0.780586 0.318048 0.085372
0.792957 0.323653 0.089424
-0.083280 0.285377 0.240401
0.040600 0.290869 0.242028
0.040793 0.327725 0.259923
0.031387 0.342002 0.244526
-0.104284 0.354712 0.230102
0.361628 0.401734 0.192082
0.573483 0.439844 0.184243
0.641256 0.418936 0.137467
0.677391 0.401423 0.107328
0.712252 0.391502 0.099013
0.742981 0.384652 0.093584
0.772148 0.380614 0.091760
0.798378 0.385640 0.096246
0.818256 0.393183 0.102381
0.832415 0.399219 0.107976
0.845358 0.405298 0.113305
-0.069046 0.339376 0.273802
