assets/luts/Vivid_LUTs_5.cube
LUT_3D_SIZE 6
0.000702 0.001923 0.000641
0.109731 0.010661 0.005396
0.361234 0.029723 0.002561
0.662687 0.067764 0.000031
0.698519 0.072090 0.000031
0.751812 0.073727 0.000031
0.018917 0.127304 0.031669
0.123251 0.109183 0.015712
0.360801 0.090498 0.008832
0.659331 0.096485 0.002667
0.720370 0.087318 0.000108
0.770257 0.085624 0.000031
0.045118 0.358395 0.064692
0.080955 0.335236 0.052724
0.395513 0.345613 0.026690
0.732952 0.330458 0.023556
0.858371 0.290654 0.020882
0.914167 0.281210 0.020135
0.194320 0.596930 0.073565
0.191727 0.586290 0.073644
0.330576 0.565671 0.057112
0.676468 0.613390 0.036295
0.947408 0.586220 0.036684
1.014665 0.577545 0.036418
0.243723 0.889786 0.066273
0.255006 0.878183 0.067052
0.314379 0.865679 0.067290
0.585405 0.872175 0.050912
0.942653 0.878456 0.050064
1.023920 0.867091 0.049170
0.236441 0.915004 0.063859
0.245381 0.916784 0.063131
0.276323 0.922540 0.061257
0.526196 0.957179 0.053190
0.898346 0.998646 0.106194
1.022863 0.998755 0.112554
0.051796 0.154101 0.201822
0.135131 0.079396 0.135574
0.338844 0.030696 0.064275
0.663424 0.063600 0.056648
0.709475 0.067458 0.037123
0.765799 0.068669 0.030899
0.065501 0.200167 0.200204
0.126447 0.154409 0.136071
0.343634 0.086058 0.047765
0.649109 0.093188 0.030566
0.720864 0.083560 0.010873
0.774762 0.083300 0.008308
0.085061 0.362962 0.141890
0.093903 0.340867 0.107154
0.390939 0.341624 0.040661
0.726987 0.325823 0.032491
0.856162 0.286615 0.026529
0.911815 0.277301 0.025643
0.190893 0.594526 0.092564
0.188491 0.584167 0.093679
0.326454 0.564488 0.072792
0.673862 0.610624 0.042961
0.949084 0.584162 0.039012
1.016389 0.575530 0.038870
0.244595 0.887078 0.073888
0.255326 0.875773 0.074828
0.312999 0.863559 0.077215
0.582863 0.869009 0.060328
0.942888 0.876852 0.051933
1.026168 0.865383 0.051050
0.235753 0.916588 0.071188
0.244682 0.918333 0.070615
0.273999 0.923750 0.069643
0.524195 0.958569 0.058446
0.893957 0.998645 0.124529
1.023186 0.998755 0.129764
0.039594 0.353606 0.525174
0.131687 0.321528 0.468419
0.418131 0.213327 0.366554
0.687065 0.120366 0.355464
0.714677 0.094471 0.314289
0.764532 0.089356 0.301680
0.084781 0.375129 0.505715
0.134000 0.353907 0.472054
0.388117 0.230518 0.335231
0.650296 0.126328 0.299550
0.708317 0.089461 0.252128
0.759121 0.086582 0.241616
0.199152 0.478448 0.488339
0.203381 0.462730 0.471192
0.393664 0.399686 0.371305
0.702825 0.333172 0.282955
0.843829 0.288101 0.221110
0.899132 0.277729 0.209553
0.268669 0.634303 0.406130
0.264207 0.621432 0.392561
0.325530 0.596761 0.317255
0.667829 0.605202 0.221771
0.948075 0.575616 0.181839
1.015153 0.567377 0.172635
0.241202 0.888577 0.174402
0.252814 0.876314 0.163802
0.307727 0.861177 0.147839
0.576555 0.862576 0.095275
0.940968 0.870159 0.058750
1.027944 0.858925 0.056142
0.232996 0.921452 0.101899
0.242636 0.922145 0.094377
0.268971 0.924963 0.081463
0.518316 0.958872 0.068125
0.885991 0.998559 0.142845
1.023407 0.998902 0.146518
0.192764 0.510278 0.756728
0.208354 0.501962 0.743826
0.399339 0.452574 0.690906
0.710183 0.479918 0.708961
0.756732 0.450797 0.704111
0.813908 0.439254 0.701466
0.190554 0.526429 0.746861
0.203760 0.518758 0.737593
0.355507 0.463024 0.661991
0.681794 0.452910 0.665705
0.766952 0.408615 0.668420
0.825183 0.397914 0.665502
0.226781 0.590008 0.723521
0.232564 0.579028 0.713221
0.365700 0.564000 0.678068
0.675036 0.536192 0.646220
0.828132 0.478327 0.640922
0.888014 0.465110 0.633443
0.289580 0.716463 0.705527
0.300162 0.706064 0.696011
0.398079 0.703437 0.689561
0.659113 0.671309 0.628858
0.918101 0.603711 0.570307
0.983502 0.594761 0.561573
0.173493 0.926241 0.628417
0.205748 0.911141 0.615138
0.296104 0.884924 0.588660
0.557322 0.870914 0.514590
0.936366 0.859262 0.460025
1.028512 0.847845 0.447945
0.195901 0.952580 0.543126
0.214390 0.949761 0.526900
0.244422 0.947277 0.495892
0.502486 0.967541 0.436783
0.876342 0.998557 0.435452
1.023260 0.998764 0.436763
0.208815 0.522645 0.772886
0.227255 0.523370 0.772258
0.379331 0.496524 0.731660
0.706711 0.537282 0.779193
0.744712 0.558004 0.790582
0.796117 0.561355 0.793530
0.224040 0.555024 0.790494
0.235957 0.554350 0.791361
0.341149 0.522591 0.744963
0.677838 0.530748 0.774855
0.746429 0.564353 0.792493
0.797926 0.567701 0.795431
0.209786 0.635620 0.818896
0.222057 0.629340 0.816236
0.345711 0.615697 0.798527
0.626386 0.615316 0.809153
0.768001 0.651020 0.818805
0.819150 0.650716 0.820015
0.067657 0.753241 0.849966
0.091764 0.749459 0.851162
0.319682 0.730559 0.837250
0.558930 0.739058 0.864367
0.813194 0.768794 0.860603
0.869366 0.765413 0.858423
0.046084 0.886005 0.848344
0.048123 0.881177 0.847480
0.060570 0.889056 0.863743
0.479900 0.898757 0.877979
0.900159 0.887092 0.852093
0.995928 0.874730 0.842521
0.046203 0.928886 0.836594
0.048549 0.932718 0.833017
0.052933 0.940809 0.824940
0.408747 0.996268 0.836171
0.874184 0.998995 0.816394
1.028664 0.999003 0.834268
0.218180 0.530068 0.782536
0.234387 0.531133 0.782427
0.374212 0.506156 0.740815
0.704508 0.542574 0.789650
0.745176 0.565278 0.801599
0.796018 0.570078 0.804184
0.231164 0.560569 0.799182
0.241924 0.560024 0.800155
0.338543 0.529651 0.756474
0.674900 0.535588 0.785700
0.746824 0.571509 0.803441
0.797728 0.576310 0.806010
0.208005 0.638891 0.828087
0.220568 0.632779 0.825400
0.341571 0.618352 0.807102
0.616352 0.617344 0.818260
0.766693 0.653194 0.827591
0.817203 0.654167 0.828474
0.054820 0.749124 0.855051
0.065793 0.751981 0.862802
0.306911 0.729588 0.845516
0.548188 0.735421 0.874768
0.806868 0.769118 0.876184
0.860966 0.768748 0.875329
0.045960 0.882610 0.859559
0.047564 0.876736 0.859673
0.055197 0.874905 0.873324
0.444995 0.897578 0.924866
0.870546 0.897954 0.949491
0.963099 0.894040 0.950361
0.046168 0.931385 0.878266
0.048699 0.935293 0.882295
0.052272 0.940970 0.888095
0.340500 0.998879 0.949944
0.876273 0.999244 0.971911
1.054493 0.999359 0.998871
