assets/luts/Vivid_LUTs_5.cube
LUT_3D_SIZE 16
0.000702 0.001923 0.000641
0.014512 0.003447 0.001452
0.051292 0.006932 0.004382
0.109731 0.010661 0.005396
0.184166 0.015399 0.005245
0.268479 0.021714 0.003884
0.361234 0.029723 0.002561
0.462268 0.041047 0.000291
0.566329 0.055350 0.000031
0.662687 0.067764 0.000031
0.686393 0.070591 0.000031
0.692462 0.071341 0.000031
0.698519 0.072090 0.000031
0.704588 0.072839 0.000031
0.710633 0.073587 0.000031
0.751812 0.073727 0.000031
0.005051 0.019824 0.007187
0.013714 0.016645 0.005128
0.048811 0.014376 0.005168
0.103273 0.014213 0.005866
0.176089 0.017807 0.005698
0.259542 0.023555 0.004292
0.351767 0.031568 0.002892
0.452962 0.042788 0.000849
0.558815 0.056735 0.000034
0.661471 0.069760 0.000031
0.690443 0.073260 0.000031
0.696576 0.074030 0.000031
0.702634 0.074778 0.000031
0.708703 0.075529 0.000031
0.714747 0.076276 0.000031
0.756156 0.076414 0.000031
0.013234 0.068099 0.020756
0.017533 0.063827 0.018871
0.057252 0.057022 0.012742
0.119163 0.053033 0.010326
0.183946 0.045929 0.009099
0.258511 0.041786 0.006391
0.342880 0.041902 0.004127
0.438403 0.047026 0.001968
0.545031 0.058577 0.000245
0.652584 0.071068 0.000031
0.694458 0.075917 0.000031
0.700634 0.076701 0.000031
0.706749 0.077467 0.000031
0.712818 0.078218 0.000031
0.718862 0.078964 0.000031
0.760498 0.079100 0.000031
0.018917 0.127304 0.031669
0.021689 0.122934 0.030323
0.050785 0.112338 0.022730
0.123251 0.109183 0.015712
0.209426 0.111201 0.013899
0.282454 0.099019 0.011815
0.360801 0.090498 0.008832
0.448574 0.089015 0.007353
0.549083 0.092432 0.005412
0.659331 0.096485 0.002667
0.717713 0.095642 0.000984
0.717515 0.089513 0.000357
0.720370 0.087318 0.000108
0.722995 0.085451 0.000036
0.728189 0.085557 0.000031
0.770257 0.085624 0.000031
0.023729 0.197333 0.040021
0.026694 0.193417 0.038745
0.040321 0.183829 0.034388
0.110041 0.166684 0.024122
0.205366 0.177074 0.019684
0.311329 0.186598 0.016762
0.395236 0.172408 0.015256
0.478924 0.159268 0.013108
0.570280 0.151606 0.011950
0.673427 0.150008 0.010231
0.752401 0.147990 0.008272
0.753482 0.138725 0.006813
0.757053 0.134740 0.006070
0.760977 0.131051 0.005368
0.766668 0.130262 0.005082
0.810984 0.130197 0.005040
0.031121 0.274730 0.051167
0.033798 0.271122 0.049869
0.037167 0.264125 0.047815
0.094394 0.244859 0.035693
0.188092 0.232503 0.028435
0.298478 0.257603 0.023807
0.416186 0.270178 0.019292
0.513520 0.257352 0.018926
0.607090 0.242335 0.018364
0.704650 0.229847 0.017192
0.792669 0.219738 0.015586
0.799025 0.206846 0.014311
0.800557 0.200605 0.013658
0.802868 0.195507 0.013046
0.807794 0.194186 0.012797
0.854236 0.193962 0.012752
0.045118 0.358395 0.064692
0.048056 0.354681 0.063253
0.050291 0.348353 0.061453
0.080955 0.335236 0.052724
0.172847 0.310967 0.038639
0.277752 0.313059 0.033129
0.395513 0.345613 0.026690
0.518317 0.355537 0.023297
0.627898 0.344423 0.023717
0.732952 0.330458 0.023556
0.833138 0.315860 0.022717
0.857686 0.300041 0.021564
0.858371 0.290654 0.020882
0.860188 0.283863 0.020364
0.864659 0.281660 0.020174
0.914167 0.281210 0.020135
0.089017 0.438585 0.071774
0.090213 0.435713 0.071328
0.090408 0.430837 0.070700
0.092805 0.423128 0.068788
0.161947 0.405812 0.053283
0.262715 0.388391 0.043109
0.372862 0.403405 0.037197
0.491023 0.435704 0.028969
0.617064 0.440133 0.027714
0.736015 0.429881 0.028258
0.850666 0.417487 0.028450
0.903001 0.403187 0.027958
0.906574 0.392816 0.027379
0.909884 0.385940 0.026969
0.914915 0.383646 0.026824
0.967319 0.383072 0.026788
0.144257 0.516883 0.072037
0.144563 0.514754 0.072246
0.143938 0.510962 0.072460
0.141876 0.504561 0.072682
0.171675 0.498725 0.068631
0.247539 0.482713 0.054626
0.356879 0.474821 0.047316
0.466331 0.497256 0.039712
0.583587 0.525505 0.031817
0.713579 0.523464 0.032005
0.839262 0.513640 0.032666
0.925893 0.502146 0.032876
0.934331 0.491616 0.032456
0.939231 0.485199 0.032192
0.944954 0.483117 0.032131
0.999189 0.482502 0.032107
0.194320 0.596930 0.073565
0.194314 0.595080 0.073712
0.193706 0.591864 0.073739
0.191727 0.586290 0.073644
0.197868 0.582608 0.074125
0.245774 0.577550 0.067279
0.330576 0.565671 0.057112
0.446327 0.566867 0.049825
0.554002 0.592970 0.040151
0.676468 0.613390 0.036295
0.810357 0.607218 0.036382
0.930100 0.597052 0.036970
0.947408 0.586220 0.036684
0.953289 0.580085 0.036468
0.959494 0.578187 0.036436
1.014665 0.577545 0.036418
0.239709 0.681466 0.078371
0.239898 0.679473 0.078544
0.239540 0.676375 0.078522
0.237890 0.671300 0.078399
0.235435 0.664411 0.077890
0.261679 0.669260 0.076966
0.318118 0.661505 0.068214
0.414469 0.656856 0.059706
0.530671 0.665198 0.051176
0.641242 0.691071 0.041253
0.771659 0.701923 0.040769
0.907950 0.692016 0.040790
0.952229 0.680558 0.040673
0.958594 0.674342 0.040460
0.965069 0.672445 0.040437
1.020627 0.671673 0.040416
0.258166 0.781350 0.075032
0.260187 0.778573 0.075340
0.261908 0.774686 0.075932
0.263228 0.768815 0.076655
0.264122 0.760597 0.077337
0.278135 0.759727 0.078044
0.321040 0.763455 0.074394
0.393439 0.756673 0.065925
0.498925 0.759646 0.058204
0.614319 0.773604 0.048706
0.735833 0.792729 0.046380
0.870185 0.790305 0.045342
0.953183 0.777462 0.044802
0.960635 0.771019 0.044589
0.967283 0.769037 0.044560
1.023014 0.768031 0.044526
0.243723 0.889786 0.066273
0.247589 0.887054 0.066373
0.251268 0.883497 0.066682
0.255006 0.878183 0.067052
0.258916 0.870073 0.067703
0.267247 0.861948 0.068384
0.314379 0.865679 0.067290
0.380705 0.863834 0.062770
0.472899 0.863753 0.056267
0.585405 0.872175 0.050912
0.708490 0.885149 0.057228
0.835438 0.889852 0.057073
0.942653 0.878456 0.050064
0.961381 0.870434 0.049392
0.968118 0.868018 0.049229
1.023920 0.867091 0.049170
0.241000 0.899217 0.065370
0.243984 0.899812 0.065127
0.246967 0.900405 0.064884
0.249714 0.901080 0.064699
0.252297 0.901816 0.064557
0.255790 0.902497 0.064384
0.293359 0.909489 0.062238
0.358285 0.917846 0.058326
0.448061 0.926196 0.053486
0.554242 0.940603 0.052561
0.679261 0.959165 0.057891
0.803552 0.968184 0.088849
0.927195 0.970577 0.066224
0.963036 0.964698 0.064847
0.969485 0.963012 0.063657
1.025326 0.962273 0.062984
0.238711 0.907139 0.064612
0.241695 0.907733 0.064369
0.244679 0.908327 0.064125
0.247659 0.908921 0.063883
0.250385 0.909607 0.063705
0.253163 0.910253 0.063557
0.280835 0.915685 0.061959
0.343784 0.925274 0.058353
0.429680 0.935173 0.053755
0.532685 0.951514 0.052950
0.655047 0.973361 0.055196
0.780236 0.988032 0.088192
0.905057 0.993545 0.099797
0.961651 0.994081 0.100707
0.967958 0.994051 0.100618
1.023686 0.993991 0.100443
0.236441 0.915004 0.063859
0.239422 0.915598 0.063616
0.242403 0.916191 0.063373
0.245381 0.916784 0.063131
0.248365 0.917378 0.062888
0.251256 0.917985 0.062711
0.276323 0.922540 0.061257
0.339002 0.931512 0.057748
0.423845 0.941320 0.053370
0.526196 0.957179 0.053190
0.647294 0.978721 0.055226
0.772975 0.993713 0.086244
0.898346 0.998646 0.106194
0.961198 0.998763 0.111782
0.967170 0.998758 0.112501
1.022863 0.998755 0.112554
0.013605 0.030525 0.033420
0.023687 0.023685 0.027559
0.055614 0.014754 0.019482
0.108643 0.011656 0.011725
0.181902 0.015334 0.007952
0.266409 0.021690 0.006202
0.359606 0.029661 0.004560
0.460872 0.040973 0.002212
0.566572 0.054764 0.001282
0.665062 0.066810 0.000422
0.689490 0.069584 0.000201
0.695685 0.070347 0.000033
0.701744 0.071095 0.000031
0.707813 0.071846 0.000031
0.713857 0.072593 0.000031
0.755216 0.072734 0.000031
0.012317 0.034552 0.027438
0.017829 0.026393 0.020730
0.049220 0.017094 0.012755
0.102316 0.014779 0.009128
0.174399 0.017697 0.007915
0.257902 0.023510 0.006130
0.350335 0.031577 0.004688
0.451645 0.042727 0.002833
0.557847 0.056662 0.001957
0.661903 0.069441 0.001364
0.691845 0.072917 0.001097
0.698256 0.073608 0.000967
0.704315 0.074357 0.000965
0.710385 0.075107 0.000965
0.716429 0.075854 0.000965
0.757935 0.075994 0.000965
0.015432 0.071988 0.029190
0.019165 0.067138 0.026394
0.057627 0.059024 0.018536
0.117901 0.052738 0.013591
0.181888 0.045187 0.010867
0.256579 0.041064 0.008146
0.341030 0.041266 0.005887
0.437131 0.046896 0.003916
0.543831 0.058458 0.002310
0.652507 0.070695 0.001445
0.695757 0.075615 0.001147
0.702224 0.076313 0.001020
0.708342 0.077079 0.001018
0.714411 0.077829 0.001018
0.720455 0.078575 0.001018
0.762183 0.078712 0.001018
0.021015 0.128805 0.038750
0.023234 0.124696 0.036901
0.051228 0.114107 0.028650
0.122871 0.109841 0.019787
0.208133 0.110463 0.016953
0.280661 0.098225 0.014148
0.359092 0.089766 0.011163
0.446952 0.088349 0.009426
0.547477 0.091803 0.007450
0.657835 0.095999 0.004602
0.717162 0.095299 0.002787
0.717944 0.088740 0.001570
0.720858 0.086630 0.001330
0.723594 0.084842 0.001260
0.729050 0.085123 0.001260
0.771185 0.085195 0.001256
0.026659 0.198467 0.048252
0.028930 0.194734 0.046713
0.041947 0.185348 0.042080
0.109784 0.168121 0.029331
0.204757 0.176996 0.023359
0.310114 0.185774 0.020646
0.393597 0.171434 0.018434
0.477260 0.158334 0.015982
0.568715 0.150859 0.014391
0.671977 0.149389 0.012281
0.751650 0.147506 0.010083
0.752992 0.138289 0.008496
0.756571 0.134292 0.007752
0.760509 0.130580 0.007088
0.766209 0.129801 0.006812
0.810491 0.129731 0.006767
0.034567 0.275427 0.060036
0.037004 0.271750 0.058313
0.040180 0.264914 0.056316
0.094664 0.246237 0.042820
0.187385 0.233284 0.032689
0.297694 0.257215 0.027451
0.415078 0.269225 0.023586
0.512177 0.256385 0.022666
0.605592 0.241448 0.021482
0.703208 0.229083 0.019717
0.791844 0.219158 0.017531
0.798604 0.206294 0.016117
0.800121 0.200029 0.015454
0.802414 0.194913 0.014843
0.807328 0.193573 0.014591
0.853747 0.193354 0.014547
0.049398 0.358225 0.073295
0.051478 0.354669 0.071769
0.053679 0.348439 0.069985
0.082071 0.335889 0.060970
0.171723 0.312040 0.044474
0.277000 0.313258 0.036897
0.394683 0.344900 0.030495
0.517423 0.354738 0.027369
0.626846 0.343609 0.027262
0.731824 0.329679 0.026507
0.832366 0.315131 0.025021
0.857315 0.299277 0.023556
0.858042 0.289948 0.022794
0.859811 0.283150 0.022264
0.864270 0.280933 0.022073
0.913738 0.280456 0.022032
0.090592 0.438418 0.079992
0.091230 0.435713 0.079509
0.091596 0.430894 0.078879
0.093897 0.423249 0.077037
0.160977 0.406476 0.060683
0.261680 0.388935 0.048359
0.372185 0.403118 0.040625
0.490280 0.435040 0.032808
0.616395 0.439477 0.031036
0.735264 0.429248 0.031179
0.849958 0.416875 0.030747
0.902996 0.402599 0.029980
0.906541 0.392153 0.029414
0.909837 0.385256 0.029006
0.914865 0.382958 0.028868
0.967268 0.382393 0.028832
0.143843 0.516716 0.079506
0.144017 0.514596 0.079749
0.143485 0.510860 0.079985
0.141673 0.504543 0.080329
0.170734 0.498751 0.076292
0.246407 0.483018 0.060991
0.356117 0.474949 0.051722
0.465660 0.496750 0.042923
0.582978 0.524847 0.035118
0.713078 0.522937 0.034381
0.838758 0.513198 0.034453
0.926146 0.501731 0.034447
0.934671 0.491105 0.034041
0.939547 0.484647 0.033804
0.945271 0.482618 0.033748
0.999517 0.481989 0.033729
0.193430 0.596648 0.079637
0.193429 0.594739 0.080063
0.192855 0.591532 0.080297
0.190898 0.586019 0.080325
0.196683 0.582208 0.080845
0.244730 0.577454 0.073782
0.329637 0.565739 0.062325
0.445594 0.566623 0.053225
0.553382 0.592316 0.043176
0.675976 0.612861 0.038507
0.810046 0.606888 0.037450
0.929819 0.596768 0.037674
0.948016 0.585935 0.037387
0.953880 0.579765 0.037183
0.960082 0.577857 0.037155
1.015283 0.577206 0.037143
0.239301 0.681055 0.082357
0.239382 0.679050 0.082795
0.238971 0.675977 0.083093
0.237277 0.670905 0.083021
0.234845 0.664062 0.082507
0.260772 0.668771 0.082260
0.317331 0.661298 0.073047
0.413736 0.656671 0.063032
0.530163 0.664772 0.053829
0.640628 0.690402 0.044058
0.771345 0.701556 0.041704
0.907665 0.691738 0.041452
0.952924 0.680219 0.041334
0.959287 0.674016 0.041122
0.965761 0.672121 0.041100
1.021357 0.671351 0.041079
0.258280 0.780787 0.077754
0.260264 0.777994 0.078378
0.261980 0.774117 0.079161
0.263270 0.768313 0.079881
0.264151 0.760139 0.080559
0.277801 0.759072 0.081734
0.320551 0.762987 0.078453
0.392864 0.756323 0.068959
0.498278 0.759201 0.060750
0.613684 0.772837 0.051725
0.735096 0.791935 0.049533
0.869876 0.789896 0.046028
0.953762 0.777206 0.045470
0.961347 0.770629 0.045254
0.967991 0.768553 0.045222
1.023763 0.767571 0.045190
0.243799 0.889276 0.068817
0.247688 0.886368 0.068995
0.251336 0.882999 0.069268
0.255051 0.877681 0.069624
0.258926 0.869590 0.070281
0.267173 0.861445 0.071052
0.314036 0.865232 0.070580
0.380249 0.863425 0.065944
0.472291 0.863166 0.059298
0.584818 0.871448 0.054161
0.707555 0.884085 0.062147
0.834421 0.888860 0.062005
0.942796 0.878120 0.050804
0.962081 0.870020 0.050022
0.968822 0.867702 0.049866
1.024664 0.866797 0.049809
0.240770 0.899746 0.067817
0.243748 0.900328 0.067623
0.246731 0.900921 0.067382
0.249477 0.901596 0.067198
0.252061 0.902332 0.067055
0.255494 0.902920 0.066987
0.292781 0.909783 0.065308
0.357913 0.918116 0.062007
0.447591 0.926425 0.056022
0.553944 0.940750 0.054406
0.678380 0.958693 0.063269
0.802327 0.967486 0.095551
0.926534 0.970162 0.070988
0.963476 0.964334 0.067031
0.969930 0.962660 0.065802
1.025804 0.961927 0.065069
0.238482 0.907669 0.067059
0.241460 0.908250 0.066865
0.244443 0.908844 0.066624
0.247423 0.909437 0.066381
0.250149 0.910123 0.066203
0.252940 0.910769 0.066142
0.280219 0.916109 0.064850
0.343347 0.925731 0.062006
0.429088 0.935646 0.056503
0.532292 0.952034 0.054657
0.654145 0.973384 0.059891
0.778962 0.987771 0.094892
0.903935 0.993535 0.105978
0.961753 0.994081 0.106449
0.968060 0.994051 0.106360
1.023794 0.993991 0.106185
0.236211 0.915533 0.066304
0.239189 0.916115 0.066112
0.242168 0.916707 0.065871
0.245146 0.917300 0.065629
0.248129 0.917895 0.065386
0.251033 0.918501 0.065296
0.275675 0.922959 0.064044
0.338571 0.931982 0.061300
0.423179 0.941792 0.056236
0.525806 0.957702 0.054899
0.646401 0.978761 0.059876
0.771767 0.993468 0.092934
0.897112 0.998646 0.112302
0.961299 0.998763 0.117524
0.967272 0.998758 0.118243
1.022971 0.998755 0.118296
0.035290 0.089281 0.106479
0.043140 0.079644 0.098001
0.071495 0.054630 0.079256
0.115096 0.025899 0.051134
0.175156 0.017205 0.032862
0.256734 0.021819 0.027124
0.352294 0.029896 0.024873
0.455593 0.041212 0.020127
0.567888 0.053354 0.011719
0.668009 0.065331 0.005431
0.694223 0.068015 0.002846
0.700692 0.068691 0.001317
0.706859 0.069469 0.000304
0.712171 0.070495 0.000055
0.717897 0.071347 0.000031
0.759461 0.071495 0.000031
0.034457 0.089545 0.100523
0.038023 0.080473 0.091500
0.064103 0.054770 0.071563
0.107420 0.027958 0.045470
0.168200 0.019412 0.028401
0.249570 0.023546 0.023097
0.344535 0.031721 0.020319
0.447324 0.042923 0.015051
0.556977 0.055932 0.008672
0.664626 0.067969 0.004843
0.696549 0.071338 0.002349
0.702654 0.072175 0.001275
0.707955 0.073229 0.001040
0.713544 0.074137 0.001004
0.719589 0.074884 0.001004
0.761268 0.075025 0.001004
0.035842 0.114762 0.105511
0.037370 0.107857 0.097664
0.065278 0.088657 0.074941
0.117137 0.062047 0.046287
0.176371 0.045206 0.026840
0.250058 0.039723 0.018371
0.336118 0.039773 0.013163
0.433968 0.046605 0.009546
0.541825 0.058014 0.006525
0.652544 0.069870 0.003362
0.697249 0.075230 0.002258
0.703737 0.075929 0.002034
0.710092 0.076631 0.001911
0.716162 0.077381 0.001911
0.722206 0.078128 0.001911
0.764037 0.078269 0.001911
0.038233 0.151833 0.097913
0.038369 0.146213 0.090846
0.058192 0.131444 0.069886
0.124029 0.116423 0.042163
0.205090 0.109383 0.026802
0.276536 0.096395 0.019880
0.355319 0.087959 0.015426
0.443850 0.086757 0.012313
0.544488 0.090404 0.009545
0.655164 0.094880 0.006473
0.716682 0.094294 0.004277
0.717819 0.087616 0.002801
0.720780 0.085539 0.002548
0.724217 0.084237 0.002490
0.729830 0.084615 0.002486
0.772044 0.084709 0.002481
0.035907 0.203992 0.074689
0.036579 0.199272 0.069301
0.046341 0.189744 0.061175
0.109433 0.171326 0.041163
0.203397 0.176728 0.029324
0.307500 0.183754 0.024780
0.390613 0.169365 0.021446
0.474135 0.156248 0.018752
0.565735 0.149056 0.016642
0.669462 0.147952 0.014299
0.750256 0.146391 0.011855
0.752203 0.137345 0.010188
0.755817 0.133368 0.009422
0.759809 0.129729 0.008769
0.765516 0.129004 0.008473
0.809764 0.128963 0.008427
0.039250 0.276057 0.072513
0.041288 0.272270 0.069957
0.043377 0.265091 0.066053
0.094139 0.246804 0.050063
0.185721 0.233214 0.036934
0.296060 0.255967 0.031012
0.413045 0.267490 0.027771
0.509843 0.254500 0.026326
0.603155 0.239728 0.024552
0.700877 0.227567 0.022159
0.790450 0.218026 0.019443
0.797844 0.205253 0.017960
0.799328 0.198950 0.017203
0.801709 0.193966 0.016606
0.806687 0.192710 0.016358
0.853085 0.192508 0.016314
0.053466 0.357128 0.081758
0.055454 0.353728 0.080249
0.056854 0.347771 0.078392
0.083025 0.335860 0.069419
0.169937 0.312593 0.050562
0.275521 0.312831 0.040659
0.393240 0.343645 0.034257
0.515995 0.353304 0.031433
0.625168 0.342190 0.030772
0.730096 0.328320 0.029525
0.831140 0.313910 0.027292
0.856803 0.298253 0.025562
0.857461 0.288859 0.024662
0.859185 0.282028 0.024129
0.863591 0.279723 0.023924
0.913057 0.279305 0.023886
0.091936 0.437620 0.088251
0.092695 0.435020 0.087772
0.092725 0.430411 0.087080
0.095010 0.422869 0.085383
0.159593 0.406698 0.068221
0.260105 0.389066 0.053556
0.371167 0.402474 0.044112
0.489157 0.433942 0.036679
0.615363 0.438431 0.034407
0.734079 0.428233 0.034121
0.848858 0.415909 0.033059
0.902815 0.401647 0.032072
0.906370 0.391140 0.031436
0.909628 0.384173 0.031044
0.914614 0.381764 0.030899
0.967016 0.381230 0.030866
0.143276 0.516166 0.087042
0.143466 0.514052 0.087339
0.143090 0.510435 0.087659
0.141265 0.504164 0.087995
0.169445 0.498351 0.083985
0.244873 0.483011 0.067448
0.354909 0.474742 0.056243
0.464696 0.495913 0.046133
0.581993 0.523831 0.038633
0.712226 0.522125 0.036777
0.837863 0.512436 0.036331
0.926259 0.500858 0.036069
0.934944 0.490298 0.035650
0.939795 0.483847 0.035451
0.945497 0.481809 0.035437
0.999757 0.481204 0.035423
0.192407 0.596056 0.085961
0.192366 0.594007 0.086589
0.191872 0.590947 0.087021
0.189897 0.585448 0.087008
0.195178 0.581385 0.087567
0.243336 0.577022 0.080559
0.328418 0.565484 0.067541
0.444682 0.566120 0.056727
0.552352 0.591344 0.046179
0.675201 0.612032 0.040724
0.809446 0.606287 0.038651
0.929420 0.596087 0.038398
0.948578 0.585176 0.038094
0.954438 0.579190 0.037981
0.960630 0.577233 0.037997
1.015865 0.576630 0.037993
0.238636 0.680291 0.086805
0.238713 0.678324 0.087357
0.238208 0.675198 0.087745
0.236519 0.670235 0.087643
0.234081 0.663390 0.087161
0.259582 0.667957 0.088012
0.316363 0.660798 0.077906
0.412732 0.656203 0.066660
0.529412 0.663991 0.056585
0.639646 0.689323 0.046870
0.770706 0.700872 0.042665
0.907173 0.691204 0.042098
0.953606 0.679617 0.041984
0.959960 0.673417 0.041777
0.966431 0.671538 0.041757
1.022064 0.670767 0.041736
0.258398 0.779867 0.081012
0.260355 0.776940 0.081719
0.262010 0.773235 0.082425
0.263293 0.767476 0.083150
0.264122 0.759171 0.083845
0.277279 0.758090 0.085735
0.319795 0.762241 0.082733
0.392072 0.755622 0.072042
0.497421 0.758417 0.063375
0.612801 0.771756 0.054699
0.734052 0.790791 0.052341
0.869339 0.789347 0.046735
0.954283 0.776729 0.046130
0.962041 0.770066 0.045909
0.968680 0.767969 0.045873
1.024489 0.766983 0.045842
0.244076 0.888500 0.071337
0.247912 0.885619 0.071540
0.251470 0.882201 0.071869
0.255144 0.876917 0.072215
0.259009 0.868681 0.072895
0.267185 0.860689 0.073771
0.313583 0.864555 0.073890
0.379603 0.862757 0.069158
0.471436 0.862437 0.062101
0.583958 0.870389 0.057224
0.706385 0.882650 0.066654
0.833235 0.887653 0.066765
0.942867 0.877564 0.051375
0.962788 0.869355 0.050643
0.969534 0.867079 0.050491
1.025416 0.866155 0.050433
0.240540 0.900275 0.070264
0.243517 0.900856 0.070076
0.246495 0.901438 0.069877
0.249241 0.902113 0.069696
0.251825 0.902848 0.069554
0.255170 0.903301 0.069528
0.292036 0.909980 0.068266
0.357339 0.918282 0.065728
0.446858 0.926521 0.058810
0.553295 0.940720 0.056629
0.677261 0.958060 0.068279
0.800892 0.966541 0.102157
0.925686 0.969612 0.075761
0.963988 0.963859 0.068575
0.970474 0.962147 0.067044
1.026386 0.961420 0.066259
0.238253 0.908197 0.069506
0.241230 0.908778 0.069317
0.244207 0.909361 0.069119
0.247187 0.909953 0.068879
0.249913 0.910639 0.068701
0.252704 0.911285 0.068640
0.279423 0.916506 0.067670
0.342694 0.926170 0.065601
0.428120 0.936068 0.059419
0.531633 0.952507 0.056362
0.652975 0.973368 0.064504
0.777394 0.987486 0.101528
0.902570 0.993535 0.112075
0.961855 0.994081 0.112191
0.968161 0.994051 0.112102
1.023902 0.993991 0.111927
0.235982 0.916061 0.068750
0.238959 0.916642 0.068562
0.241936 0.917225 0.068367
0.244912 0.917817 0.068127
0.247895 0.918411 0.067884
0.250798 0.919018 0.067794
0.274899 0.923362 0.066844
0.337980 0.932437 0.064859
0.422305 0.942239 0.059102
0.525165 0.958180 0.056608
0.645329 0.978806 0.064217
0.770263 0.993196 0.099617
0.895602 0.998646 0.118414
0.961402 0.998763 0.123266
0.967374 0.998758 0.123985
1.023079 0.998755 0.124038
0.051796 0.154101 0.201822
0.057109 0.146881 0.191475
0.085482 0.124537 0.171063
0.135131 0.079396 0.135574
0.186945 0.036133 0.093268
0.252288 0.026120 0.071770
0.338844 0.030696 0.064275
0.440621 0.040790 0.062643
0.554288 0.053077 0.061185
0.663424 0.063600 0.056648
0.693955 0.066309 0.048198
0.702061 0.066875 0.041269
0.709475 0.067458 0.037123
0.716873 0.068006 0.032647
0.723736 0.068564 0.031103
0.765799 0.068669 0.030899
0.051625 0.152015 0.192817
0.054090 0.144538 0.183065
0.078388 0.121970 0.161553
0.126071 0.079295 0.127655
0.178340 0.036958 0.086123
0.244034 0.027234 0.064494
0.331163 0.032233 0.058006
0.433264 0.042485 0.056886
0.546725 0.055102 0.055595
0.660841 0.066283 0.051218
0.697434 0.069602 0.042564
0.705480 0.070215 0.035075
0.712830 0.070788 0.030685
0.720039 0.071315 0.026978
0.726690 0.071931 0.025691
0.768867 0.072062 0.025483
0.056753 0.170774 0.197717
0.057426 0.165128 0.190307
0.077714 0.147919 0.168217
0.124722 0.107751 0.129286
0.179415 0.060174 0.082808
0.240847 0.040599 0.056429
0.321907 0.038165 0.048496
0.421273 0.046056 0.047075
0.532895 0.057123 0.044988
0.650339 0.068018 0.039275
0.701813 0.072930 0.030368
0.709540 0.073419 0.023445
0.716605 0.073979 0.020175
0.723360 0.074706 0.016814
0.729806 0.075417 0.015630
0.772137 0.075547 0.015481
0.065501 0.200167 0.200204
0.065332 0.195205 0.194075
0.077643 0.182933 0.175778
0.126447 0.154409 0.136071
0.198622 0.118817 0.090819
0.265782 0.095488 0.059848
0.343634 0.086058 0.047765
0.433818 0.084784 0.042934
0.535960 0.088440 0.038312
0.649109 0.093188 0.030566
0.716231 0.092383 0.020594
0.717495 0.085785 0.013409
0.720864 0.083560 0.010873
0.726251 0.082902 0.008990
0.732329 0.083176 0.008342
0.774762 0.083300 0.008308
0.077580 0.243364 0.194814
0.077157 0.238880 0.189336
0.079724 0.228866 0.175564
0.120529 0.207919 0.137824
0.208052 0.191344 0.094426
0.303548 0.183556 0.071191
0.383778 0.167310 0.053237
0.468012 0.154413 0.042066
0.560457 0.147247 0.033551
0.664801 0.146102 0.025815
0.747865 0.144696 0.018802
0.750839 0.135704 0.013864
0.754486 0.131583 0.011891
0.758595 0.128159 0.010755
0.764284 0.127453 0.010357
0.808490 0.127462 0.010317
0.086458 0.297676 0.175864
0.085480 0.293470 0.170288
0.082157 0.285361 0.159514
0.109288 0.268774 0.128387
0.186781 0.247511 0.083383
0.296057 0.258383 0.060117
0.410129 0.265528 0.049560
0.505934 0.251853 0.039557
0.599152 0.237095 0.032038
0.697077 0.225039 0.025836
0.787763 0.215787 0.021330
0.796337 0.203180 0.019693
0.797837 0.196894 0.018887
0.800353 0.192065 0.018255
0.805375 0.190887 0.018000
0.851748 0.190753 0.017960
0.085061 0.362962 0.141890
0.083874 0.359324 0.136542
0.080312 0.352778 0.126935
0.093903 0.340867 0.107154
0.168136 0.317302 0.073016
0.273526 0.313381 0.051039
0.390939 0.341624 0.040661
0.513400 0.350870 0.036068
0.622324 0.339671 0.034309
0.726987 0.325823 0.032491
0.828670 0.311570 0.029489
0.855605 0.296045 0.027514
0.856162 0.286615 0.026529
0.857939 0.279890 0.025882
0.862383 0.277664 0.025678
0.911815 0.277301 0.025643
0.098122 0.437299 0.108727
0.098354 0.434524 0.106203
0.097054 0.429526 0.101620
0.096956 0.421920 0.096846
0.157439 0.406140 0.076570
0.257276 0.388250 0.058710
0.368933 0.400639 0.047626
0.486923 0.431639 0.040510
