assets/luts/Vivid_LUTs_1.cube
LUT_3D_SIZE 16
0.000905 0.001027 0.001454
0.017526 0.002002 0.002920
0.071705 0.004655 0.005220
0.155388 0.010548 0.008076
0.262589 0.020512 0.008696
0.377471 0.030327 0.013631
0.495620 0.042325 0.017405
0.615450 0.056923 0.018360
0.739198 0.072334 0.017990
0.853055 0.086457 0.017468
0.882672 0.090098 0.016955
0.889270 0.090933 0.016717
0.895593 0.091744 0.016491
0.901815 0.092515 0.016268
0.907709 0.093298 0.016045
0.934366 0.093675 0.015904
0.001734 0.010048 0.002596
0.009452 0.009565 0.002675
0.061464 0.010790 0.004788
0.141806 0.013988 0.007833
0.247387 0.023488 0.008366
0.362865 0.032450 0.012986
0.481939 0.044317 0.017177
0.602462 0.059027 0.018752
0.726318 0.074822 0.018481
0.847214 0.089978 0.017984
0.883519 0.094435 0.017459
0.889978 0.095243 0.017285
0.896420 0.096040 0.017042
0.902469 0.096785 0.016801
0.908401 0.097502 0.016593
0.935141 0.097890 0.016462
0.005202 0.040287 0.005292
0.007763 0.038897 0.005173
0.045509 0.046993 0.006942
0.130896 0.053396 0.007226
0.232694 0.057645 0.008402
0.345891 0.059318 0.011708
0.462902 0.061695 0.016768
0.582176 0.067695 0.019402
0.705398 0.080269 0.019543
0.830819 0.093146 0.018774
0.884179 0.098816 0.017900
0.890745 0.099586 0.017766
0.897108 0.100325 0.017601
0.903395 0.101064 0.017376
0.909273 0.101748 0.017143
0.935840 0.102090 0.016997
0.009833 0.081242 0.009505
0.011446 0.079363 0.009272
0.030664 0.082600 0.010047
0.105268 0.107787 0.012087
0.217917 0.123826 0.009705
0.331939 0.124403 0.012187
0.447839 0.125119 0.018061
0.565634 0.127684 0.022188
0.686995 0.132229 0.023467
0.812581 0.137272 0.023043
0.889433 0.136267 0.021476
0.894468 0.125669 0.020342
0.900130 0.120780 0.019606
0.905461 0.116721 0.018953
0.911060 0.114385 0.018491
0.937819 0.113879 0.018293
0.017736 0.131745 0.015240
0.019311 0.130092 0.015167
0.025767 0.127773 0.015114
0.076209 0.145442 0.017682
0.183753 0.185415 0.018395
0.315316 0.205954 0.015754
0.432778 0.204644 0.019390
0.549279 0.204704 0.023381
0.668114 0.206966 0.025789
0.792976 0.210358 0.026891
0.895047 0.210329 0.026530
0.903056 0.198589 0.025801
0.908540 0.191701 0.025396
0.913898 0.185507 0.024958
0.919417 0.180999 0.024520
0.945927 0.179520 0.024332
0.032631 0.189456 0.023950
0.034070 0.187660 0.023629
0.034953 0.183738 0.022763
0.065722 0.190424 0.024901
0.141493 0.223402 0.031763
0.274032 0.273890 0.031392
0.413323 0.295154 0.024190
0.531285 0.290821 0.024414
0.649966 0.287649 0.026273
0.772600 0.287300 0.027701
0.889425 0.286621 0.028239
0.912022 0.275956 0.027965
0.917361 0.268137 0.027794
0.922377 0.261411 0.027488
0.927734 0.256239 0.027239
0.954378 0.254171 0.027120
0.057301 0.251246 0.040104
0.058433 0.249613 0.039579
0.058884 0.245971 0.038428
0.070416 0.245258 0.038722
0.123527 0.268580 0.046789
0.221393 0.313810 0.055044
0.369322 0.366399 0.046020
0.508096 0.384838 0.031018
0.628654 0.377780 0.027093
0.751129 0.371277 0.027163
0.875075 0.367007 0.027549
0.922489 0.357265 0.027401
0.927969 0.347706 0.027503
0.932713 0.340352 0.027485
0.937560 0.334265 0.027419
0.964306 0.331510 0.027363
0.084642 0.316760 0.063758
0.085579 0.315326 0.063216
0.085866 0.312340 0.062169
0.085065 0.307447 0.060374
0.123387 0.321887 0.065856
0.197421 0.358261 0.076024
0.311384 0.404644 0.079927
0.460817 0.454440 0.062071
0.600626 0.471734 0.037494
0.726124 0.463601 0.028782
0.853610 0.454393 0.026653
0.929213 0.443763 0.025779
0.938344 0.432477 0.025888
0.943220 0.423886 0.025989
0.948110 0.416820 0.026051
0.975093 0.413238 0.026067
0.114986 0.383936 0.091177
0.115994 0.382500 0.090623
0.116446 0.379986 0.089520
0.115924 0.375468 0.087485
0.133832 0.379585 0.089086
0.191014 0.406432 0.098775
0.279351 0.446353 0.108241
0.399551 0.489921 0.105846
0.549717 0.538980 0.077793
0.693182 0.556056 0.043137
0.824287 0.548206 0.029521
0.929815 0.535812 0.025193
0.946961 0.522861 0.024505
0.952394 0.513045 0.024299
0.957450 0.504629 0.024200
0.984407 0.500272 0.024135
0.145047 0.449096 0.120759
0.146065 0.447843 0.120204
0.146723 0.445701 0.119253
0.146562 0.441921 0.117539
0.149246 0.438697 0.115966
0.193927 0.457389 0.123380
0.262816 0.489010 0.133307
0.361291 0.528365 0.139080
0.485380 0.570660 0.130285
0.638352 0.621151 0.089583
0.787493 0.639726 0.045454
0.918713 0.631281 0.028084
0.953627 0.617120 0.025368
0.959280 0.606113 0.024902
0.964495 0.596779 0.024493
0.991778 0.591566 0.024273
0.165463 0.508919 0.146344
0.166779 0.507732 0.145981
0.168006 0.506214 0.145401
0.168943 0.503249 0.144320
0.169549 0.499054 0.142749
0.196190 0.507611 0.146308
0.252210 0.531997 0.155039
0.331903 0.564951 0.163181
0.438788 0.603891 0.165321
0.568838 0.649367 0.149010
0.729200 0.704780 0.094368
0.884618 0.723494 0.042708
0.957144 0.712660 0.029561
0.963950 0.701171 0.028087
0.969652 0.691228 0.027014
0.997119 0.685188 0.026443
0.175707 0.562890 0.165159
0.177387 0.561959 0.164975
0.178957 0.560428 0.164635
0.180458 0.558013 0.164033
0.181700 0.554393 0.162986
0.190566 0.553689 0.163209
0.239013 0.572781 0.170954
0.304869 0.600251 0.179334
0.397139 0.635218 0.186037
0.514074 0.677202 0.185832
0.651901 0.729011 0.161840
0.824392 0.791542 0.091519
0.949324 0.805780 0.042527
0.966207 0.794869 0.036715
0.972577 0.784907 0.034259
1.000021 0.778383 0.032994
0.178676 0.592393 0.173688
0.180485 0.592996 0.173920
0.182380 0.593635 0.174195
0.184245 0.594151 0.174489
0.186050 0.593631 0.174517
0.188948 0.592985 0.174597
0.223057 0.606491 0.180514
0.278747 0.631565 0.189149
0.357637 0.664187 0.197433
0.463492 0.704214 0.204267
0.589664 0.751862 0.202442
0.737655 0.811663 0.169414
0.906239 0.874723 0.090565
0.953908 0.877844 0.063358
0.962691 0.870058 0.056408
0.992082 0.864795 0.052742
0.178866 0.595648 0.174596
0.180709 0.596324 0.174852
0.182570 0.597037 0.175127
0.184417 0.597691 0.175405
0.186312 0.598383 0.175758
0.188177 0.599091 0.176080
0.208409 0.607881 0.179869
0.259041 0.632456 0.188822
0.327854 0.664907 0.197883
0.422956 0.704992 0.206343
0.540845 0.752780 0.212979
0.673445 0.810844 0.205350
0.828729 0.880281 0.160788
0.916855 0.915471 0.200605
0.928682 0.915584 0.174174
0.959044 0.914767 0.159043
0.179010 0.598634 0.175414
0.180876 0.599349 0.175648
0.182698 0.600017 0.175959
0.184548 0.600698 0.176197
0.186428 0.601382 0.176487
0.188269 0.602084 0.176847
0.200046 0.606936 0.179090
0.246745 0.629133 0.187505
0.310101 0.659471 0.196499
0.398764 0.697846 0.205052
0.511443 0.742820 0.212799
0.639401 0.797769 0.211425
0.787795 0.864792 0.178185
0.907370 0.915459 0.189346
0.917955 0.917943 0.234478
0.945257 0.918728 0.234673
0.179187 0.601699 0.176226
0.181023 0.602362 0.176486
0.182862 0.603061 0.176761
0.184691 0.603703 0.177039
0.186537 0.604450 0.177295
0.188370 0.605114 0.177612
0.198363 0.609066 0.179537
0.243796 0.630498 0.187731
0.305452 0.660080 0.196660
0.391800 0.697656 0.205084
0.502374 0.741689 0.213004
0.627999 0.794826 0.213979
0.772638 0.860401 0.185248
0.901796 0.916180 0.176235
0.914348 0.918487 0.244989
0.940977 0.918837 0.260826
0.002729 0.006148 0.017270
0.016433 0.006785 0.020091
0.070498 0.004748 0.017387
0.154207 0.008261 0.016890
0.260987 0.018875 0.013860
0.376054 0.029162 0.017941
0.494352 0.041434 0.021220
0.614322 0.056112 0.022275
0.737924 0.071728 0.022412
0.852497 0.086052 0.022042
0.882843 0.089807 0.021670
0.889428 0.090636 0.021557
0.895833 0.091445 0.021296
0.901855 0.092213 0.021043
0.907846 0.093000 0.020801
0.934601 0.093376 0.020642
0.001814 0.011947 0.011359
0.009041 0.010139 0.009677
0.060351 0.009157 0.008809
0.140782 0.012434 0.010768
0.246519 0.022173 0.011295
0.362034 0.031609 0.016109
0.481244 0.043566 0.020610
0.601886 0.058284 0.022657
0.725843 0.074237 0.022809
0.847053 0.089519 0.022676
0.883505 0.094110 0.022175
0.890069 0.094981 0.022063
0.896402 0.095765 0.021836
0.902745 0.096569 0.021614
0.908574 0.097327 0.021390
0.935032 0.097723 0.021253
0.004502 0.039899 0.007028
0.006681 0.038182 0.006354
0.044710 0.046042 0.008287
0.130085 0.051822 0.009298
0.231691 0.055903 0.010843
0.345052 0.057395 0.014643
0.461983 0.059762 0.020127
0.581428 0.066405 0.023214
0.704662 0.079250 0.023687
0.830148 0.092364 0.023417
0.884318 0.098542 0.022657
0.890905 0.099355 0.022566
0.897327 0.100102 0.022390
0.903393 0.100852 0.022165
0.909392 0.101555 0.021943
0.935980 0.101910 0.021810
0.008834 0.080539 0.010250
0.010581 0.078630 0.010056
0.029450 0.081536 0.010834
0.104189 0.106794 0.013429
0.217152 0.122508 0.012369
0.331094 0.122858 0.015368
0.447148 0.123384 0.021631
0.564930 0.125803 0.026050
0.686202 0.130369 0.027663
0.811646 0.135647 0.027518
0.889436 0.134829 0.026197
0.894457 0.124344 0.025041
0.900150 0.119585 0.024352
0.905524 0.115619 0.023718
0.911085 0.113677 0.023277
0.937764 0.113281 0.023090
0.016453 0.130849 0.016033
0.018295 0.129147 0.015793
0.024434 0.126774 0.015744
0.074602 0.144224 0.018570
0.182594 0.184236 0.020103
0.314521 0.204733 0.019019
0.432040 0.203236 0.023252
0.548413 0.203229 0.027536
0.667368 0.205466 0.030277
0.792037 0.208916 0.031652
0.894665 0.209061 0.031418
0.903078 0.197267 0.030676
0.908552 0.190384 0.030271
0.913982 0.184241 0.029792
0.919190 0.179833 0.029317
0.946098 0.178376 0.029117
0.031363 0.188462 0.024452
0.032935 0.186691 0.024215
0.033637 0.182868 0.023488
0.063909 0.189142 0.025511
0.139807 0.221949 0.032632
0.272881 0.272825 0.033378
0.412427 0.293962 0.027899
0.530459 0.289611 0.028839
0.649112 0.286332 0.030934
0.771641 0.286128 0.032655
0.888952 0.285477 0.033341
0.912077 0.274800 0.033058
0.917427 0.266972 0.032860
0.922540 0.260276 0.032553
0.927838 0.255126 0.032327
0.954579 0.253112 0.032201
0.056197 0.250283 0.040598
0.057500 0.248555 0.040106
0.058003 0.245043 0.038976
0.069016 0.244001 0.039132
0.121856 0.267081 0.047313
0.219745 0.312521 0.056149
0.368388 0.365418 0.048182
0.507273 0.383841 0.034883
0.627760 0.376666 0.031854
0.750326 0.370228 0.032359
0.874418 0.365993 0.032845
0.922409 0.356261 0.032792
0.927871 0.346647 0.032807
0.932750 0.339310 0.032754
0.937500 0.333342 0.032681
0.964334 0.330570 0.032628
0.083586 0.315842 0.064347
0.084681 0.314399 0.063771
0.084997 0.311489 0.062729
0.084187 0.306556 0.060935
0.121954 0.320562 0.066271
0.195802 0.356912 0.076787
0.310012 0.403545 0.081295
0.459851 0.453529 0.064472
0.599792 0.470726 0.041560
0.725220 0.462621 0.033820
0.852627 0.453276 0.032081
0.929212 0.442834 0.031337
0.938365 0.431441 0.031398
0.943166 0.422885 0.031477
0.948068 0.415874 0.031518
0.975069 0.412339 0.031531
0.114233 0.383139 0.091745
0.115245 0.381920 0.091188
0.115729 0.379343 0.090075
0.115179 0.374863 0.088097
0.132581 0.378564 0.089579
0.189676 0.405434 0.099363
0.278020 0.445291 0.109224
0.398412 0.489001 0.107448
0.548793 0.538096 0.080416
0.692358 0.555100 0.047314
0.823335 0.547300 0.034720
0.929614 0.534871 0.030775
0.946965 0.521832 0.030139
0.952437 0.512011 0.029972
0.957510 0.503792 0.029867
0.984585 0.499323 0.029800
0.144410 0.448716 0.121513
0.145451 0.447546 0.120937
0.146127 0.445320 0.119975
0.145958 0.441678 0.118235
0.148437 0.438185 0.116631
0.192822 0.456598 0.124067
0.261724 0.488208 0.134158
0.360112 0.527493 0.140258
0.484350 0.569752 0.132034
0.637442 0.620278 0.092482
0.786516 0.638788 0.049889
0.917795 0.630380 0.033441
0.953704 0.616188 0.030917
0.959352 0.605199 0.030446
0.964535 0.595812 0.030043
0.991806 0.590605 0.029825
0.165072 0.508737 0.147300
0.166539 0.507714 0.146937
0.167787 0.506093 0.146341
0.168705 0.503189 0.145259
0.169258 0.498974 0.143652
0.195406 0.507213 0.147139
0.251425 0.531439 0.155947
0.331037 0.564302 0.164282
0.437901 0.603157 0.166853
0.567889 0.648597 0.151149
0.728124 0.703916 0.097696
0.883752 0.722737 0.047441
0.956912 0.711628 0.034807
0.963991 0.699956 0.033371
0.969656 0.690151 0.032329
0.996940 0.684319 0.031766
0.175607 0.563052 0.166320
0.177271 0.562082 0.166132
0.178882 0.560557 0.165792
0.180336 0.558188 0.165178
0.181598 0.554498 0.164106
0.190017 0.553617 0.164239
0.238524 0.572653 0.172039
0.304142 0.599846 0.180535
0.396384 0.634652 0.187367
0.513302 0.676454 0.187638
0.650942 0.728231 0.164405
0.823290 0.790601 0.095397
0.948960 0.804936 0.047249
0.966262 0.793969 0.041431
0.972628 0.783830 0.039035
1.000021 0.777330 0.037799
0.178679 0.593058 0.175071
0.180487 0.593638 0.175321
0.182409 0.594300 0.175606
0.184243 0.594781 0.175886
0.186097 0.594274 0.175911
0.188912 0.593592 0.175990
0.222716 0.606888 0.181776
0.278335 0.631628 0.190413
0.356948 0.664139 0.198885
0.462809 0.703604 0.205868
0.588832 0.751140 0.204593
0.736479 0.810772 0.172516
0.905769 0.874061 0.094532
0.953898 0.877117 0.067663
0.962992 0.869308 0.060757
0.992282 0.864236 0.057149
0.178897 0.596321 0.175968
0.180726 0.597002 0.176240
0.182585 0.597653 0.176524
0.184454 0.598345 0.176789
0.186301 0.598998 0.177139
0.188223 0.599794 0.177487
0.208067 0.608325 0.181182
0.258507 0.632622 0.190137
0.327181 0.664897 0.199331
0.422154 0.704888 0.207947
0.539840 0.752325 0.215054
0.672271 0.810194 0.208182
0.827185 0.879798 0.164710
0.917538 0.915609 0.202078
0.929357 0.915640 0.175481
0.959587 0.914723 0.160578
0.179044 0.599347 0.176753
0.180928 0.600001 0.177051
0.182751 0.600672 0.177336
0.184587 0.601405 0.177617
0.186465 0.602057 0.177893
0.188284 0.602756 0.178256
0.199824 0.607512 0.180434
0.246272 0.629444 0.188836
0.309542 0.659626 0.197927
0.398071 0.697694 0.206617
0.510277 0.742642 0.214707
0.638237 0.797342 0.214008
0.786326 0.864045 0.181869
0.907044 0.915506 0.191651
0.918278 0.918204 0.238496
0.945456 0.918838 0.238699
0.179251 0.602360 0.177606
0.181095 0.603051 0.177894
0.182907 0.603700 0.178182
0.184725 0.604428 0.178447
0.186583 0.605112 0.178696
0.188428 0.605806 0.179007
0.198159 0.609728 0.180865
0.243374 0.630779 0.189025
0.304836 0.660218 0.198028
0.391158 0.697545 0.206659
0.501344 0.741551 0.214885
0.626916 0.794289 0.216518
0.771240 0.859727 0.188870
0.901542 0.916162 0.177861
0.914667 0.918737 0.249000
0.941234 0.918978 0.264833
0.013687 0.030533 0.075638
0.023897 0.038450 0.095321
0.067268 0.032589 0.092106
0.146820 0.016749 0.082015
0.254941 0.010248 0.074570
0.371639 0.012767 0.067125
0.491884 0.027040 0.061396
0.612579 0.048545 0.054882
0.736219 0.068843 0.046589
0.851725 0.084908 0.035359
0.883028 0.089157 0.032243
0.889685 0.090151 0.030173
0.895999 0.091051 0.028747
0.902259 0.091886 0.027281
0.908085 0.092692 0.026285
0.934658 0.093091 0.025965
0.013482 0.035697 0.073407
0.016827 0.034403 0.073610
0.056935 0.029402 0.075844
0.135499 0.015279 0.066304
0.242131 0.012191 0.058876
0.358403 0.019016 0.053192
0.478982 0.033730 0.050184
0.600264 0.053623 0.044806
0.724033 0.072309 0.035636
0.845757 0.088553 0.033289
0.883745 0.093629 0.030323
0.890358 0.094642 0.028550
0.896700 0.095490 0.027371
0.902967 0.096297 0.026431
0.908756 0.097067 0.026145
0.935415 0.097457 0.025968
0.005802 0.057240 0.055771
0.007380 0.053513 0.051928
0.042356 0.051003 0.048109
0.129370 0.045815 0.039433
0.231400 0.046202 0.033907
0.343416 0.048917 0.032153
0.460149 0.053342 0.031813
0.579849 0.063113 0.031250
0.703487 0.077060 0.030698
0.829142 0.091149 0.029444
0.884604 0.098165 0.027583
0.890971 0.099073 0.027326
0.897533 0.099909 0.027223
0.903554 0.100669 0.026996
0.909340 0.101419 0.026785
0.936130 0.101821 0.026650
0.004413 0.083344 0.025150
0.005883 0.080931 0.023010
0.024207 0.081032 0.019051
0.102372 0.104955 0.021204
0.215816 0.119173 0.019504
0.329324 0.119033 0.021278
0.445366 0.119333 0.027061
0.563376 0.121924 0.030607
0.684645 0.126823 0.031852
0.810169 0.132530 0.031871
0.889435 0.132149 0.030822
0.894329 0.121905 0.029642
0.900043 0.117602 0.029058
0.905533 0.114310 0.028499
0.911387 0.112988 0.028129
0.938061 0.112878 0.027958
0.013490 0.129388 0.018891
0.015571 0.127599 0.018110
0.021658 0.124888 0.017164
0.071493 0.141623 0.019891
0.180434 0.182136 0.022276
0.312673 0.202143 0.022256
0.430309 0.200534 0.026987
0.546740 0.200374 0.031626
0.665621 0.202534 0.034623
0.790780 0.206145 0.036352
0.893951 0.206615 0.036250
0.903031 0.194986 0.035510
0.908620 0.188314 0.035111
0.913924 0.182511 0.034593
0.919244 0.178463 0.034140
0.946167 0.177306 0.033930
0.029698 0.186808 0.025013
0.031231 0.185050 0.024786
0.031926 0.181361 0.024173
0.061134 0.186882 0.025930
0.137216 0.219567 0.033262
0.270953 0.270877 0.035128
0.410884 0.291876 0.031463
0.529061 0.287419 0.033113
0.647741 0.284317 0.035602
0.770275 0.284086 0.037607
0.888005 0.283613 0.038397
0.912027 0.273070 0.038160
0.917393 0.265288 0.037960
0.922517 0.258782 0.037688
0.927795 0.253950 0.037450
0.954540 0.252087 0.037331
0.054883 0.248661 0.040903
0.056202 0.246981 0.040441
0.056902 0.243637 0.039381
0.066867 0.242107 0.039363
0.119395 0.264793 0.047610
0.217322 0.310576 0.057087
0.366630 0.363832 0.050257
0.506061 0.382065 0.038764
0.626416 0.374768 0.036630
0.749260 0.368372 0.037483
0.873593 0.364359 0.038189
0.922438 0.354791 0.038157
0.927666 0.345174 0.038122
0.932596 0.338040 0.038063
0.937468 0.332070 0.037972
0.964298 0.329503 0.037914
0.082351 0.314517 0.064772
0.083454 0.313062 0.064226
0.083952 0.310299 0.063173
0.083094 0.305364 0.061373
0.119893 0.318722 0.066508
0.193572 0.355097 0.077378
0.308085 0.402092 0.082576
0.458639 0.452289 0.066818
0.598702 0.469303 0.045625
0.723983 0.461175 0.038850
0.851553 0.451864 0.037545
0.928921 0.441427 0.036896
0.938280 0.430075 0.036937
0.943233 0.421716 0.037005
0.948055 0.414577 0.037042
0.975127 0.411216 0.037037
0.113331 0.382165 0.092219
0.114288 0.380789 0.091604
0.114812 0.378474 0.090603
0.114285 0.373964 0.088629
0.130888 0.377187 0.089895
0.187818 0.403815 0.099836
0.276155 0.443908 0.110101
0.396889 0.487823 0.108939
0.547610 0.536980 0.082995
0.691062 0.553854 0.051551
0.822124 0.545846 0.039905
0.929181 0.533387 0.036362
0.947187 0.520499 0.035833
0.952444 0.510770 0.035684
0.957470 0.502537 0.035572
0.984614 0.498298 0.035508
0.143708 0.448202 0.122202
0.144721 0.446911 0.121585
0.145430 0.444916 0.120640
0.145262 0.441093 0.118864
0.147308 0.437327 0.117125
0.191334 0.455521 0.124590
0.260138 0.487084 0.134914
0.358623 0.526359 0.141370
0.482981 0.568667 0.133750
0.636284 0.619157 0.095272
0.785204 0.637553 0.054274
0.916545 0.629004 0.038855
0.953674 0.614733 0.036504
0.959383 0.603870 0.036046
0.964540 0.594591 0.035663
0.991702 0.589418 0.035448
0.164657 0.508542 0.148197
0.166139 0.507525 0.147841
0.167455 0.505881 0.147214
0.168323 0.502973 0.146123
0.168843 0.498700 0.144486
0.194515 0.506437 0.147864
0.250311 0.530626 0.156764
0.329813 0.563417 0.165289
0.436691 0.602232 0.168246
0.566773 0.647506 0.153201
0.727030 0.702786 0.101038
0.882463 0.721684 0.052251
0.956953 0.710527 0.040067
0.964142 0.698830 0.038729
0.969788 0.688981 0.037773
0.996979 0.683235 0.037259
0.175482 0.562981 0.167458
0.177141 0.562018 0.167268
0.178722 0.560457 0.166874
0.180204 0.558186 0.166261
0.181417 0.554496 0.165160
0.189227 0.553315 0.165202
0.237685 0.572230 0.173025
0.303157 0.599146 0.181578
0.395181 0.633838 0.188663
0.512120 0.675532 0.189446
0.649617 0.726964 0.166941
0.822051 0.789407 0.099298
0.948574 0.804043 0.051972
0.966234 0.792935 0.046198
0.972765 0.782786 0.043956
1.000021 0.776060 0.042771
0.178716 0.593694 0.176467
0.180536 0.594352 0.176752
0.182406 0.594919 0.176989
0.184259 0.595385 0.177278
0.186071 0.594885 0.177320
0.188781 0.594152 0.177324
0.222253 0.607046 0.183029
0.277710 0.631621 0.191660
0.356171 0.663835 0.200304
0.461726 0.702788 0.207378
0.587919 0.750140 0.206677
0.735242 0.809493 0.175409
0.905280 0.873007 0.098622
0.954298 0.876137 0.071844
0.963458 0.868441 0.065052
0.992675 0.863385 0.061485
0.178914 0.597032 0.177329
0.180734 0.597649 0.177640
0.182615 0.598317 0.177937
0.184481 0.599004 0.178202
0.186394 0.599746 0.178566
0.188239 0.600416 0.178881
0.207588 0.608713 0.182473
0.257838 0.632858 0.191487
0.326177 0.664716 0.200700
0.421059 0.704660 0.209545
0.538364 0.751861 0.216983
0.670623 0.809567 0.210912
0.825494 0.878829 0.168719
0.918281 0.915783 0.202438
0.930022 0.915509 0.175398
0.960696 0.914643 0.160943
0.179127 0.600011 0.178159
0.180928 0.600668 0.178457
0.182792 0.601382 0.178732
0.184668 0.602046 0.179035
0.186481 0.602733 0.179292
0.188344 0.603439 0.179633
0.199614 0.608083 0.181768
0.245740 0.629742 0.190137
0.308816 0.659745 0.199349
0.397068 0.697639 0.208181
0.508994 0.742164 0.216637
0.636815 0.796679 0.216638
0.784552 0.863430 0.185679
0.906836 0.915527 0.193575
0.918288 0.918123 0.242554
0.945795 0.918943 0.242700
0.179301 0.603056 0.178972
0.181172 0.603696 0.179280
0.183001 0.604400 0.179590
0.184800 0.605101 0.179869
0.186627 0.605779 0.180162
0.188505 0.606465 0.180424
0.198075 0.610328 0.182252
0.243004 0.631085 0.190367
0.304220 0.660376 0.199435
0.390180 0.697260 0.208191
0.500247 0.741171 0.216787
0.625454 0.793657 0.218999
0.769622 0.858988 0.192442
0.901022 0.916157 0.180012
0.914710 0.918927 0.253039
0.941262 0.919068 0.268860
0.031022 0.076012 0.181654
0.038127 0.080860 0.194863
0.069929 0.083050 0.210674
0.141391 0.060234 0.184250
0.243511 0.034976 0.170241
0.362909 0.013931 0.160282
0.483470 0.010391 0.148550
0.603568 0.015735 0.132881
0.729110 0.035780 0.117933
0.849375 0.064789 0.110177
0.883887 0.077916 0.101795
0.890575 0.083266 0.093799
0.896852 0.086539 0.088894
0.903183 0.088430 0.082380
0.909040 0.089683 0.077210
0.935797 0.090284 0.075626
0.028675 0.075320 0.166361
0.031332 0.074484 0.168580
0.060359 0.078883 0.191764
0.130137 0.057782 0.169146
0.230426 0.032382 0.155001
0.349910 0.015021 0.145808
0.470817 0.013328 0.134733
0.591592 0.019167 0.119765
0.718621 0.043854 0.108550
0.844248 0.073577 0.103003
0.884838 0.086540 0.095142
0.891518 0.090587 0.085686
0.897876 0.092094 0.079200
0.903889 0.093399 0.073173
0.909786 0.094489 0.068699
0.936416 0.095044 0.067239
0.027445 0.096098 0.158958
0.028128 0.092929 0.156140
0.047067 0.091572 0.163254
0.119675 0.071480 0.152028
0.221410 0.045744 0.133669
0.334862 0.030408 0.121505
0.452103 0.025137 0.110518
0.573238 0.033204 0.098529
0.699436 0.057033 0.090479
0.827680 0.083975 0.087234
0.885817 0.094601 0.077330
0.892050 0.096368 0.066850
0.898391 0.097634 0.061915
0.904462 0.098800 0.057022
0.910242 0.099804 0.053478
0.937029 0.100263 0.052472
0.010479 0.126916 0.124115
0.011210 0.123201 0.120477
0.022215 0.118048 0.115382
0.095367 0.115151 0.111889
0.213184 0.112772 0.105506
0.330380 0.103479 0.091890
0.445720 0.097569 0.083651
0.562798 0.101265 0.078797
0.684111 0.112921 0.073948
0.809522 0.124095 0.067059
0.890055 0.126649 0.056984
0.894515 0.117666 0.046614
0.900118 0.114223 0.042850
0.905953 0.112570 0.040624
0.911570 0.112079 0.039498
0.938332 0.112419 0.039361
0.006980 0.148311 0.072679
0.007563 0.144958 0.069546
0.010413 0.138370 0.062212
0.058996 0.145733 0.050231
0.177804 0.181176 0.059813
0.313553 0.196724 0.063935
0.430321 0.192945 0.061880
0.546165 0.192752 0.059553
0.664540 0.196028 0.055232
0.788952 0.201046 0.051235
0.893154 0.202546 0.046565
0.903028 0.191500 0.042155
0.908573 0.185114 0.040817
0.913889 0.180082 0.039976
0.919188 0.176735 0.039442
0.946170 0.176087 0.039283
0.015774 0.186597 0.043718
0.017064 0.184413 0.041671
0.018808 0.179909 0.038371
0.047662 0.182108 0.033493
0.128320 0.214306 0.040527
0.267918 0.268129 0.046579
0.409077 0.288375 0.044074
0.527021 0.283607 0.043826
0.645371 0.280676 0.043412
0.768000 0.280749 0.042997
0.886498 0.280458 0.043441
0.911851 0.270225 0.043192
0.917236 0.262628 0.043003
0.922429 0.256640 0.042814
0.927779 0.252321 0.042553
0.954549 0.250800 0.042441
0.047232 0.245758 0.045397
0.049017 0.244045 0.044142
0.051019 0.240991 0.041993
0.061960 0.238963 0.040721
0.114648 0.260750 0.048505
0.213410 0.307212 0.058608
0.363973 0.361194 0.052373
0.503873 0.379252 0.042554
0.624233 0.371939 0.041282
0.746872 0.365478 0.042574
0.871697 0.361612 0.043551
0.921908 0.352385 0.043477
0.927523 0.343065 0.043443
0.932376 0.336129 0.043386
0.937428 0.330625 0.043260
0.964162 0.328296 0.043187
0.080255 0.312444 0.065570
0.081449 0.311021 0.064851
0.082165 0.308268 0.063495
0.081657 0.303411 0.061501
0.116624 0.315782 0.066343
0.190158 0.351982 0.077596
0.305020 0.399413 0.083453
0.456367 0.449958 0.068921
