assets/luts/Vivid_LUTs_1.cube
LUT_3D_SIZE 6
0.000905 0.001027 0.001454
0.155388 0.010548 0.008076
0.495620 0.042325 0.017405
0.853055 0.086457 0.017468
0.895593 0.091744 0.016491
0.934366 0.093675 0.015904
0.009833 0.081242 0.009505
0.105268 0.107787 0.012087
0.447839 0.125119 0.018061
0.812581 0.137272 0.023043
0.900130 0.120780 0.019606
0.937819 0.113879 0.018293
0.057301 0.251246 0.040104
0.070416 0.245258 0.038722
0.369322 0.366399 0.046020
0.751129 0.371277 0.027163
0.927969 0.347706 0.027503
0.964306 0.331510 0.027363
0.145047 0.449096 0.120759
0.146562 0.441921 0.117539
0.262816 0.489010 0.133307
0.638352 0.621151 0.089583
0.953627 0.617120 0.025368
0.991778 0.591566 0.024273
0.178676 0.592393 0.173688
0.184245 0.594151 0.174489
0.223057 0.606491 0.180514
0.463492 0.704214 0.204267
0.906239 0.874723 0.090565
0.992082 0.864795 0.052742
0.179187 0.601699 0.176226
0.184691 0.603703 0.177039
0.198363 0.609066 0.179537
0.391800 0.697656 0.205084
0.772638 0.860401 0.185248
0.940977 0.918837 0.260826
0.031022 0.076012 0.181654
0.141391 0.060234 0.184250
0.483470 0.010391 0.148550
0.849375 0.064789 0.110177
0.896852 0.086539 0.088894
0.935797 0.090284 0.075626
0.010479 0.126916 0.124115
0.095367 0.115151 0.111889
0.445720 0.097569 0.083651
0.809522 0.124095 0.067059
0.900118 0.114223 0.042850
0.938332 0.112419 0.039361
0.047232 0.245758 0.045397
0.061960 0.238963 0.040721
0.363973 0.361194 0.052373
0.746872 0.365478 0.042574
0.927523 0.343065 0.043443
0.964162 0.328296 0.043187
0.142740 0.446978 0.122578
0.144340 0.439998 0.119292
0.257804 0.485196 0.135311
0.634608 0.617657 0.098025
0.953656 0.613177 0.042076
0.991829 0.588174 0.041106
0.178640 0.594379 0.177828
0.184239 0.596015 0.178656
0.221749 0.607227 0.184245
0.460732 0.701675 0.208860
0.904472 0.871959 0.102660
0.992860 0.862241 0.065810
0.179230 0.603711 0.180207
0.184911 0.605786 0.181284
0.198164 0.611081 0.183655
0.389357 0.697207 0.209726
0.767936 0.858219 0.195938
0.941572 0.919329 0.272839
0.052590 0.224154 0.522608
0.111366 0.234728 0.551597
0.456532 0.117592 0.497979
0.799406 0.070240 0.455881
0.859215 0.055369 0.415765
0.900411 0.048471 0.388997
0.045465 0.265396 0.485988
0.077248 0.254438 0.493301
0.410041 0.120940 0.450572
0.763554 0.079706 0.395520
0.871904 0.057336 0.351963
0.910721 0.052369 0.328230
0.018113 0.406338 0.403519
0.020247 0.388205 0.383989
0.347191 0.368259 0.373228
0.744001 0.353538 0.326488
0.934125 0.322243 0.276045
0.970641 0.314516 0.265618
0.087951 0.474965 0.220770
0.088466 0.458942 0.200835
0.222059 0.484257 0.181134
0.627398 0.611646 0.181093
0.955806 0.605145 0.158389
0.994101 0.584636 0.154488
0.172409 0.611377 0.203664
0.180861 0.610134 0.199177
0.219762 0.612949 0.198884
0.455671 0.696588 0.216505
0.899640 0.865518 0.114121
0.994182 0.858017 0.078589
0.178276 0.609372 0.187760
0.185050 0.610347 0.188608
0.200284 0.614709 0.189351
0.388219 0.697664 0.214598
0.761733 0.855485 0.206855
0.942145 0.919835 0.285010
0.218371 0.415266 0.782228
0.264671 0.425141 0.786085
0.523142 0.442837 0.806701
0.796219 0.374195 0.770577
0.836425 0.320011 0.749010
0.867060 0.278487 0.725766
0.177396 0.426066 0.756663
0.193939 0.415088 0.752204
0.444885 0.425394 0.776982
0.741972 0.318862 0.731314
0.830821 0.255557 0.705740
0.864496 0.222826 0.681243
0.213556 0.538434 0.732157
0.199656 0.522870 0.721172
0.333114 0.523762 0.735562
0.708741 0.411169 0.705069
0.879531 0.357392 0.659626
0.919214 0.353571 0.639824
0.154035 0.671717 0.667118
0.150004 0.659765 0.655631
0.249014 0.635915 0.631350
0.607385 0.612263 0.610932
0.947630 0.604913 0.569657
0.984856 0.597014 0.561087
0.170056 0.736140 0.513821
0.169141 0.729899 0.500135
0.179649 0.716098 0.466889
0.471182 0.750093 0.456263
0.900804 0.864949 0.422785
0.998337 0.860649 0.425741
0.151642 0.709777 0.431870
0.154034 0.704020 0.415764
0.161522 0.696312 0.388677
0.391601 0.762677 0.333467
0.764354 0.864117 0.360944
0.957570 0.934960 0.420634
0.259682 0.441489 0.796052
0.326658 0.466955 0.805496
0.561147 0.529819 0.836388
0.821828 0.501455 0.841438
0.869959 0.513705 0.842769
0.901521 0.514428 0.842886
0.272488 0.481149 0.802668
0.302806 0.483507 0.805060
0.504506 0.542381 0.832797
0.782838 0.503134 0.842893
0.870591 0.517179 0.843150
0.901886 0.517853 0.843299
0.324113 0.601324 0.824600
0.321163 0.593038 0.823777
0.457384 0.618710 0.840315
0.742217 0.611985 0.860476
0.892709 0.604772 0.858744
0.922370 0.601542 0.857153
0.401994 0.753064 0.849534
0.407026 0.745839 0.848700
0.478602 0.739851 0.855962
0.681144 0.745472 0.873896
0.920749 0.720809 0.868552
0.946084 0.696180 0.856103
0.303757 0.924865 0.867242
0.303052 0.919583 0.861112
0.317474 0.899185 0.844099
0.552346 0.875928 0.828034
0.896822 0.857632 0.816811
0.984526 0.854943 0.810730
0.295961 0.906227 0.812105
0.296682 0.899147 0.800278
0.296230 0.887230 0.778759
0.484167 0.906715 0.766611
0.837725 0.948073 0.745724
0.996318 0.968499 0.705827
0.285762 0.457336 0.802781
0.344989 0.479449 0.810457
0.559296 0.542998 0.840763
0.810881 0.517109 0.850836
0.873223 0.529630 0.851342
0.906013 0.532807 0.851876
0.298371 0.492830 0.808140
0.327019 0.496479 0.810526
0.500996 0.550367 0.836077
0.772129 0.521836 0.851682
0.873826 0.533244 0.851570
0.906231 0.536264 0.851982
0.342155 0.602730 0.829126
0.342385 0.596006 0.828072
0.471346 0.625080 0.844516
0.734473 0.627164 0.865894
0.895640 0.618749 0.866137
0.927573 0.620219 0.867011
0.427744 0.747640 0.855348
0.436171 0.741716 0.855481
0.505977 0.739260 0.863674
0.694355 0.754264 0.883176
0.931178 0.765057 0.893963
0.963062 0.764135 0.894444
0.383939 0.924945 0.897001
0.390926 0.919380 0.895659
0.420163 0.903877 0.892095
0.621205 0.898711 0.901491
0.934584 0.907827 0.923040
0.994931 0.916219 0.927432
0.368029 0.956634 0.905597
0.372797 0.956634 0.905619
0.379485 0.956630 0.905701
0.577737 0.961301 0.912747
0.890607 0.974727 0.932600
1.001232 0.977020 0.939644
