assets/luts/Vivid_LUTs_3.cube
LUT_3D_SIZE 6
-0.004427 -0.005195 0.020246
0.194112 0.001394 0.025758
0.550170 0.006117 0.053233
0.883254 0.010330 0.079130
0.922294 0.012378 0.085055
0.958306 0.009535 0.089865
0.003882 0.144170 0.051013
0.069663 0.116839 0.005567
0.475632 -0.041596 0.055738
0.850858 0.018524 0.083297
0.923310 0.020460 0.087430
0.952851 0.016252 0.087667
0.007735 0.394248 0.105126
0.013406 0.378135 0.095748
0.290313 0.404083 -0.021253
0.736199 0.279554 0.104511
0.921244 0.216879 0.104812
0.948521 0.129048 0.101421
0.009356 0.658580 0.155861
0.017562 0.642965 0.152784
0.054323 0.612055 0.118798
0.580467 0.737101 -0.003920
0.987338 0.605587 -0.030281
0.970599 0.510977 0.102871
0.014443 0.915303 0.215417
0.019961 0.916117 0.213239
0.036946 0.916995 0.204818
0.105728 0.918044 -0.031075
0.831544 0.971931 0.012960
0.992231 0.915111 0.011527
0.011961 0.988339 0.231241
-0.083117 0.990506 0.232868
-0.209649 0.988701 0.230156
-0.317552 0.993835 0.167823
-0.255868 1.026610 -0.031168
0.842701 1.028703 -0.032767
0.009600 -0.358286 0.191754
0.213916 -0.359303 0.163181
0.574951 -0.358689 0.163923
0.920035 -0.361466 0.141603
0.956135 -0.372650 0.135307
0.970078 -0.372291 0.124482
-0.001194 0.131144 0.140750
0.114945 0.116022 0.131478
0.493788 -0.047645 0.109860
0.854106 0.019961 0.111816
0.923976 0.018951 0.106089
0.954648 0.017935 0.103116
0.006229 0.394318 0.128807
0.011682 0.379156 0.115720
0.289730 0.402067 -0.029849
0.737521 0.273912 0.113389
0.923949 0.206105 0.115391
0.948095 0.130093 0.113977
0.010351 0.657515 0.168214
0.018221 0.643899 0.164906
0.053740 0.613523 0.134061
0.578938 0.735150 -0.001014
0.985689 0.599847 0.029564
0.968717 0.506482 0.122990
0.012612 0.915143 0.226535
0.020052 0.916902 0.225591
0.036758 0.916950 0.218014
0.106717 0.920249 0.031190
0.831206 0.968452 0.018305
0.991413 0.909315 0.023980
-0.027118 0.988690 0.226889
-0.092337 0.991803 0.228385
-0.201240 0.990497 0.232143
-0.323570 0.994135 0.166555
-0.263381 1.028675 -0.077447
0.839172 1.027005 -0.066726
0.150716 -0.357789 0.617709
0.295277 -0.358330 0.575832
0.570692 -0.358638 0.511059
0.862391 -0.347983 0.443059
0.922907 -0.370524 0.426869
0.948111 -0.372482 0.398797
0.059290 0.101338 0.511735
0.202475 -0.031970 0.505531
0.491102 -0.048891 0.442227
0.809332 0.118951 0.383581
0.912347 0.027302 0.372100
0.952891 0.017676 0.348664
0.006624 0.438695 0.423084
-0.022487 0.422005 0.407263
0.394607 0.407457 0.399572
0.805027 0.335798 0.358547
0.971691 0.233030 0.323781
0.990960 0.207215 0.317206
0.009114 0.708338 0.347466
0.017147 0.692149 0.331487
0.053171 0.655065 0.279246
0.603860 0.750417 0.119289
0.978755 0.594550 0.241270
0.975928 0.529760 0.263042
0.011904 0.922569 0.282788
0.018694 0.924235 0.276031
0.036807 0.919903 0.263117
0.106440 0.920678 0.078288
0.834764 0.966948 -0.032067
0.993430 0.911745 0.081088
-0.068638 0.990563 -0.093603
-0.118673 0.992278 -0.022933
-0.217596 0.992783 0.137312
-0.303944 0.997092 -0.086466
-0.218040 1.028348 -0.186370
0.849108 1.029241 -0.172146
0.266218 -0.363699 0.942390
0.388201 -0.363732 0.936813
0.648989 -0.364268 0.923755
0.948947 -0.368136 0.891772
0.968430 -0.374328 0.841542
0.933681 -0.374476 0.743416
0.234187 -0.055011 0.901780
0.304125 -0.036861 0.897111
0.567605 0.024119 0.879823
0.879328 0.016853 0.826471
0.920186 -0.026862 0.740934
0.914570 0.069757 0.650203
-0.025596 0.375325 0.858612
-0.066086 0.360877 0.844070
0.441478 0.346319 0.839549
0.803401 0.287361 0.767848
0.914169 0.317868 0.652108
0.924674 0.327898 0.593237
0.011137 0.775713 0.760388
0.017118 0.764812 0.751640
-0.095221 0.743447 0.728764
0.729248 0.748312 0.734032
0.989384 0.652373 0.656117
0.996279 0.641123 0.646153
0.012110 0.962743 0.629714
0.020397 0.961165 0.619636
0.034937 0.956685 0.597300
0.109722 0.954926 0.516983
0.884050 0.975165 0.521093
0.998758 0.932494 0.648729
-0.099460 1.013391 0.473979
-0.143551 1.014231 0.459301
-0.235895 1.012986 0.451051
-0.325989 1.027424 0.418571
-0.233643 1.035537 -0.247938
0.893500 1.033020 0.388354
0.284141 -0.372130 0.945280
0.389688 -0.372079 0.944615
0.633138 -0.372360 0.941669
0.924847 -0.373658 0.922877
0.981270 -0.375763 0.922300
0.981948 -0.375761 0.908758
0.258725 -0.040297 0.935278
0.320928 -0.016171 0.934837
0.559580 0.023559 0.927342
0.853024 0.017178 0.912911
0.957381 0.016348 0.907058
0.981551 0.016269 0.898228
0.053468 0.364926 0.929850
0.098777 0.348921 0.930539
0.466243 0.319374 0.940607
0.787676 0.189600 0.927370
0.971375 0.144297 0.914331
0.989162 0.155912 0.908403
0.013170 0.679261 0.916642
0.019127 0.665180 0.920228
-0.117088 0.636059 0.925264
0.709099 0.681816 0.932488
0.990340 0.631505 0.924488
0.997163 0.629641 0.907432
0.155082 0.959714 0.900839
0.173664 0.960685 0.898015
0.209115 0.959591 0.893628
0.661868 0.965713 0.898952
0.970524 0.966608 0.896127
0.999221 0.954017 0.888771
0.226861 1.027192 0.846143
0.226278 1.026561 0.839324
0.172201 1.027648 0.830382
0.591870 1.032584 0.841677
0.814913 1.036493 0.837974
0.992266 1.034867 0.861933
0.282025 -0.367744 0.950319
0.376171 -0.367863 0.946589
0.598644 -0.367630 0.941472
0.866210 -0.371695 0.935731
0.947727 -0.375174 0.924725
0.981069 -0.375979 0.927698
0.269393 -0.020680 0.945215
0.327111 0.019757 0.947523
0.538073 0.023016 0.944373
0.805653 0.018667 0.936327
0.946568 0.015428 0.924842
0.981056 0.017920 0.926952
0.150795 0.331645 0.945400
0.181826 0.318139 0.945061
0.471970 0.315395 0.952758
0.750136 0.201687 0.944729
0.964063 0.125910 0.937297
0.989455 0.139467 0.934018
0.012662 0.607056 0.935959
0.018620 0.593629 0.938268
-0.103381 0.587164 0.941386
0.710420 0.677630 0.945032
0.972968 0.627269 0.938968
0.996205 0.619532 0.938487
0.095803 0.928993 0.915505
0.113095 0.924715 0.913976
0.134482 0.910285 0.914717
0.661078 0.923782 0.923569
0.971028 0.960573 0.928539
0.998420 0.952246 0.928479
0.250311 0.973470 0.907788
0.271517 0.974377 0.909722
0.292453 0.971981 0.908460
0.659199 0.984368 0.916952
0.953881 0.995672 0.929372
1.000150 0.997917 0.920419
