assets/luts/Vivid_LUTs_4.cube
LUT_3D_SIZE 16
-0.016102 -0.012893 -0.005168
0.017543 -0.013159 -0.006257
0.121290 0.007584 0.013331
0.220509 0.019657 0.022393
0.315643 0.024305 0.026847
0.419509 0.032899 0.039161
0.526350 0.055836 0.058348
0.618619 0.092879 0.086873
0.686548 0.130948 0.112466
0.714484 0.168063 0.142066
0.719025 0.179253 0.148612
0.725934 0.184770 0.154297
0.732218 0.190449 0.159806
0.735624 0.194514 0.162112
0.738439 0.198092 0.164070
0.741714 0.202338 0.166420
-0.014951 0.013944 0.004958
-0.032319 0.006919 0.008349
0.104189 0.021285 0.015534
0.203782 0.023387 0.019984
0.303668 0.028581 0.027576
0.404427 0.037482 0.036485
0.514842 0.060356 0.056234
0.607694 0.094663 0.083265
0.681182 0.131590 0.111013
0.714568 0.170122 0.141116
0.720979 0.184488 0.150194
0.726387 0.189094 0.155088
0.732759 0.194795 0.160647
0.735866 0.198931 0.163785
0.738626 0.202508 0.165929
0.741958 0.206690 0.168254
0.032837 0.089178 0.034418
0.029529 0.085957 0.034211
0.076494 0.087448 0.038910
0.181176 0.090086 0.032715
0.282478 0.080333 0.030591
0.385457 0.073007 0.036363
0.496822 0.080624 0.054809
0.593044 0.100516 0.079238
0.671876 0.131277 0.107996
0.711754 0.168490 0.137257
0.723652 0.188105 0.152262
0.728293 0.192294 0.156465
0.733408 0.197606 0.161446
0.736359 0.201985 0.164535
0.739017 0.205814 0.167213
0.742210 0.210234 0.169962
0.063577 0.157821 0.055034
0.065534 0.154772 0.054648
0.083902 0.150752 0.054510
0.160409 0.157838 0.068432
0.260133 0.157598 0.060998
0.365047 0.146724 0.056585
0.476505 0.145234 0.064988
0.575803 0.150190 0.082043
0.658475 0.164579 0.105128
0.707864 0.191582 0.135179
0.724894 0.210017 0.153611
0.727046 0.208771 0.156412
0.731579 0.210821 0.160445
0.736386 0.212404 0.164183
0.739885 0.213435 0.167212
0.743339 0.216504 0.170716
0.101129 0.218262 0.072323
0.105185 0.216952 0.074334
0.106491 0.212376 0.074020
0.155166 0.210496 0.080139
0.231056 0.220941 0.099737
0.336826 0.225560 0.094284
0.444366 0.220431 0.090446
0.553226 0.219564 0.098737
0.639508 0.220540 0.111939
0.704924 0.232945 0.136579
0.730996 0.252339 0.162445
0.732624 0.248437 0.163173
0.735871 0.248465 0.165200
0.739182 0.248055 0.167990
0.741669 0.247352 0.170403
0.746193 0.250167 0.174266
0.139247 0.281061 0.098798
0.142013 0.278344 0.097814
0.141678 0.274813 0.096283
0.162253 0.267864 0.094602
0.228069 0.270867 0.107554
0.313532 0.286894 0.131339
0.421074 0.300290 0.131786
0.520991 0.291822 0.123476
0.615049 0.288648 0.132212
0.696962 0.294767 0.151112
0.736806 0.307931 0.172800
0.741542 0.304258 0.177755
0.743614 0.299609 0.179801
0.745879 0.296617 0.181158
0.748325 0.293730 0.182425
0.752369 0.294846 0.185422
0.183201 0.339164 0.122961
0.186773 0.337174 0.122616
0.187864 0.333294 0.121635
0.192919 0.328150 0.120895
0.228907 0.322993 0.121033
0.307218 0.336017 0.139935
0.408044 0.364720 0.171976
0.514120 0.382392 0.176105
0.593544 0.364622 0.161428
0.678713 0.362874 0.171494
0.749607 0.378962 0.198190
0.760721 0.379221 0.205719
0.760778 0.371817 0.204243
0.762624 0.366069 0.204600
0.763279 0.358250 0.203788
0.765939 0.356722 0.205972
0.223235 0.403070 0.145984
0.225009 0.399933 0.144861
0.227717 0.397108 0.144533
0.225717 0.391829 0.142739
0.250534 0.384987 0.140564
0.301917 0.386113 0.147901
0.390369 0.411466 0.172759
0.503770 0.452710 0.222855
0.601856 0.472899 0.235290
0.669412 0.449623 0.212820
0.747992 0.450122 0.225635
0.787072 0.461330 0.246062
0.787100 0.453079 0.244449
0.786996 0.445091 0.241668
0.786736 0.436195 0.238610
0.790030 0.434436 0.240149
0.269828 0.473133 0.175216
0.271804 0.470211 0.173432
0.272973 0.466773 0.171841
0.271445 0.461707 0.169413
0.281588 0.455899 0.166233
0.316223 0.446925 0.166860
0.383238 0.460099 0.182097
0.481242 0.491857 0.221484
0.601862 0.545600 0.286620
0.692486 0.567388 0.301831
0.755237 0.548363 0.281802
0.809027 0.541656 0.285928
0.811901 0.531532 0.283317
0.811381 0.522130 0.280536
0.811013 0.511937 0.277542
0.812954 0.508565 0.277840
0.327603 0.551188 0.215011
0.328431 0.547570 0.212738
0.330027 0.543466 0.211011
0.329685 0.538033 0.208715
0.329725 0.532296 0.206334
0.354505 0.523371 0.200951
0.393303 0.518170 0.203263
0.475802 0.540223 0.232934
0.581675 0.583135 0.284472
0.693519 0.635930 0.346057
0.775460 0.658711 0.366192
0.832593 0.644079 0.351191
0.845541 0.628103 0.342196
0.841136 0.610459 0.331629
0.836993 0.592428 0.320586
0.836690 0.584956 0.316572
0.409044 0.645005 0.278128
0.410426 0.641196 0.275208
0.411424 0.636579 0.272741
0.408244 0.629680 0.267160
0.402748 0.621790 0.260618
0.414074 0.612683 0.255975
0.446208 0.604231 0.253069
0.494460 0.607383 0.262735
0.584673 0.638227 0.299135
0.680124 0.677932 0.346180
0.774458 0.722627 0.406624
0.846492 0.741573 0.435712
0.874056 0.726934 0.418682
0.871482 0.709826 0.403405
0.868593 0.690980 0.389375
0.869237 0.681205 0.383311
0.505001 0.763523 0.360155
0.507675 0.761263 0.357088
0.510834 0.757354 0.354957
0.508879 0.751267 0.350112
0.502463 0.742410 0.343126
0.498936 0.729318 0.332725
0.527340 0.719072 0.327404
0.554285 0.709265 0.324119
0.611820 0.717393 0.336878
0.688426 0.742127 0.371071
0.766746 0.770656 0.417490
0.844551 0.803190 0.473437
0.890379 0.812705 0.497883
0.893240 0.796795 0.480977
0.891330 0.778205 0.461405
0.893000 0.768456 0.451516
0.531150 0.797198 0.388356
0.535016 0.798816 0.386365
0.538987 0.800623 0.384585
0.542735 0.801009 0.384362
0.545798 0.800863 0.384020
0.546576 0.799833 0.383080
0.571927 0.796156 0.380536
0.605898 0.794657 0.379706
0.643485 0.792887 0.380223
0.704392 0.808097 0.408578
0.772328 0.827068 0.445075
0.838984 0.847800 0.488996
0.898472 0.868962 0.534421
0.911070 0.866352 0.542064
0.910255 0.852994 0.533834
0.912913 0.845019 0.527406
0.543696 0.811700 0.398955
0.545999 0.810604 0.397129
0.549564 0.812179 0.395195
0.552861 0.812542 0.394376
0.555948 0.812426 0.394161
0.557778 0.812510 0.394143
0.573415 0.811683 0.393408
0.609408 0.812879 0.393451
0.647063 0.814903 0.396699
0.700504 0.828433 0.417134
0.766696 0.848331 0.453870
0.832861 0.869599 0.497362
0.890429 0.891540 0.543714
0.924081 0.902644 0.568709
0.924744 0.900444 0.564785
0.926466 0.896813 0.563894
0.556421 0.826873 0.410009
0.558284 0.824902 0.408143
0.560696 0.824750 0.406372
0.564067 0.825243 0.405423
0.567091 0.825152 0.405192
0.569433 0.825100 0.404958
0.575701 0.824342 0.403927
0.610772 0.826628 0.403615
0.646913 0.827419 0.405530
0.691052 0.834909 0.418236
0.753069 0.851584 0.451133
0.818340 0.870913 0.491454
0.876817 0.889663 0.535084
0.920969 0.907536 0.574858
0.928283 0.907076 0.573697
0.931428 0.908448 0.574740
0.593562 0.877179 0.439315
0.595326 0.875636 0.437391
0.596260 0.873768 0.435767
0.596949 0.873047 0.434859
0.596989 0.872938 0.434496
0.594695 0.872938 0.434333
0.593669 0.872551 0.433235
0.619533 0.875969 0.432151
0.653477 0.876206 0.433852
0.694675 0.881476 0.444916
0.757913 0.896465 0.475678
0.825306 0.913435 0.514867
0.885543 0.929853 0.556886
0.934427 0.948930 0.598767
0.945878 0.949848 0.603759
0.949751 0.949676 0.603397
-0.215010 -0.317274 -0.156706
-0.216195 -0.316931 -0.156822
-0.189955 -0.316428 -0.155694
0.109987 -0.316044 -0.155188
0.275233 -0.315717 -0.154716
0.400846 -0.315180 -0.152891
0.520485 -0.313570 -0.147381
0.617362 -0.308959 -0.135622
0.688951 -0.299402 -0.115108
0.717612 -0.286108 -0.075949
0.717766 -0.285672 -0.087075
0.717794 -0.290041 -0.110598
0.718474 -0.294157 -0.130416
0.717222 -0.297105 -0.145299
0.718087 -0.297070 -0.150102
0.720967 -0.294630 -0.148127
-0.015906 0.017312 0.022840
-0.034735 0.008492 0.023623
0.103189 -0.012831 0.022459
0.206221 0.014439 0.027764
0.304826 0.026481 0.033078
0.407144 0.039748 0.043546
0.516226 0.061661 0.061650
0.608188 0.096169 0.087548
0.682604 0.133309 0.115902
0.716849 0.171753 0.145922
0.722919 0.186127 0.154819
0.727006 0.190419 0.158071
0.733570 0.196129 0.163771
0.737446 0.201250 0.167562
0.740410 0.205133 0.169999
0.743738 0.209405 0.172347
0.031561 0.089397 0.039201
0.026771 0.086059 0.038686
0.075959 0.086190 0.043007
0.182047 0.088883 0.037675
0.283536 0.078526 0.035816
0.387221 0.073425 0.042782
0.496744 0.081158 0.060068
0.593394 0.100698 0.083808
0.672940 0.132378 0.111892
0.712982 0.169847 0.141246
0.725857 0.189960 0.156940
0.728715 0.193821 0.159470
0.734134 0.199133 0.164520
0.737794 0.204409 0.168326
0.740759 0.208453 0.171202
0.743670 0.212869 0.174014
0.063659 0.157900 0.058970
0.066574 0.155195 0.059129
0.083552 0.150223 0.059096
0.158303 0.156785 0.071884
0.260648 0.156853 0.065150
0.365633 0.147054 0.061200
0.477817 0.145230 0.069914
0.577082 0.150011 0.086385
0.658866 0.164971 0.109774
0.709371 0.191465 0.138946
0.727035 0.211064 0.158494
0.729635 0.210123 0.161009
0.734342 0.212289 0.165041
0.738035 0.214778 0.168458
0.741562 0.216195 0.171496
0.745077 0.219564 0.175052
0.100884 0.219137 0.077644
0.104653 0.215910 0.076708
0.106148 0.211951 0.076601
0.153908 0.210551 0.083673
0.230709 0.220618 0.103325
0.336435 0.224709 0.096996
0.444808 0.219858 0.093605
0.554091 0.219537 0.102325
0.640202 0.220355 0.115687
0.706083 0.233221 0.140160
0.733121 0.253552 0.166258
0.734778 0.249238 0.167041
0.737913 0.249176 0.169309
0.741665 0.249750 0.173135
0.744368 0.249191 0.175916
0.748543 0.252043 0.179704
0.138660 0.280733 0.101770
0.141682 0.278164 0.100643
0.141631 0.274402 0.099135
0.161640 0.267097 0.097891
0.226492 0.270075 0.110426
0.313089 0.286445 0.134387
0.421140 0.299990 0.135182
0.521583 0.291948 0.126750
0.616092 0.288979 0.135443
0.698292 0.294783 0.154058
0.739298 0.309018 0.177485
0.744028 0.305595 0.182185
0.746534 0.301177 0.184451
0.748871 0.298284 0.185771
0.751340 0.295577 0.187231
0.755151 0.296830 0.190433
0.183504 0.339003 0.125772
0.186612 0.337225 0.125407
0.187691 0.333323 0.124371
0.192431 0.328306 0.123322
0.227959 0.322591 0.124001
0.306173 0.335782 0.142226
0.407998 0.365395 0.175259
0.514532 0.381944 0.179131
0.594142 0.364755 0.164359
0.680147 0.363359 0.174882
0.751334 0.379613 0.201616
0.763336 0.380152 0.209543
0.762883 0.372910 0.207848
0.764236 0.367237 0.207401
0.764391 0.359254 0.206207
0.767305 0.357784 0.208568
0.222786 0.403085 0.149318
0.225263 0.400825 0.148544
0.228038 0.397861 0.148050
0.226364 0.392390 0.145880
0.250168 0.385828 0.144080
0.302140 0.387011 0.151518
0.390613 0.411852 0.176254
0.504045 0.453053 0.226021
0.603271 0.473622 0.238718
0.670815 0.450394 0.216024
0.749691 0.450533 0.228785
0.789044 0.462203 0.248968
0.789085 0.453967 0.247385
0.790182 0.445971 0.245800
0.790356 0.437198 0.243152
0.793573 0.435498 0.244693
0.271051 0.474024 0.179200
0.272721 0.471327 0.177552
0.274019 0.467970 0.175817
0.272423 0.462631 0.173036
0.282035 0.456381 0.169499
0.315996 0.447921 0.169699
0.383035 0.459954 0.184811
0.480968 0.492523 0.224341
0.602865 0.546772 0.289805
0.694109 0.568310 0.305934
0.756317 0.548790 0.283901
0.811057 0.542559 0.289805
0.815006 0.533169 0.288291
0.814616 0.523647 0.285093
0.814255 0.513692 0.281935
0.816250 0.510556 0.282162
0.328210 0.551940 0.219040
0.329403 0.549357 0.217093
0.330630 0.544911 0.214900
0.330580 0.538663 0.211428
0.329525 0.531990 0.208045
0.355080 0.523972 0.204883
0.393681 0.519459 0.207303
0.475883 0.540935 0.236002
0.583355 0.584404 0.288567
0.695225 0.637454 0.351239
0.777390 0.659731 0.371174
0.834599 0.645052 0.355582
0.847889 0.628856 0.345963
0.842975 0.611285 0.334964
0.839042 0.593324 0.324379
0.839039 0.585834 0.320556
0.411409 0.646587 0.283209
0.411259 0.642380 0.279348
0.411596 0.637466 0.276075
0.410551 0.631624 0.272498
0.405658 0.624091 0.266623
0.415827 0.614170 0.261077
0.446890 0.605293 0.256564
0.494721 0.607777 0.266104
0.585885 0.639342 0.304259
0.681153 0.679383 0.350973
0.775302 0.724561 0.411849
0.847822 0.742791 0.439571
0.874969 0.727382 0.421123
0.872770 0.709494 0.405575
0.870225 0.690997 0.391974
0.870965 0.681383 0.385988
0.507674 0.765282 0.363709
0.508118 0.763025 0.361459
0.511410 0.759835 0.359352
0.509835 0.753174 0.354926
0.503577 0.743804 0.347637
0.499450 0.730548 0.337075
0.528357 0.721917 0.332873
0.556639 0.710668 0.328671
0.611799 0.717116 0.339534
0.688668 0.743191 0.375075
0.767303 0.771261 0.420824
0.846615 0.804374 0.477579
0.891742 0.813328 0.501278
0.895370 0.798474 0.486050
0.893004 0.779719 0.466582
0.894527 0.769645 0.456240
0.535066 0.799790 0.391597
0.536733 0.801058 0.391582
0.540644 0.802665 0.389859
0.544324 0.803355 0.389424
0.547416 0.803122 0.389158
0.548251 0.801174 0.387730
0.572205 0.797523 0.385206
0.606022 0.796583 0.384938
0.644389 0.794655 0.385527
0.705824 0.809886 0.413286
0.772649 0.828014 0.448754
0.840042 0.849152 0.493106
0.900525 0.871868 0.540656
0.912130 0.867736 0.546423
0.910839 0.853866 0.537368
0.913781 0.845883 0.530928
0.543432 0.811259 0.401478
0.548830 0.814235 0.403451
0.552374 0.815311 0.401465
0.553515 0.815427 0.399920
0.556066 0.815359 0.399411
0.558160 0.815530 0.399378
0.573449 0.813638 0.398308
0.611891 0.815564 0.400279
0.647837 0.817773 0.401267
0.701794 0.830648 0.422171
0.766610 0.850118 0.457935
0.833391 0.872190 0.502485
0.890963 0.892263 0.547030
0.926125 0.904578 0.574218
0.927170 0.902640 0.571836
0.929032 0.899042 0.570883
0.554889 0.825586 0.412231
0.561125 0.828558 0.414756
0.563835 0.828258 0.413103
0.565007 0.828491 0.411247
0.566736 0.828178 0.410617
0.569263 0.828085 0.410419
0.575215 0.827667 0.409378
0.614238 0.829442 0.411355
0.647922 0.830119 0.410435
0.691668 0.837153 0.422619
0.753053 0.853601 0.455738
0.819268 0.873317 0.496470
0.877549 0.890797 0.539080
0.922367 0.909290 0.579364
0.929806 0.908556 0.578387
0.932964 0.910089 0.579383
0.592218 0.875906 0.441278
0.598281 0.878970 0.443849
0.599739 0.877567 0.442251
0.598377 0.876270 0.440667
0.596496 0.875995 0.439815
0.594045 0.875881 0.439515
0.592855 0.875518 0.438585
0.622289 0.878367 0.439515
0.654118 0.879054 0.438700
0.694944 0.883651 0.449003
0.757979 0.898889 0.480472
0.825458 0.916035 0.519622
0.886318 0.931484 0.561244
0.935236 0.950340 0.603060
0.947643 0.951549 0.608697
0.951166 0.951349 0.608276
-0.214903 -0.315132 -0.130600
-0.216632 -0.316023 -0.133365
-0.210942 -0.316846 -0.141135
-0.059523 -0.316682 -0.141232
0.286071 -0.316826 -0.139809
0.413254 -0.315855 -0.138025
0.530622 -0.313047 -0.130026
0.623462 -0.307697 -0.115391
0.694387 -0.298345 -0.090154
0.723498 -0.284276 0.029711
0.724660 -0.284051 -0.050986
0.722081 -0.288746 -0.095549
0.720768 -0.293380 -0.123081
0.719687 -0.296607 -0.140150
0.720146 -0.296389 -0.145117
0.723159 -0.293728 -0.142346
-0.007459 0.056030 0.091812
-0.030856 0.047968 0.088262
0.047761 0.033396 0.078721
0.195212 0.029424 0.078380
0.312909 0.026355 0.077913
0.416537 0.047730 0.081346
0.524416 0.073838 0.093302
0.612905 0.103631 0.109058
0.686081 0.137288 0.129367
0.719663 0.175695 0.155475
0.727858 0.189808 0.164499
0.730535 0.193079 0.165437
0.735537 0.197510 0.168390
0.738808 0.202103 0.171160
0.741747 0.206545 0.174024
0.745096 0.211324 0.177122
-0.022726 0.098306 0.075339
-0.030384 0.096096 0.075694
0.065839 0.090008 0.077427
0.187580 0.084361 0.068166
0.292451 0.076478 0.062800
0.394512 0.073986 0.065534
0.501574 0.082050 0.076073
0.595086 0.101705 0.093355
0.674814 0.133362 0.118424
0.714701 0.171357 0.147116
0.728966 0.192156 0.163227
0.730492 0.195577 0.164022
0.734582 0.200571 0.167526
0.738627 0.205839 0.171468
0.741999 0.210647 0.174883
0.745430 0.215676 0.178307
0.066168 0.158957 0.078292
0.069756 0.156708 0.077296
0.084184 0.151516 0.076052
0.155917 0.155023 0.083007
0.260595 0.156443 0.075208
0.367138 0.146674 0.069279
0.479380 0.144214 0.077061
0.578324 0.148531 0.091131
0.659011 0.163842 0.114032
0.710870 0.190375 0.142654
0.728940 0.210675 0.162649
0.732211 0.210412 0.165571
0.736206 0.213108 0.169290
0.739833 0.216020 0.172532
0.743251 0.218574 0.175814
0.747024 0.222846 0.179641
0.101170 0.219743 0.087420
0.104992 0.216397 0.085870
0.105628 0.211743 0.082815
0.151414 0.209297 0.088022
0.229517 0.219618 0.107884
0.335671 0.223264 0.100003
0.445114 0.218181 0.096702
0.554981 0.218028 0.105429
0.640870 0.218128 0.119219
0.706956 0.232235 0.143799
0.734789 0.253903 0.170121
0.737124 0.249542 0.171360
0.740441 0.249310 0.174456
0.744174 0.250357 0.178328
0.746847 0.250947 0.181525
0.751219 0.254512 0.185267
0.138383 0.279603 0.104753
0.141559 0.277138 0.103589
0.141308 0.273366 0.101552
0.159613 0.266265 0.100867
0.223689 0.268824 0.113083
0.310631 0.284878 0.136364
0.420272 0.298596 0.137743
0.521754 0.290592 0.129054
0.617369 0.288161 0.138892
0.699493 0.293484 0.156479
0.740665 0.308775 0.181613
0.746027 0.306086 0.186776
0.749020 0.302029 0.188563
0.751517 0.299561 0.189999
0.753944 0.297473 0.191709
0.758142 0.299429 0.195547
0.183285 0.338460 0.128502
0.186298 0.336678 0.128333
0.187200 0.333221 0.127208
0.191715 0.327665 0.125871
0.226425 0.321726 0.126391
0.304439 0.335148 0.144722
0.407147 0.365359 0.178286
0.514242 0.381163 0.181700
0.594440 0.364445 0.167167
0.681176 0.363130 0.177767
0.752959 0.379259 0.204800
0.765206 0.380491 0.212959
0.765144 0.373342 0.211665
0.766627 0.368227 0.211738
0.766668 0.360539 0.210585
0.769263 0.359249 0.212645
0.223029 0.403272 0.152541
0.225808 0.401077 0.151873
0.228038 0.398052 0.150735
0.226697 0.392918 0.149024
0.249323 0.385887 0.147466
0.301077 0.387109 0.154875
0.390451 0.411674 0.180442
0.503856 0.453319 0.228939
0.604470 0.473712 0.242027
0.671804 0.450155 0.218846
0.751612 0.450645 0.232007
0.791474 0.462393 0.252285
0.791229 0.454069 0.250711
0.792539 0.446528 0.249344
0.793499 0.437974 0.247316
0.796679 0.436774 0.249001
0.271280 0.474645 0.182639
0.273019 0.472024 0.181313
0.274722 0.468848 0.179860
0.273326 0.463286 0.177082
0.281405 0.456712 0.172987
0.315127 0.448923 0.172405
0.381730 0.459161 0.186934
0.480500 0.492407 0.226995
0.603266 0.547669 0.293194
0.695068 0.568710 0.308662
0.757244 0.548708 0.285884
0.813656 0.543172 0.293613
0.818865 0.535136 0.293881
0.817847 0.525586 0.290163
0.817313 0.515487 0.286387
0.819459 0.512332 0.286854
0.329070 0.552422 0.222681
0.330446 0.549786 0.220823
0.330345 0.545615 0.217812
0.330604 0.539726 0.214452
0.329257 0.532553 0.210529
0.354932 0.524597 0.208503
0.393802 0.521071 0.211798
0.476224 0.541677 0.239373
0.584233 0.585024 0.291950
0.696332 0.638668 0.355993
0.778872 0.660294 0.375630
0.836490 0.645730 0.359447
0.849394 0.629524 0.349660
0.844929 0.611880 0.338744
0.841433 0.594215 0.328518
0.841594 0.586626 0.324964
0.413530 0.647177 0.287341
0.413146 0.642868 0.283502
0.411663 0.638718 0.279550
0.411239 0.633443 0.276616
0.407590 0.625655 0.271587
0.416799 0.615054 0.264500
0.446827 0.605781 0.259438
0.494598 0.607802 0.268807
0.586271 0.640057 0.308466
0.681855 0.680076 0.355673
0.775872 0.726113 0.416808
0.849157 0.744126 0.443446
0.876087 0.727713 0.423818
0.874615 0.709740 0.408592
0.872150 0.690993 0.394909
0.872425 0.681285 0.388462
0.509003 0.766684 0.368055
0.509658 0.764638 0.365981
0.511953 0.762649 0.364608
0.510369 0.756073 0.360226
0.504381 0.744980 0.352335
0.500202 0.732875 0.343411
0.527626 0.722912 0.336310
0.558331 0.711733 0.332820
0.611152 0.717109 0.342678
0.688894 0.744296 0.379633
0.767420 0.771674 0.424297
0.847529 0.805143 0.481571
0.893665 0.814479 0.505589
0.897026 0.800047 0.489348
0.894531 0.779982 0.469670
0.895578 0.768975 0.458933
0.538896 0.802421 0.395116
0.540587 0.803629 0.395104
0.542376 0.805028 0.394981
0.546016 0.805568 0.394811
0.549180 0.805382 0.394480
0.550004 0.803111 0.392761
0.572621 0.798989 0.389867
0.606791 0.798710 0.390964
0.644793 0.796802 0.391028
0.706472 0.810895 0.417195
0.773007 0.828747 0.452182
0.840999 0.850103 0.496566
0.902623 0.874227 0.546534
0.914522 0.868606 0.550953
0.912787 0.855189 0.541697
0.915576 0.847282 0.535190
0.547123 0.813980 0.404891
0.552580 0.816502 0.407080
0.554148 0.817792 0.406614
0.555116 0.817701 0.405090
0.557661 0.817534 0.404646
0.559865 0.817584 0.404543
0.573850 0.816438 0.404809
0.613942 0.819355 0.407708
0.648716 0.820849 0.408296
0.703451 0.832777 0.427204
0.767270 0.851534 0.462056
0.834360 0.874653 0.507656
0.891777 0.893538 0.551060
0.928772 0.907630 0.580424
0.929639 0.904998 0.578688
0.931247 0.901152 0.577926
0.555793 0.825921 0.415167
0.562353 0.829350 0.417854
0.566662 0.831463 0.419041
0.567444 0.831432 0.417460
0.567607 0.830808 0.415933
0.569903 0.830891 0.415658
0.575580 0.830166 0.414964
0.615687 0.831692 0.417173
0.648393 0.832375 0.415775
0.693058 0.839497 0.427887
0.754267 0.855949 0.460783
0.820763 0.875146 0.501404
0.878192 0.892066 0.543142
0.923973 0.910941 0.584185
0.932185 0.911136 0.584090
0.935095 0.912303 0.586064
0.590927 0.874898 0.442678
0.597284 0.878110 0.445519
0.602772 0.880743 0.447896
0.602520 0.880145 0.446823
0.598927 0.879531 0.445167
0.594148 0.879248 0.444340
0.591824 0.878818 0.443509
0.623573 0.881305 0.445559
0.653242 0.881323 0.442768
0.693532 0.885774 0.452480
0.757937 0.901076 0.484754
0.825313 0.917252 0.523443
0.885832 0.933057 0.564895
0.935248 0.951494 0.606787
0.948140 0.953016 0.613226
0.952013 0.952856 0.612863
-0.214521 -0.309142 0.091392
-0.216031 -0.310460 0.078752
-0.217599 -0.314105 0.065908
-0.173643 -0.315808 -0.070792
0.223970 -0.314850 -0.067105
0.403925 -0.316146 -0.023048
0.541939 -0.315293 0.054370
0.638974 -0.306377 0.090683
0.714127 -0.292152 0.126535
0.746776 -0.273610 0.156898
0.749191 -0.272851 0.147538
0.745052 -0.278467 0.123914
0.742151 -0.283588 0.090638
0.739004 -0.287897 -0.039620
0.737883 -0.288450 -0.078846
0.740680 -0.285279 -0.072345
0.002714 0.091276 0.159440
-0.012982 0.087823 0.157287
-0.039211 0.069193 0.152568
0.131620 0.059950 0.139081
0.272426 0.068234 0.138660
0.413015 0.055270 0.145232
0.534287 0.069119 0.149326
0.627037 0.114530 0.162143
0.702776 0.153844 0.177471
0.737693 0.192832 0.198547
0.746747 0.205449 0.203619
0.748497 0.207642 0.202034
0.750266 0.210385 0.201033
0.752820 0.214134 0.201319
0.754274 0.217115 0.200496
0.757645 0.221633 0.203353
-0.010598 0.133684 0.162389
-0.018545 0.128537 0.158460
-0.047442 0.115638 0.157763
0.133461 0.093714 0.135812
0.270798 0.087891 0.125784
0.399219 0.073607 0.127941
0.513060 0.083816 0.133081
0.608063 0.113910 0.144498
0.687397 0.147568 0.161105
0.728586 0.184987 0.182746
0.741524 0.204965 0.192031
0.743023 0.206853 0.190266
0.746410 0.210503 0.191342
0.748375 0.214065 0.192144
0.750183 0.217058 0.192295
0.753872 0.222167 0.195622
-0.026358 0.174224 0.133491
-0.022621 0.171117 0.130909
0.017337 0.166712 0.130355
0.143477 0.155352 0.126684
0.264884 0.153743 0.121521
0.380059 0.146277 0.115216
0.489702 0.146302 0.118016
0.586229 0.152224 0.127090
0.668298 0.168984 0.143040
0.719725 0.195887 0.165785
0.736594 0.214854 0.180386
0.738405 0.213929 0.179804
0.740995 0.216399 0.181347
0.744417 0.219046 0.183632
0.748253 0.222264 0.186571
0.752717 0.227706 0.190809
0.089371 0.224408 0.117071
0.098340 0.221875 0.116742
0.104822 0.217290 0.115069
0.149339 0.210669 0.115957
0.227275 0.218544 0.131482
0.337149 0.224103 0.123886
0.452018 0.220215 0.119988
0.559318 0.217173 0.123080
0.645978 0.218461 0.134074
0.711335 0.233122 0.155238
0.738543 0.254009 0.177792
0.740038 0.249732 0.177077
0.743037 0.249799 0.179547
0.746125 0.251224 0.182213
0.748822 0.252590 0.184971
0.752719 0.256981 0.188867
0.143967 0.283192 0.129939
0.147156 0.280796 0.128379
0.147113 0.276486 0.124709
0.160991 0.269350 0.119237
0.219738 0.268184 0.126187
0.309781 0.285237 0.148319
0.420013 0.297656 0.146998
0.523504 0.289427 0.136379
0.618591 0.286249 0.143617
0.700169 0.291093 0.158967
0.741645 0.307131 0.184252
0.747935 0.305576 0.190563
0.750699 0.301928 0.192197
0.753586 0.300076 0.194197
0.756221 0.298713 0.196174
0.760690 0.301568 0.200422
0.184701 0.342084 0.143041
0.187928 0.339369 0.141240
0.188587 0.335038 0.137907
0.191616 0.329013 0.134064
0.224823 0.321636 0.132216
0.302446 0.334210 0.149054
0.405182 0.364826 0.181726
0.513298 0.379829 0.184347
0.594330 0.363190 0.169496
0.681511 0.361364 0.179672
0.754293 0.377861 0.207543
0.767918 0.380678 0.217304
0.768215 0.374031 0.216636
0.769776 0.368852 0.216739
0.770369 0.362461 0.216147
0.772907 0.361941 0.218252
0.223585 0.403499 0.156936
0.226479 0.401152 0.155929
0.228386 0.398162 0.154401
0.227047 0.393117 0.152341
